;FLAVOR:Marlin
;TIME:5136
;Filament used: 2.87248m
;Layer height: 0.2
;MINX:54.878
;MINY:73.945
;MINZ:0.2
;MAXX:159.124
;MAXY:148.06
;MAXZ:8.8
;TARGET_MACHINE.NAME:Creality Ender-3
;Generated with Cura_SteamEngine 5.10.1
M140 S65
M105
M190 S65
M104 S195
M105
M109 S195
; Ender 3 Custom Start G-code
G92 E0 ; Reset Extruder
G28 ; Home all axes
G1 Z2.0 F3000 ; Move Z Axis up little to prevent scratching of Heat Bed
G1 X0.1 Y20 Z0.3 F5000.0 ; Move to start position
G1 X0.1 Y200.0 Z0.3 F1500.0 E15 ; Draw the first line
G1 X0.4 Y200.0 Z0.3 F5000.0 ; Move to side a little
G1 X0.4 Y20 Z0.3 F1500.0 E30 ; Draw the second line
G92 E0 ; Reset Extruder
G1 Z2.0 F3000 ; Move Z Axis up little to prevent scratching of Heat Bed
G1 X5 Y20 Z0.3 F5000.0 ; Move over to prevent blob squish
M82 ;absolute extrusion mode
G92 E0
G92 E0
G1 F2700 E-8
;LAYER_COUNT:43
;LAYER:0
M107
G1 F300 Z0.4
G0 F3000 X59.262 Y76.752 Z0.4
;TYPE:SKIRT
G1 F300 Z0.2
G1 F2700 E0
G1 F900 X59.842 Y76.311 E0.03108
G1 X60.118 Y76.123 E0.04532
G1 X60.503 Y75.889 E0.06454
G1 X60.841 Y75.704 E0.08098
G1 X61.197 Y75.527 E0.09794
G1 X61.608 Y75.344 E0.11713
G1 X62.2 Y75.112 E0.14425
G1 X62.682 Y74.952 E0.16591
G1 X63.337 Y74.769 E0.19492
G1 X64.564 Y74.492 E0.24858
G1 X65.579 Y74.304 E0.29261
G1 X66.378 Y74.183 E0.32708
G1 X67.203 Y74.081 E0.36254
G1 X68.418 Y73.98 E0.41455
G1 X68.873 Y73.958 E0.43398
G1 X69.732 Y73.945 E0.47063
G1 X70.602 Y73.962 E0.50774
G1 X71.174 Y73.989 E0.53217
G1 X72.166 Y74.077 E0.57465
G1 X73.039 Y74.182 E0.61216
G1 X74.217 Y74.37 E0.66304
G1 X75.109 Y74.543 E0.7018
G1 X75.864 Y74.71 E0.73479
G1 X76.677 Y74.939 E0.77081
G1 X77.892 Y75.321 E0.82514
G1 X80.541 Y76.102 E0.94295
G1 X83.237 Y76.817 E1.06192
G1 X85.908 Y77.444 E1.17896
G1 X88.669 Y78.011 E1.29919
G1 X91.345 Y78.483 E1.4151
G1 X94.144 Y78.895 E1.53578
G1 X96.842 Y79.213 E1.65166
G1 X99.639 Y79.464 E1.77145
G1 X102.385 Y79.632 E1.8888
G1 X105.195 Y79.725 E2.00873
G1 X107.92 Y79.737 E2.12497
G1 X110.731 Y79.67 E2.24491
G1 X113.48 Y79.528 E2.36233
G1 X116.251 Y79.304 E2.48091
G1 X118.978 Y79.007 E2.59793
G1 X121.736 Y78.627 E2.71668
G1 X124.482 Y78.17 E2.83543
G1 X127.224 Y77.632 E2.95462
G1 X129.878 Y77.036 E3.07065
G1 X132.571 Y76.347 E3.18922
G1 X135.255 Y75.58 E3.30829
G1 X136.108 Y75.311 E3.34645
G1 X137.665 Y74.841 E3.41582
G1 X138.275 Y74.681 E3.44272
G1 X138.939 Y74.531 E3.47176
G1 X139.967 Y74.338 E3.51638
G1 X141.078 Y74.171 E3.5643
G1 X142.025 Y74.061 E3.60497
G1 X143.035 Y73.981 E3.64818
G1 X143.501 Y73.958 E3.66809
G1 X144.337 Y73.945 E3.70375
G1 X145.205 Y73.962 E3.74078
G1 X145.519 Y73.978 E3.7542
G1 X146.68 Y74.072 E3.80388
G1 X147.747 Y74.198 E3.84971
G1 X148.401 Y74.294 E3.87791
G1 X149.576 Y74.518 E3.92893
G1 X150.638 Y74.76 E3.97539
G1 X151.03 Y74.865 E3.9927
G1 X151.604 Y75.043 E4.01834
G1 X151.913 Y75.156 E4.03237
G1 X152.893 Y75.568 E4.07772
G1 X153.399 Y75.833 E4.10208
G1 X153.797 Y76.068 E4.1218
G1 X154.115 Y76.278 E4.13806
G1 X154.537 Y76.59 E4.16044
G1 X154.838 Y76.844 E4.17724
G1 X155.181 Y77.16 E4.19714
G1 X155.58 Y77.577 E4.22175
G1 X155.813 Y77.846 E4.23694
G1 X156.305 Y78.495 E4.27167
G1 X156.787 Y79.264 E4.31039
G1 X157.072 Y79.805 E4.33647
G1 X157.262 Y80.205 E4.35536
G1 X157.563 Y80.928 E4.38877
G1 X157.781 Y81.513 E4.4154
G1 X158.011 Y82.217 E4.44699
G1 X158.308 Y83.268 E4.49358
G1 X158.467 Y84.024 E4.52653
G1 X158.669 Y85.226 E4.57852
G1 X158.816 Y86.324 E4.62578
G1 X158.955 Y87.738 E4.68638
G1 X159.02 Y88.632 E4.72462
G1 X159.065 Y89.451 E4.75961
G1 X159.099 Y90.346 E4.79781
G1 X159.122 Y91.605 E4.85152
G1 X159.124 Y92.675 E4.89717
G1 X159.112 Y93.511 E4.93283
G1 X159.043 Y95.253 E5.0072
G1 X158.99 Y96.105 E5.04361
G1 X158.922 Y96.949 E5.07973
G1 X158.831 Y97.849 E5.11831
G1 X158.736 Y98.62 E5.15145
G1 X158.612 Y99.437 E5.1867
G1 X158.45 Y100.338 E5.22575
G1 X158.31 Y100.998 E5.25453
G1 X158.078 Y101.862 E5.29269
G1 X157.872 Y102.509 E5.32165
G1 X157.659 Y103.09 E5.34805
G1 X157.25 Y104.081 E5.39378
G1 X157.001 Y104.578 E5.41749
G1 X156.657 Y105.181 E5.4471
G1 X156.184 Y105.865 E5.48258
G1 X155.819 Y106.352 E5.50854
G1 X154.75 Y107.739 E5.58324
G1 X153.114 Y109.991 E5.70197
G1 X151.569 Y112.25 E5.81871
G1 X150.05 Y114.61 E5.93843
G1 X148.614 Y116.986 E6.05685
G1 X147.25 Y119.395 E6.17494
G1 X145.953 Y121.843 E6.29311
G1 X144.261 Y125.285 E6.45672
G1 X143.804 Y126.174 E6.49935
G1 X143.318 Y127.07 E6.54283
G1 X142.755 Y128.054 E6.59119
G1 X142.218 Y128.941 E6.63542
G1 X141.566 Y129.961 E6.68706
G1 X140.934 Y130.898 E6.73527
G1 X140.292 Y131.797 E6.78239
G1 X139.473 Y132.88 E6.84031
G1 X138.703 Y133.834 E6.89261
G1 X137.756 Y134.941 E6.95475
G1 X137.102 Y135.656 E6.99608
G1 X136.079 Y136.704 E7.05855
G1 X135.099 Y137.643 E7.11645
G1 X133.884 Y138.73 E7.18599
G1 X133.144 Y139.343 E7.22698
G1 X131.822 Y140.36 E7.29813
G1 X130.487 Y141.307 E7.36795
G1 X129.58 Y141.903 E7.41424
G1 X128.136 Y142.765 E7.48598
G1 X126.737 Y143.525 E7.55389
G1 X125.313 Y144.222 E7.62152
G1 X123.655 Y144.951 E7.69877
G1 X122.764 Y145.306 E7.73969
G1 X121.151 Y145.878 E7.81269
G1 X118.893 Y146.549 E7.91317
G1 X117.895 Y146.806 E7.95713
G1 X117.547 Y146.886 E7.97236
G1 X115.612 Y147.283 E8.05662
G1 X113.74 Y147.587 E8.13752
G1 X111.815 Y147.815 E8.22021
G1 X109.871 Y147.969 E8.30339
G1 X107.882 Y148.046 E8.3883
G1 X106.805 Y148.06 E8.43424
G1 X105.78 Y148.045 E8.47797
G1 X103.825 Y147.969 E8.56142
G1 X101.832 Y147.811 E8.6467
G1 X99.961 Y147.586 E8.72709
G1 X98.07 Y147.278 E8.80881
G1 X96.212 Y146.894 E8.88974
G1 X94.94 Y146.582 E8.94561
G1 X92.704 Y145.921 E9.04507
G1 X91.227 Y145.405 E9.11181
G1 X90.289 Y145.044 E9.15468
G1 X89.033 Y144.513 E9.21285
G1 X88.498 Y144.264 E9.23802
G1 X86.978 Y143.515 E9.3103
G1 X85.578 Y142.75 E9.37835
G1 X84.306 Y141.985 E9.44167
G1 X82.841 Y141.02 E9.5165
G1 X82.007 Y140.421 E9.5603
G1 X80.756 Y139.45 E9.62785
G1 X79.645 Y138.521 E9.68962
G1 X78.638 Y137.613 E9.74746
G1 X77.682 Y136.69 E9.80415
G1 X76.739 Y135.712 E9.8621
G1 X75.834 Y134.711 E9.91966
G1 X75.048 Y133.781 E9.9716
G1 X74.276 Y132.814 E10.02438
G1 X73.524 Y131.81 E10.07789
G1 X72.86 Y130.87 E10.12698
G1 X72.183 Y129.854 E10.17906
G1 X71.579 Y128.897 E10.22733
G1 X71.042 Y127.996 E10.27207
G1 X70.496 Y127.029 E10.31944
G1 X70.037 Y126.169 E10.36103
G1 X69.523 Y125.154 E10.40956
G1 X67.918 Y121.848 E10.56632
G1 X66.63 Y119.385 E10.68488
G1 X65.27 Y116.955 E10.80366
G1 X63.868 Y114.603 E10.92046
G1 X62.374 Y112.255 E11.03918
G1 X60.82 Y109.959 E11.15744
G1 X59.204 Y107.709 E11.2756
G1 X57.542 Y105.485 E11.39403
G1 X57.34 Y105.17 E11.41
G1 X57.077 Y104.719 E11.43227
G1 X56.844 Y104.275 E11.45365
G1 X56.663 Y103.881 E11.47215
G1 X56.308 Y103.003 E11.51255
G1 X56.107 Y102.447 E11.53777
G1 X55.969 Y102.025 E11.55671
G1 X55.767 Y101.3 E11.58881
G1 X55.545 Y100.3 E11.6325
G1 X55.411 Y99.582 E11.66366
G1 X55.304 Y98.9 E11.69311
G1 X55.203 Y98.127 E11.72636
G1 X55.113 Y97.317 E11.76112
G1 X55.041 Y96.49 E11.79653
G1 X54.988 Y95.749 E11.82822
G1 X54.923 Y94.525 E11.88051
G1 X54.896 Y93.775 E11.91252
G1 X54.878 Y92.825 E11.95305
G1 X54.879 Y91.329 E12.01686
G1 X54.895 Y90.587 E12.04852
G1 X54.94 Y89.351 E12.10128
G1 X54.995 Y88.405 E12.1417
G1 X55.125 Y86.847 E12.20839
G1 X55.185 Y86.292 E12.2322
G1 X55.364 Y84.988 E12.28835
G1 X55.519 Y84.105 E12.32659
G1 X55.791 Y82.893 E12.37957
G1 X55.857 Y82.644 E12.39056
G1 X56.213 Y81.531 E12.44041
G1 X56.353 Y81.148 E12.4578
G1 X56.553 Y80.647 E12.48081
G1 X56.8 Y80.094 E12.50665
G1 X57.203 Y79.288 E12.54509
G1 X57.483 Y78.82 E12.56835
G1 X57.685 Y78.517 E12.58388
G1 X58.039 Y78.032 E12.6095
G1 X58.454 Y77.537 E12.63705
G1 X58.725 Y77.255 E12.65373
G1 X59.262 Y76.752 E12.68512
G0 F3000 X59.626 Y77.229
G1 F900 X60.18 Y76.807 E12.71483
G1 X60.456 Y76.619 E12.72907
G1 X60.791 Y76.415 E12.7458
G1 X61.109 Y76.241 E12.76126
G1 X61.441 Y76.075 E12.7771
G1 X61.827 Y75.903 E12.79512
G1 X62.419 Y75.671 E12.82225
G1 X62.843 Y75.53 E12.84131
G1 X63.498 Y75.347 E12.87032
G1 X64.674 Y75.082 E12.92174
G1 X65.669 Y74.897 E12.96491
G1 X66.452 Y74.778 E12.99869
G1 X67.253 Y74.679 E13.03312
G1 X68.447 Y74.579 E13.08423
G1 X68.882 Y74.558 E13.10281
G1 X69.721 Y74.545 E13.1386
G1 X70.574 Y74.561 E13.17499
G1 X71.121 Y74.587 E13.19835
G1 X72.095 Y74.673 E13.24006
G1 X72.945 Y74.775 E13.27658
G1 X74.103 Y74.959 E13.32659
G1 X74.98 Y75.129 E13.3647
G1 X75.701 Y75.288 E13.39619
G1 X76.497 Y75.512 E13.43146
G1 X77.712 Y75.893 E13.48578
G1 X80.387 Y76.682 E13.60474
G1 X83.083 Y77.397 E13.72372
G1 X85.787 Y78.032 E13.8422
G1 X88.548 Y78.599 E13.96243
G1 X91.258 Y79.077 E14.07982
G1 X94.057 Y79.489 E14.2005
G1 X96.788 Y79.811 E14.3178
G1 X99.585 Y80.062 E14.43759
G1 X102.364 Y80.232 E14.55635
G1 X105.175 Y80.325 E14.67632
G1 X107.931 Y80.337 E14.79388
G1 X110.745 Y80.27 E14.91395
G1 X113.524 Y80.126 E15.03265
G1 X116.299 Y79.902 E15.15141
G1 X119.055 Y79.602 E15.26966
G1 X121.835 Y79.219 E15.38937
G1 X124.586 Y78.761 E15.50833
G1 X127.339 Y78.221 E15.628
G1 X130.028 Y77.617 E15.74556
G1 X132.736 Y76.924 E15.86479
G1 X135.42 Y76.157 E15.98387
G1 X136.281 Y75.885 E16.02238
G1 X137.818 Y75.421 E16.09087
G1 X138.407 Y75.266 E16.11685
G1 X139.05 Y75.121 E16.14496
G1 X140.078 Y74.928 E16.18958
G1 X141.148 Y74.767 E16.23573
G1 X142.073 Y74.659 E16.27546
G1 X143.064 Y74.58 E16.31787
G1 X143.511 Y74.558 E16.33696
G1 X144.326 Y74.545 E16.37173
G1 X145.175 Y74.561 E16.40795
G1 X145.471 Y74.576 E16.42059
G1 X146.61 Y74.668 E16.46933
G1 X147.66 Y74.792 E16.51443
G1 X148.314 Y74.888 E16.54263
G1 X149.443 Y75.103 E16.59165
G1 X150.483 Y75.34 E16.63715
G1 X150.875 Y75.445 E16.65446
G1 X151.399 Y75.607 E16.67786
G1 X151.682 Y75.71 E16.69071
G1 X152.615 Y76.1 E16.73384
G1 X153.121 Y76.365 E16.75821
G1 X153.466 Y76.569 E16.7753
G1 X153.784 Y76.779 E16.79156
G1 X154.15 Y77.049 E16.81096
G1 X154.451 Y77.303 E16.82776
G1 X154.748 Y77.575 E16.84494
G1 X155.126 Y77.97 E16.86826
G1 X155.359 Y78.239 E16.88344
G1 X155.797 Y78.814 E16.91427
G1 X156.256 Y79.544 E16.95106
G1 X156.53 Y80.063 E16.97609
G1 X156.708 Y80.436 E16.99372
G1 X157.001 Y81.138 E17.02617
G1 X157.211 Y81.699 E17.05172
G1 X157.434 Y82.381 E17.08233
G1 X157.721 Y83.392 E17.12716
G1 X157.875 Y84.124 E17.15906
G1 X158.074 Y85.306 E17.21019
G1 X158.219 Y86.383 E17.25655
G1 X158.357 Y87.781 E17.31647
G1 X158.421 Y88.665 E17.35428
G1 X158.465 Y89.474 E17.38884
G1 X158.499 Y90.357 E17.42653
G1 X158.522 Y91.606 E17.47982
G1 X158.524 Y92.666 E17.52503
G1 X158.512 Y93.487 E17.56006
G1 X158.444 Y95.216 E17.63387
G1 X158.392 Y96.057 E17.66981
G1 X158.325 Y96.889 E17.70541
G1 X158.236 Y97.776 E17.74344
G1 X158.143 Y98.53 E17.77585
G1 X158.022 Y99.331 E17.8104
G1 X157.863 Y100.213 E17.84863
G1 X157.723 Y100.873 E17.87741
G1 X157.506 Y101.681 E17.9131
G1 X157.309 Y102.302 E17.94089
G1 X157.104 Y102.861 E17.96629
G1 X156.695 Y103.852 E18.01202
G1 X156.479 Y104.283 E18.03258
G1 X156.164 Y104.84 E18.05988
G1 X155.704 Y105.505 E18.09437
G1 X155.344 Y105.986 E18.12
G1 X154.265 Y107.386 E18.19539
G1 X152.629 Y109.638 E18.31413
G1 X151.064 Y111.925 E18.43234
G1 X149.545 Y114.285 E18.55205
G1 X148.1 Y116.676 E18.67122
G1 X146.728 Y119.099 E18.79
G1 X145.423 Y121.562 E18.9089
G1 X143.727 Y125.011 E19.07284
G1 X143.276 Y125.888 E19.11491
G1 X142.797 Y126.772 E19.1578
G1 X142.241 Y127.744 E19.20556
G1 X141.713 Y128.618 E19.24912
G1 X141.068 Y129.626 E19.30017
G1 X140.446 Y130.549 E19.34764
G1 X139.813 Y131.435 E19.39409
G1 X139.006 Y132.503 E19.45119
G1 X138.247 Y133.444 E19.50276
G1 X137.313 Y134.536 E19.56405
G1 X136.673 Y135.237 E19.60454
G1 X135.664 Y136.271 E19.66617
G1 X134.699 Y137.196 E19.72319
G1 X133.501 Y138.268 E19.79176
G1 X132.778 Y138.868 E19.83184
G1 X131.475 Y139.871 E19.90198
G1 X130.158 Y140.806 E19.97088
G1 X129.272 Y141.388 E20.0161
G1 X127.85 Y142.238 E20.08676
G1 X126.473 Y142.986 E20.15361
G1 X125.071 Y143.673 E20.22021
G1 X123.433 Y144.394 E20.29655
G1 X122.563 Y144.741 E20.3365
G1 X120.98 Y145.303 E20.40815
G1 X118.743 Y145.968 E20.5077
G1 X117.761 Y146.221 E20.55096
G1 X117.426 Y146.298 E20.56562
G1 X115.491 Y146.695 E20.64988
G1 X113.669 Y146.991 E20.72862
G1 X111.768 Y147.217 E20.81028
G1 X109.848 Y147.369 E20.89243
G1 X107.874 Y147.446 E20.9767
G1 X106.814 Y147.46 E21.02192
G1 X105.803 Y147.445 E21.06505
G1 X103.848 Y147.369 E21.14851
G1 X101.904 Y147.215 E21.23169
G1 X100.033 Y146.99 E21.31207
G1 X98.191 Y146.69 E21.39168
G1 X96.355 Y146.311 E21.47165
G1 X95.083 Y145.999 E21.52752
G1 X92.902 Y145.355 E21.62452
G1 X91.442 Y144.845 E21.69049
G1 X90.522 Y144.491 E21.73254
G1 X89.286 Y143.969 E21.78977
G1 X88.763 Y143.726 E21.81437
G1 X87.265 Y142.988 E21.8856
G1 X85.887 Y142.236 E21.95256
G1 X84.636 Y141.484 E22.01483
G1 X83.191 Y140.533 E22.08862
G1 X82.375 Y139.947 E22.13147
G1 X81.141 Y138.99 E22.19808
G1 X80.047 Y138.075 E22.25892
G1 X79.055 Y137.181 E22.31588
G1 X78.099 Y136.258 E22.37256
G1 X77.184 Y135.309 E22.4288
G1 X76.292 Y134.323 E22.48551
G1 X75.517 Y133.407 E22.53669
G1 X74.756 Y132.454 E22.58872
G1 X74.014 Y131.464 E22.64149
G1 X73.359 Y130.537 E22.68991
G1 X72.69 Y129.534 E22.74134
G1 X72.094 Y128.59 E22.78896
G1 X71.564 Y127.701 E22.83311
G1 X71.025 Y126.747 E22.87985
G1 X70.572 Y125.898 E22.92089
G1 X70.063 Y124.892 E22.96899
G1 X68.458 Y121.586 E23.12575
G1 X67.162 Y119.107 E23.24507
G1 X65.794 Y116.662 E23.36458
G1 X64.374 Y114.281 E23.48283
G1 X62.88 Y111.933 E23.60155
G1 X61.317 Y109.623 E23.72052
G1 X59.691 Y107.359 E23.83942
G1 X58.047 Y105.161 E23.9565
G1 X57.858 Y104.867 E23.97141
G1 X57.608 Y104.44 E23.99252
G1 X57.375 Y103.996 E24.0139
G1 X57.219 Y103.656 E24.02986
G1 X56.872 Y102.799 E24.0693
G1 X56.677 Y102.26 E24.09375
G1 X56.547 Y101.863 E24.11157
G1 X56.353 Y101.17 E24.14227
G1 X56.135 Y100.19 E24.18509
G1 X56.004 Y99.489 E24.21551
G1 X55.899 Y98.822 E24.24431
G1 X55.799 Y98.061 E24.27705
G1 X55.711 Y97.264 E24.31126
G1 X55.639 Y96.447 E24.34624
G1 X55.587 Y95.717 E24.37746
G1 X55.523 Y94.503 E24.42932
G1 X55.496 Y93.763 E24.4609
G1 X55.478 Y92.825 E24.50092
G1 X55.479 Y91.342 E24.56418
G1 X55.495 Y90.609 E24.59546
G1 X55.539 Y89.386 E24.64766
G1 X55.593 Y88.455 E24.68744
G1 X55.722 Y86.911 E24.75353
G1 X55.782 Y86.356 E24.77734
G1 X55.955 Y85.092 E24.83176
G1 X56.11 Y84.209 E24.87
G1 X56.371 Y83.047 E24.9208
G1 X56.437 Y82.798 E24.93179
G1 X56.777 Y81.737 E24.97932
G1 X56.917 Y81.354 E24.99671
G1 X57.101 Y80.892 E25.01792
G1 X57.348 Y80.339 E25.04376
G1 X57.718 Y79.596 E25.07916
G1 X57.983 Y79.152 E25.10122
G1 X58.17 Y78.87 E25.11565
G1 X58.5 Y78.416 E25.13959
G1 X58.887 Y77.952 E25.16537
G1 X59.137 Y77.691 E25.18078
G1 X59.626 Y77.229 E25.20948
G0 F3000 X59.99 Y77.706
G1 F900 X60.519 Y77.302 E25.23787
G1 X60.769 Y77.131 E25.25079
G1 X61.08 Y76.941 E25.26634
G1 X61.378 Y76.777 E25.28085
G1 X61.685 Y76.623 E25.2955
G1 X62.046 Y76.462 E25.31236
G1 X62.638 Y76.23 E25.33948
G1 X63.004 Y76.108 E25.35594
G1 X63.659 Y75.925 E25.38495
G1 X64.784 Y75.672 E25.43414
G1 X65.76 Y75.49 E25.47649
G1 X66.525 Y75.373 E25.5095
G1 X67.303 Y75.277 E25.54294
G1 X68.476 Y75.178 E25.59315
G1 X68.892 Y75.158 E25.61091
G1 X69.71 Y75.145 E25.64581
G1 X70.545 Y75.16 E25.68143
G1 X71.068 Y75.185 E25.70377
G1 X72.024 Y75.269 E25.74471
G1 X72.851 Y75.368 E25.78023
G1 X73.989 Y75.548 E25.82938
G1 X74.851 Y75.715 E25.86683
G1 X75.539 Y75.866 E25.89688
G1 X76.318 Y76.085 E25.9314
G1 X77.533 Y76.465 E25.9857
G1 X80.233 Y77.262 E26.10578
G1 X82.929 Y77.977 E26.22476
G1 X85.666 Y78.62 E26.34469
G1 X88.427 Y79.187 E26.46492
G1 X91.171 Y79.671 E26.58378
G1 X93.97 Y80.083 E26.70446
G1 X96.734 Y80.409 E26.82318
G1 X99.531 Y80.66 E26.94296
G1 X102.343 Y80.832 E27.06314
G1 X105.155 Y80.925 E27.18315
G1 X107.942 Y80.937 E27.30204
G1 X110.759 Y80.87 E27.42223
G1 X113.568 Y80.724 E27.54221
G1 X116.347 Y80.5 E27.66114
G1 X119.132 Y80.197 E27.78064
G1 X121.934 Y79.811 E27.90129
G1 X124.69 Y79.352 E28.02047
G1 X127.454 Y78.81 E28.14062
G1 X130.171 Y78.199 E28.25941
G1 X132.901 Y77.501 E28.3796
G1 X135.585 Y76.734 E28.49868
G1 X136.454 Y76.459 E28.53756
G1 X137.971 Y76.001 E28.60515
G1 X138.539 Y75.851 E28.63021
G1 X139.161 Y75.711 E28.65741
G1 X140.189 Y75.518 E28.70202
G1 X141.218 Y75.363 E28.74641
G1 X142.121 Y75.257 E28.78519
