;FLAVOR:Marlin
;TIME:4011
;Filament used: 1.15564m
;Layer height: 0.12
;MINX:41.377
;MINY:54.229
;MINZ:0.12
;MAXX:178.806
;MAXY:164.309
;MAXZ:17
;TARGET_MACHINE.NAME:Creality Ender-3
;Generated with Cura_SteamEngine 5.11.0
M140 S70
M105
M190 S70
M104 S225
M105
M109 S225
; Ender 3 Custom Start G-code
G92 E0 ; Reset Extruder
G28 ; Home all axes
G1 Z2.0 F3000 ; Move Z Axis up little to prevent scratching of Heat Bed
G1 X0.1 Y20 Z0.3 F5000.0 ; Move to start position
G1 X0.1 Y200.0 Z0.3 F1500.0 E15 ; Draw the first line
G1 X0.4 Y200.0 Z0.3 F5000.0 ; Move to side a little
G1 X0.4 Y20 Z0.3 F1500.0 E30 ; Draw the second line
G92 E0 ; Reset Extruder
G1 Z2.0 F3000 ; Move Z Axis up little to prevent scratching of Heat Bed
G1 X5 Y20 Z0.3 F5000.0 ; Move over to prevent blob squish
M82 ;absolute extrusion mode
G92 E0
G92 E0
G1 F2700 E-5
;LAYER_COUNT:100
;LAYER:0
M107
G0 F6000 X124.727 Y68.092 Z0.12
;TYPE:SKIRT
G1 F2700 E0
G1 F900 X124.546 Y68.449 E0.00799
G1 X124.371 Y68.85 E0.01672
G1 X124.098 Y69.67 E0.03397
G1 X123.967 Y70.198 E0.04482
G1 X123.827 Y71.102 E0.06308
G1 X123.791 Y71.592 E0.07288
G1 X123.776 Y71.968 E0.08039
G1 X123.819 Y72.97 E0.10041
G1 X123.987 Y73.979 E0.12082
G1 X124.141 Y74.585 E0.1333
G1 X124.253 Y74.932 E0.14057
G1 X124.418 Y75.361 E0.14975
G1 X124.604 Y75.766 E0.15864
G1 X124.885 Y76.285 E0.17042
G1 X125.284 Y76.856 E0.18432
G1 X125.596 Y77.228 E0.19401
G1 X126.157 Y77.755 E0.20937
G1 X126.446 Y77.982 E0.2167
G1 X126.85 Y78.241 E0.22628
G1 X127.455 Y78.541 E0.23976
G1 X127.964 Y78.726 E0.25056
G1 X128.842 Y78.903 E0.26844
G1 X129.166 Y78.931 E0.27493
G1 X130.006 Y78.947 E0.29169
G1 X146.268 Y78.947 E0.61622
G1 X147.201 Y78.931 E0.63484
G1 X147.641 Y78.89 E0.64366
G1 X148.092 Y78.807 E0.65281
G1 X148.529 Y78.681 E0.66189
G1 X149.039 Y78.478 E0.67284
G1 X149.442 Y78.268 E0.68191
G1 X149.905 Y77.953 E0.69308
G1 X150.388 Y77.534 E0.70584
G1 X150.692 Y77.217 E0.71461
G1 X150.998 Y76.823 E0.72457
G1 X151.322 Y76.332 E0.7363
G1 X151.559 Y75.901 E0.74612
G1 X151.812 Y75.327 E0.75864
G1 X152.026 Y74.703 E0.7718
G1 X152.164 Y74.185 E0.7825
G1 X152.277 Y73.593 E0.79453
G1 X152.357 Y72.993 E0.80661
G1 X152.389 Y72.528 E0.81591
G1 X152.394 Y71.697 E0.83249
G1 X152.38 Y71.339 E0.83964
G1 X152.318 Y70.788 E0.85071
G1 X152.191 Y70.043 E0.86579
G1 X152.03 Y69.414 E0.87875
G1 X151.912 Y69.047 E0.88644
G1 X151.764 Y68.659 E0.89473
G1 X151.625 Y68.339 E0.90169
G1 X151.404 Y67.912 E0.91128
G1 X151.078 Y67.382 E0.9237
G1 X150.702 Y66.898 E0.93593
G1 X150.371 Y66.537 E0.94571
G1 X150.187 Y66.363 E0.95076
G1 X149.556 Y65.897 E0.96641
G1 X148.758 Y65.496 E0.98424
G1 X148.449 Y65.381 E0.99082
G1 X147.742 Y65.216 E1.0053
G1 X147.139 Y65.165 E1.01738
G1 X146.443 Y65.153 E1.03127
G1 X130.053 Y65.153 E1.35835
G1 X129.293 Y65.165 E1.37352
G1 X128.73 Y65.206 E1.38479
G1 X128.043 Y65.357 E1.39882
G1 X127.623 Y65.491 E1.40762
G1 X127.236 Y65.655 E1.41601
G1 X126.747 Y65.918 E1.42709
G1 X126.465 Y66.101 E1.4338
G1 X126.207 Y66.297 E1.44026
G1 X125.779 Y66.674 E1.45165
G1 X125.353 Y67.152 E1.46442
G1 X125.099 Y67.487 E1.47281
G1 X124.727 Y68.092 E1.48699
G0 F6000 X125.084 Y68.273
G1 F900 X124.903 Y68.63 E1.49497
G1 X124.751 Y68.976 E1.50252
G1 X124.478 Y69.796 E1.51976
G1 X124.355 Y70.294 E1.53
G1 X124.222 Y71.163 E1.54754
G1 X124.19 Y71.62 E1.55669
G1 X124.176 Y71.983 E1.56394
G1 X124.219 Y72.952 E1.58329
G1 X124.381 Y73.913 E1.60274
G1 X124.528 Y74.485 E1.61453
G1 X124.633 Y74.808 E1.6213
G1 X124.791 Y75.217 E1.63005
G1 X124.956 Y75.576 E1.63794
G1 X125.237 Y76.095 E1.64972
G1 X125.611 Y76.625 E1.66266
G1 X125.902 Y76.97 E1.67167
G1 X126.43 Y77.462 E1.68607
G1 X126.692 Y77.666 E1.6927
G1 X127.065 Y77.903 E1.70152
G1 X127.592 Y78.165 E1.71326
G1 X128.101 Y78.35 E1.72407
G1 X128.876 Y78.504 E1.73984
G1 X129.2 Y78.532 E1.74633
G1 X130.013 Y78.547 E1.76255
G1 X146.261 Y78.547 E2.0868
G1 X147.194 Y78.531 E2.10542
G1 X147.603 Y78.492 E2.11362
G1 X147.983 Y78.422 E2.12133
G1 X148.381 Y78.309 E2.12959
G1 X148.891 Y78.106 E2.14054
G1 X149.255 Y77.914 E2.14876
G1 X149.679 Y77.623 E2.15902
G1 X150.124 Y77.233 E2.17083
G1 X150.402 Y76.941 E2.17887
G1 X150.681 Y76.579 E2.18799
G1 X150.971 Y76.139 E2.19851
G1 X151.208 Y75.708 E2.20832
G1 X151.446 Y75.166 E2.22014
G1 X151.64 Y74.599 E2.2321
G1 X151.771 Y74.11 E2.2422
G1 X151.884 Y73.518 E2.25423
G1 X151.958 Y72.966 E2.26534
G1 X151.99 Y72.501 E2.27464
G1 X151.994 Y71.695 E2.29073
G1 X151.98 Y71.356 E2.2975
G1 X151.921 Y70.833 E2.308
G1 X151.803 Y70.142 E2.32199
G1 X151.642 Y69.513 E2.33495
G1 X151.531 Y69.17 E2.34214
G1 X151.39 Y68.802 E2.35001
G1 X151.258 Y68.499 E2.3566
G1 X151.063 Y68.122 E2.36507
G1 X150.737 Y67.592 E2.37749
G1 X150.387 Y67.144 E2.38883
G1 X150.096 Y66.828 E2.39741
G1 X149.912 Y66.654 E2.40246
G1 X149.32 Y66.22 E2.41711
G1 X148.618 Y65.871 E2.43275
G1 X148.309 Y65.756 E2.43933
G1 X147.708 Y65.615 E2.45165
G1 X147.105 Y65.564 E2.46373
G1 X146.436 Y65.553 E2.47708
G1 X130.059 Y65.553 E2.8039
G1 X129.299 Y65.565 E2.81907
G1 X128.816 Y65.597 E2.82873
G1 X128.129 Y65.748 E2.84277
G1 X127.746 Y65.872 E2.8508
G1 X127.394 Y66.023 E2.85845
G1 X126.965 Y66.254 E2.86817
G1 X126.683 Y66.437 E2.87488
G1 X126.45 Y66.615 E2.88073
G1 X126.077 Y66.941 E2.89062
G1 X125.672 Y67.394 E2.90274
G1 X125.418 Y67.729 E2.91113
G1 X125.084 Y68.273 E2.92387
G0 F6000 X125.441 Y68.454
G1 F900 X125.737 Y67.971 E2.93518
G1 X125.991 Y67.636 E2.94356
G1 X126.34 Y67.242 E2.95407
G1 X126.693 Y66.933 E2.96343
G1 X126.926 Y66.755 E2.96928
G1 X127.182 Y66.59 E2.97536
G1 X127.552 Y66.391 E2.98374
G1 X127.904 Y66.24 E2.99139
G1 X128.217 Y66.138 E2.99796
G1 X128.843 Y65.996 E3.01077
G1 X129.305 Y65.965 E3.02001
G1 X130.065 Y65.953 E3.03518
G1 X146.43 Y65.953 E3.36176
G1 X147.071 Y65.963 E3.37455
G1 X147.674 Y66.014 E3.38663
G1 X148.169 Y66.131 E3.39678
G1 X148.478 Y66.246 E3.40336
G1 X149.085 Y66.543 E3.41684
G1 X149.637 Y66.945 E3.43047
G1 X149.821 Y67.119 E3.43552
G1 X150.073 Y67.392 E3.44294
G1 X150.396 Y67.802 E3.45335
G1 X150.722 Y68.332 E3.46577
G1 X150.892 Y68.66 E3.47314
G1 X151.017 Y68.945 E3.47935
G1 X151.151 Y69.294 E3.48682
G1 X151.255 Y69.613 E3.49351
G1 X151.409 Y70.21 E3.50581
G1 X151.524 Y70.878 E3.51934
G1 X151.58 Y71.373 E3.52928
G1 X151.594 Y71.693 E3.53567
G1 X151.591 Y72.474 E3.55126
G1 X151.561 Y72.914 E3.56006
G1 X151.491 Y73.443 E3.57071
G1 X151.378 Y74.035 E3.58274
G1 X151.261 Y74.47 E3.59173
G1 X151.079 Y75.006 E3.60302
G1 X150.857 Y75.515 E3.61411
G1 X150.62 Y75.946 E3.62392
G1 X150.363 Y76.336 E3.63324
G1 X150.111 Y76.666 E3.64153
G1 X149.859 Y76.933 E3.64885
G1 X149.451 Y77.294 E3.65973
G1 X149.068 Y77.56 E3.66903
G1 X148.704 Y77.752 E3.67724
G1 X148.271 Y77.925 E3.68655
G1 X147.909 Y78.029 E3.69407
G1 X147.564 Y78.094 E3.70107
G1 X147.187 Y78.131 E3.70863
G1 X146.254 Y78.147 E3.72725
G1 X130.02 Y78.147 E4.05122
G1 X129.231 Y78.133 E4.06697
G1 X128.952 Y78.111 E4.07255
G1 X128.236 Y77.973 E4.0871
G1 X127.769 Y77.806 E4.097
G1 X127.278 Y77.564 E4.10793
G1 X126.938 Y77.35 E4.11594
G1 X126.676 Y77.146 E4.12257
G1 X126.207 Y76.711 E4.13533
G1 X125.937 Y76.393 E4.14366
G1 X125.589 Y75.905 E4.15562
G1 X125.308 Y75.386 E4.1674
G1 X125.164 Y75.073 E4.17427
G1 X125.013 Y74.683 E4.18262
G1 X124.915 Y74.384 E4.1889
G1 X124.775 Y73.846 E4.19999
G1 X124.619 Y72.934 E4.21846
G1 X124.576 Y71.998 E4.23716
G1 X124.589 Y71.648 E4.24415
G1 X124.621 Y71.191 E4.25329
G1 X124.743 Y70.39 E4.26946
G1 X124.866 Y69.892 E4.27969
G1 X125.118 Y69.136 E4.2956
G1 X125.26 Y68.811 E4.30267
G1 X125.441 Y68.454 E4.31066
G0 F6000 X125.783 Y68.662
G1 F900 X126.056 Y68.213 E4.32115
G1 X126.31 Y67.878 E4.32954
G1 X126.639 Y67.508 E4.33942
G1 X126.937 Y67.25 E4.34729
G1 X127.143 Y67.091 E4.35248
G1 X127.399 Y66.926 E4.35856
G1 X127.71 Y66.759 E4.3656
G1 X128.062 Y66.608 E4.37324
G1 X128.309 Y66.527 E4.37843
G1 X128.87 Y66.395 E4.38993
G1 X129.311 Y66.365 E4.39875
G1 X130.071 Y66.353 E4.41392
G1 X146.424 Y66.353 E4.74026
G1 X147.04 Y66.362 E4.75256
G1 X147.584 Y66.404 E4.76345
G1 X148.032 Y66.507 E4.77262
G1 X148.306 Y66.607 E4.77844
G1 X148.851 Y66.867 E4.79049
G1 X149.362 Y67.236 E4.80307
G1 X149.546 Y67.41 E4.80812
G1 X149.76 Y67.641 E4.81441
G1 X150.055 Y68.012 E4.82387
G1 X150.381 Y68.542 E4.83628
G1 X150.536 Y68.843 E4.84304
G1 X150.644 Y69.088 E4.84838
G1 X150.771 Y69.419 E4.85546
G1 X150.868 Y69.714 E4.86166
G1 X151.015 Y70.278 E4.87329
G1 X151.127 Y70.923 E4.88635
G1 X151.18 Y71.392 E4.89577
G1 X151.194 Y71.692 E4.90176
G1 X151.192 Y72.447 E4.91683
G1 X151.164 Y72.862 E4.92513
G1 X151.098 Y73.368 E4.93531
G1 X150.985 Y73.96 E4.94734
G1 X150.882 Y74.342 E4.95524
G1 X150.712 Y74.847 E4.96587
G1 X150.506 Y75.323 E4.97622
G1 X150.286 Y75.726 E4.98538
G1 X150.045 Y76.093 E4.99415
G1 X149.793 Y76.423 E5.00243
G1 X149.592 Y76.635 E5.00826
G1 X149.221 Y76.967 E5.0182
G1 X148.881 Y77.206 E5.02649
G1 X148.517 Y77.398 E5.0347
G1 X148.159 Y77.541 E5.0424
G1 X147.833 Y77.636 E5.04917
G1 X147.524 Y77.696 E5.05545
G1 X147.18 Y77.731 E5.06235
G1 X146.247 Y77.747 E5.08098
G1 X130.027 Y77.747 E5.40466
G1 X129.262 Y77.734 E5.41993
G1 X128.983 Y77.712 E5.42552
G1 X128.369 Y77.596 E5.43799
G1 X127.945 Y77.447 E5.44696
G1 X127.489 Y77.224 E5.45709
G1 X127.184 Y77.034 E5.46426
G1 X126.922 Y76.83 E5.47088
G1 X126.511 Y76.451 E5.48204
G1 X126.263 Y76.161 E5.48966
G1 X125.915 Y75.673 E5.50162
G1 X125.671 Y75.219 E5.5119
G1 X125.537 Y74.928 E5.5183
G1 X125.393 Y74.557 E5.52624
G1 X125.302 Y74.282 E5.53202
G1 X125.169 Y73.778 E5.54242
G1 X125.019 Y72.915 E5.5599
G1 X124.976 Y72.012 E5.57794
G1 X124.988 Y71.676 E5.58465
G1 X125.02 Y71.219 E5.59379
G1 X125.131 Y70.486 E5.60859
G1 X125.254 Y69.988 E5.61882
G1 X125.485 Y69.295 E5.6334
G1 X125.617 Y68.991 E5.64002
G1 X125.783 Y68.662 E5.64737
G1 F2700 E0.64737
;MESH:base.stl
G0 F6000 X126.602 Y69.534
G0 X128.744 Y75.044
;TYPE:WALL-OUTER
G1 F2700 E5.64737
G1 F900 X128.377 Y74.94 E5.65498
G1 X128.027 Y74.782 E5.66265
G1 X127.689 Y74.565 E5.67066
G1 X127.323 Y74.226 E5.68062
G1 X127.042 Y73.816 E5.69054
G1 X126.877 Y73.494 E5.69776
G1 X126.741 Y73.143 E5.70527
G1 X126.653 Y72.776 E5.7128
G1 X126.604 Y72.42 E5.71997
G1 X126.584 Y72.135 E5.72567
G1 X126.592 Y71.751 E5.73334
G1 X126.659 Y71.289 E5.74265
G1 X126.726 Y71.022 E5.74815
G1 X126.847 Y70.677 E5.75544
G1 X127.009 Y70.342 E5.76287
G1 X127.185 Y70.058 E5.76954
G1 X127.509 Y69.681 E5.77946
G1 X127.872 Y69.403 E5.78858
G1 X128.187 Y69.234 E5.79571
G1 X128.48 Y69.124 E5.80196
G1 X128.842 Y69.044 E5.80936
G1 X129.173 Y69.008 E5.816
G1 X132.007 Y69.012 E5.87256
G1 X132.331 Y69.044 E5.87906
G1 X132.695 Y69.124 E5.88649
G1 X132.997 Y69.238 E5.89293
G1 X133.352 Y69.429 E5.90098
G1 X133.688 Y69.708 E5.9097
G1 X133.924 Y69.964 E5.91664
G1 X134.177 Y70.361 E5.92604
G1 X134.337 Y70.696 E5.93345
G1 X134.426 Y70.948 E5.93878
G1 X134.518 Y71.296 E5.94596
G1 X134.586 Y71.763 E5.95538
G1 X134.588 Y72.242 E5.96494
G1 X134.564 Y72.51 E5.97031
G1 X134.497 Y72.886 E5.97793
G1 X134.42 Y73.162 E5.98365
G1 X134.291 Y73.507 E5.991
G1 X134.135 Y73.815 E5.99789
G1 X133.973 Y74.057 E6.0037
G1 X133.817 Y74.253 E6.0087
G1 X133.529 Y74.527 E6.01663
G1 X133.228 Y74.74 E6.02399
G1 X132.885 Y74.906 E6.0316
G1 X132.629 Y74.994 E6.037
G1 X132.235 Y75.07 E6.04501
G1 X131.879 Y75.088 E6.05212
G1 X129.17 Y75.084 E6.10618
G1 X128.744 Y75.044 E6.11472
G1 F2700 E1.11472
G0 F6000 X128.548 Y75.727
G0 X137.179 Y76.137
G0 X137.179 Y76.844
G1 F2700 E6.11472
G1 F900 X147.111 Y76.844 E6.31292
G1 X147.484 Y76.811 E6.3204
G1 X147.975 Y76.675 E6.33056
G1 X148.407 Y76.456 E6.34023
G1 X148.817 Y76.157 E6.35036
G1 X149.226 Y75.715 E6.36237
G1 X149.459 Y75.372 E6.37065
G1 X149.587 Y75.156 E6.37566
G1 X149.769 Y74.781 E6.38398
G1 X149.881 Y74.515 E6.38974
G1 X149.973 Y74.253 E6.39528
G1 X150.059 Y73.97 E6.40118
G1 X150.132 Y73.684 E6.40707
G1 X150.214 Y73.247 E6.41594
G1 X150.257 Y72.953 E6.42187
G1 X150.304 Y72.345 E6.43404
G1 X150.311 Y72.044 E6.44005
G1 X150.304 Y71.741 E6.4461
G1 X150.284 Y71.435 E6.45222
G1 X150.21 Y70.831 E6.46436
G1 X150.128 Y70.4 E6.47312
G1 X149.974 Y69.84 E6.48471
G1 X149.826 Y69.444 E6.49314
G1 X149.711 Y69.183 E6.49884
G1 X149.417 Y68.652 E6.51095
G1 X149.068 Y68.203 E6.5223
G1 X148.798 Y67.922 E6.53007
G1 X148.415 Y67.652 E6.53943
G1 X148.085 Y67.479 E6.54686
G1 X147.72 Y67.34 E6.55466
G1 X147.372 Y67.275 E6.56172
G1 X147.119 Y67.252 E6.56679
G1 X129.332 Y67.252 E6.92175
G1 X128.986 Y67.279 E6.92868
G1 X128.648 Y67.354 E6.93558
G1 X128.391 Y67.433 E6.94095
G1 X128.149 Y67.53 E6.94615
G1 X127.919 Y67.653 E6.95136
G1 X127.586 Y67.87 E6.95929
G1 X127.391 Y68.029 E6.96431
G1 X127.116 Y68.304 E6.97207
G1 X126.851 Y68.619 E6.98029
G1 X126.572 Y69.079 E6.99102
G1 X126.377 Y69.473 E6.9998
G1 X126.201 Y69.889 E7.00881
G1 X126.209 Y69.898 E7.00905
G1 X126.095 Y70.282 E7.01704
G1 X126.028 Y70.552 E7.0226
G1 X125.969 Y70.851 E7.02868
G1 X125.921 Y71.169 E7.0351
G1 X125.891 Y71.444 E7.04062
G1 X125.865 Y72.058 E7.05288
G1 X125.881 Y72.521 E7.06213
G1 X125.919 Y72.919 E7.0701
G1 X125.97 Y73.251 E7.07681
G1 X126.03 Y73.564 E7.08317
G1 X126.209 Y74.198 E7.09631
G1 X126.201 Y74.207 E7.09655
G1 X126.387 Y74.647 E7.10609
G1 X126.51 Y74.903 E7.11175
G1 X126.71 Y75.257 E7.11987
G1 X126.87 Y75.49 E7.12551
G1 X127.026 Y75.691 E7.13059
G1 X127.284 Y75.976 E7.13826
G1 X127.775 Y76.369 E7.15081
G1 X128.157 Y76.566 E7.15939
G1 X128.392 Y76.663 E7.16446
G1 X128.648 Y76.742 E7.16981
G1 X128.986 Y76.817 E7.17672
G1 X129.328 Y76.844 E7.18356
G1 X137.179 Y76.844 E7.34024
G0 F6000 X137.255 Y76.444
;TYPE:WALL-INNER
G1 F900 X147.094 Y76.444 E7.53658
G1 X147.52 Y76.386 E7.54516
G1 X147.919 Y76.255 E7.55355
G1 X148.197 Y76.114 E7.55977
G1 X148.549 Y75.857 E7.56846
G1 X148.912 Y75.465 E7.57913
G1 X149.196 Y75.047 E7.58921
G1 X149.405 Y74.616 E7.59877
G1 X149.508 Y74.371 E7.60407
G1 X149.593 Y74.129 E7.60919
G1 X149.741 Y73.597 E7.62021
G1 X149.819 Y73.181 E7.62866
G1 X149.859 Y72.909 E7.63414
G1 X149.904 Y72.325 E7.64583
G1 X149.911 Y72.044 E7.65144
G1 X149.886 Y71.472 E7.66287
G1 X149.814 Y70.893 E7.67451
G1 X149.738 Y70.487 E7.68275
G1 X149.594 Y69.967 E7.69352
G1 X149.456 Y69.594 E7.70146
G1 X149.351 Y69.357 E7.70663
G1 X149.084 Y68.876 E7.71761
G1 X148.765 Y68.465 E7.72799
G1 X148.459 Y68.172 E7.73645
G1 X148.206 Y67.994 E7.74262
G1 X147.921 Y67.844 E7.74905
G1 X147.533 Y67.712 E7.75723
G1 X147.101 Y67.652 E7.76593
G1 X129.347 Y67.652 E8.12023
G1 X129.045 Y67.675 E8.12627
G1 X128.75 Y67.741 E8.13231
G1 X128.386 Y67.856 E8.13993
G1 X128.108 Y68.007 E8.14624
G1 X127.735 Y68.249 E8.15511
G1 X127.403 Y68.583 E8.16451
G1 X127.123 Y68.942 E8.1736
G1 X126.919 Y69.28 E8.18147
G1 F789.5 X126.797 Y69.651 E8.19036
G1 F661.8 X126.77 Y69.801 E8.1945
G1 F736.2 X127.264 Y69.365 E8.21057
G1 F900 X127.643 Y69.071 E8.22014
G1 X128.058 Y68.855 E8.22948
G1 X128.393 Y68.734 E8.23659
G1 X128.76 Y68.652 E8.24409
G1 X129.145 Y68.609 E8.25182
G1 X132.044 Y68.614 E8.30967
G1 X132.344 Y68.642 E8.31569
G1 X132.866 Y68.759 E8.32636
G1 X133.183 Y68.884 E8.33316
G1 X133.562 Y69.083 E8.34171
G1 X133.982 Y69.437 E8.35267
G1 X134.253 Y69.731 E8.36065
G1 X134.537 Y70.187 E8.37137
G1 X134.714 Y70.562 E8.37964
G1 X134.798 Y70.798 E8.38464
G1 X134.905 Y71.194 E8.39283
G1 X134.988 Y71.792 E8.40488
G1 X134.986 Y72.278 E8.41457
G1 X134.962 Y72.546 E8.41994
G1 X134.883 Y72.993 E8.429
G1 X134.811 Y73.253 E8.43439
G1 X134.648 Y73.688 E8.44366
G1 X134.492 Y73.996 E8.45055
G1 X134.286 Y74.306 E8.45797
G1 X134.074 Y74.563 E8.46462
G1 X133.763 Y74.851 E8.47308
G1 X133.445 Y75.08 E8.4809
G1 X133.015 Y75.284 E8.4904
G1 X132.675 Y75.394 E8.49753
G1 X132.304 Y75.464 E8.50507
G1 X131.911 Y75.488 E8.51292
G1 X129.134 Y75.482 E8.56834
G1 X128.658 Y75.434 E8.57789
G1 X128.259 Y75.322 E8.58616
G1 X127.87 Y75.15 E8.59465
G1 X127.502 Y74.923 E8.60327
G1 F869.6 X127.339 Y74.806 E8.60742
G1 F651 X126.992 Y74.66 E8.61781
G1 F659.3 X127.064 Y75.068 E8.62909
G1 F884.5 X127.34 Y75.441 E8.63851
G1 F900 X127.558 Y75.683 E8.64501
G1 X127.935 Y75.985 E8.65465
G1 X128.325 Y76.202 E8.66356
G1 X128.751 Y76.355 E8.67259
G1 X129.045 Y76.421 E8.67861
G1 X129.343 Y76.444 E8.68457
G1 X137.255 Y76.444 E8.84246
G0 F6000 X137.331 Y76.041
