;FLAVOR:Marlin
;TIME:693
;Filament used: 0.226593m
;Layer height: 0.12
;MINX:100.995
;MINY:89.235
;MINZ:0.12
;MAXX:135.946
;MAXY:119.365
;MAXZ:7.8
;TARGET_MACHINE.NAME:Creality Ender-3
;Generated with Cura_SteamEngine 5.11.0
M140 S70
M105
M190 S70
M104 S225
M105
M109 S225
; Ender 3 Custom Start G-code
G92 E0 ; Reset Extruder
G28 ; Home all axes
G1 Z2.0 F3000 ; Move Z Axis up little to prevent scratching of Heat Bed
G1 X0.1 Y20 Z0.3 F5000.0 ; Move to start position
G1 X0.1 Y200.0 Z0.3 F1500.0 E15 ; Draw the first line
G1 X0.4 Y200.0 Z0.3 F5000.0 ; Move to side a little
G1 X0.4 Y20 Z0.3 F1500.0 E30 ; Draw the second line
G92 E0 ; Reset Extruder
G1 Z2.0 F3000 ; Move Z Axis up little to prevent scratching of Heat Bed
G1 X5 Y20 Z0.3 F5000.0 ; Move over to prevent blob squish
M82 ;absolute extrusion mode
G92 E0
G92 E0
G1 F2700 E-5
;LAYER_COUNT:65
;LAYER:0
M107
G0 F6000 X109.926 Y95.489 Z0.12
;TYPE:SKIRT
G1 F2700 E0
G1 F900 X110.301 Y95.144 E0.01017
G1 X110.835 Y94.954 E0.02148
G1 X113.825 Y94.39 E0.0822
G1 X116.581 Y93.786 E0.13851
G1 X119.264 Y93.12 E0.19367
G1 X121.948 Y92.369 E0.24929
G1 X124.608 Y91.544 E0.30487
G1 X127.247 Y90.643 E0.36052
G1 X129.875 Y89.663 E0.41649
G1 X130.824 Y89.298 E0.43678
G1 X131.303 Y89.235 E0.44642
G1 X131.802 Y89.343 E0.45661
G1 X132.233 Y89.609 E0.46672
G1 X132.49 Y89.909 E0.4746
G1 X132.966 Y90.694 E0.49292
G1 X135.421 Y94.944 E0.59087
G1 X135.813 Y95.658 E0.60712
G1 X135.946 Y96.121 E0.61674
G1 X135.917 Y96.616 E0.62663
G1 X135.757 Y97.07 E0.63624
G1 X135.077 Y97.865 E0.65712
G1 X134.326 Y98.72 E0.67983
G1 X132.538 Y100.872 E0.73566
G1 X131.52 Y102.153 E0.76831
G1 X131.13 Y102.461 E0.77823
G1 X130.195 Y102.98 E0.79957
G1 X129.163 Y103.526 E0.82287
G1 X126.719 Y104.863 E0.87846
G1 X124.298 Y106.28 E0.93444
G1 X121.934 Y107.755 E0.99005
G1 X119.633 Y109.284 E1.04518
G1 X117.354 Y110.891 E1.10083
G1 X115.108 Y112.572 E1.15682
G1 X112.941 Y114.292 E1.21203
G1 X110.812 Y116.082 E1.26754
G1 X108.724 Y117.938 E1.32329
G1 X108.202 Y118.362 E1.33671
G1 X107.63 Y118.74 E1.35039
G1 X107.076 Y119.017 E1.36275
G1 X106.496 Y119.205 E1.37492
G1 X106.019 Y119.31 E1.38466
G1 X105.143 Y119.365 E1.40218
G1 X104.616 Y119.316 E1.41274
G1 X104.344 Y119.263 E1.41827
G1 X103.76 Y119.093 E1.43041
G1 X103.248 Y118.88 E1.44148
G1 X102.814 Y118.61 E1.45168
G1 X102.494 Y118.374 E1.45961
G1 X101.961 Y117.866 E1.47431
G1 X101.627 Y117.394 E1.48585
G1 X101.418 Y117.023 E1.49434
G1 X101.23 Y116.586 E1.50384
G1 X101.089 Y116.108 E1.51378
G1 X100.996 Y115.543 E1.52521
G1 X100.995 Y114.901 E1.53802
G1 X101.056 Y114.435 E1.5474
G1 X101.21 Y113.852 E1.55943
G1 X101.467 Y113.259 E1.57233
G1 X103.081 Y110.454 E1.63691
G1 X104.403 Y107.999 E1.69256
G1 X105.645 Y105.527 E1.74776
G1 X106.823 Y103.007 E1.80328
G1 X107.941 Y100.43 E1.85933
G1 X108.976 Y97.843 E1.91494
G1 X109.76 Y95.758 E1.95939
G1 X109.926 Y95.489 E1.9657
G0 F6000 X110.237 Y95.746
G1 F900 X110.512 Y95.493 E1.97316
G1 X110.909 Y95.347 E1.9816
G1 X113.911 Y94.781 E2.04256
G1 X116.667 Y94.177 E2.09887
G1 X119.371 Y93.505 E2.15447
G1 X122.056 Y92.754 E2.21011
G1 X124.737 Y91.923 E2.26612
G1 X127.376 Y91.022 E2.32177
G1 X130.015 Y90.038 E2.37798
G1 X130.921 Y89.689 E2.39735
G1 X131.288 Y89.641 E2.40474
G1 X131.65 Y89.719 E2.41213
G1 X131.968 Y89.916 E2.41959
G1 X132.186 Y90.17 E2.42627
G1 X132.62 Y90.894 E2.44312
G1 X135.07 Y95.137 E2.54089
G1 X135.441 Y95.812 E2.55626
G1 X135.543 Y96.168 E2.56365
G1 X135.521 Y96.536 E2.57101
G1 X135.405 Y96.866 E2.57799
G1 X134.776 Y97.601 E2.5973
G1 X134.025 Y98.456 E2.62001
G1 X132.23 Y100.616 E2.67605
G1 X131.237 Y101.867 E2.70793
G1 X130.936 Y102.111 E2.71566
G1 X130.008 Y102.626 E2.73684
G1 X128.976 Y103.172 E2.76014
G1 X126.527 Y104.512 E2.81585
G1 X124.096 Y105.935 E2.87206
G1 X121.722 Y107.416 E2.9279
G1 X119.402 Y108.957 E2.98348
G1 X117.123 Y110.564 E3.03913
G1 X114.868 Y112.252 E3.09534
G1 X112.692 Y113.979 E3.15078
G1 X110.545 Y115.784 E3.20676
G1 X109.39 Y116.819 E3.23771
G1 X108.471 Y117.628 E3.26214
G1 X107.981 Y118.028 E3.27476
G1 X107.409 Y118.406 E3.28845
G1 X106.899 Y118.658 E3.2998
G1 X106.41 Y118.814 E3.31004
G1 X105.933 Y118.919 E3.31979
G1 X105.179 Y118.967 E3.33487
G1 X104.693 Y118.923 E3.3446
G1 X104.421 Y118.87 E3.35013
G1 X103.91 Y118.722 E3.36075
G1 X103.459 Y118.54 E3.37046
G1 X103.049 Y118.286 E3.38008
G1 X102.77 Y118.084 E3.38696
G1 X102.265 Y117.603 E3.40087
G1 X101.954 Y117.163 E3.41163
G1 X101.767 Y116.828 E3.41928
G1 X101.613 Y116.471 E3.42704
G1 X101.483 Y116.039 E3.43604
G1 X101.396 Y115.54 E3.44615
G1 X101.392 Y114.953 E3.45787
G1 X101.453 Y114.487 E3.46725
G1 X101.578 Y114.009 E3.47711
G1 X101.814 Y113.458 E3.48907
G1 X103.428 Y110.653 E3.55365
G1 X104.755 Y108.189 E3.6095
G1 X106.002 Y105.707 E3.66493
G1 X107.19 Y103.166 E3.72091
G1 X108.308 Y100.589 E3.77696
G1 X109.347 Y97.992 E3.83278
G1 X110.134 Y95.899 E3.87741
G1 X110.237 Y95.746 E3.88109
G0 F6000 X110.508 Y96.04
G1 F900 X110.724 Y95.841 E3.88695
G1 X110.983 Y95.74 E3.8925
G1 X113.997 Y95.172 E3.9537
G1 X116.753 Y94.568 E4.01001
G1 X119.468 Y93.893 E4.06584
G1 X122.164 Y93.139 E4.1217
G1 X124.866 Y92.302 E4.17815
G1 X127.505 Y91.401 E4.2338
G1 X130.155 Y90.412 E4.29025
G1 X130.997 Y90.082 E4.3083
G1 X131.229 Y90.037 E4.31301
G1 X131.462 Y90.072 E4.31771
G1 X131.67 Y90.183 E4.32242
G1 X131.843 Y90.376 E4.32759
G1 X132.274 Y91.094 E4.3443
G1 X134.721 Y95.332 E4.44196
G1 X135.064 Y95.946 E4.456
G1 X135.143 Y96.168 E4.4607
G1 X135.143 Y96.404 E4.46541
G1 X135.052 Y96.664 E4.47091
G1 X134.476 Y97.337 E4.48858
G1 X133.717 Y98.2 E4.51152
G1 X131.922 Y100.36 E4.56757
G1 X130.951 Y101.584 E4.59874
G1 X130.742 Y101.761 E4.60421
G1 X129.821 Y102.272 E4.62523
G1 X128.789 Y102.818 E4.64853
G1 X126.335 Y104.161 E4.70436
G1 X123.894 Y105.59 E4.7608
G1 X121.51 Y107.077 E4.81687
G1 X119.171 Y108.63 E4.8729
G1 X116.892 Y110.237 E4.92855
G1 X114.628 Y111.932 E4.98499
G1 X112.443 Y113.666 E5.04066
G1 X110.278 Y115.486 E5.0971
G1 X109.126 Y116.519 E5.12798
G1 X108.218 Y117.318 E5.15212
G1 X107.728 Y117.718 E5.16474
G1 X107.229 Y118.049 E5.17669
G1 X106.776 Y118.277 E5.18681
G1 X106.324 Y118.423 E5.19629
G1 X105.847 Y118.528 E5.20603
G1 X105.214 Y118.569 E5.21869
G1 X104.77 Y118.53 E5.22759
G1 X104.498 Y118.477 E5.23312
G1 X104.06 Y118.351 E5.24221
G1 X103.609 Y118.169 E5.25192
G1 X103.279 Y117.959 E5.25972
G1 X103.046 Y117.795 E5.26541
G1 X102.57 Y117.341 E5.27854
G1 X102.302 Y116.966 E5.28774
G1 X102.133 Y116.667 E5.29459
G1 X101.995 Y116.353 E5.30143
G1 X101.876 Y115.966 E5.30951
G1 X101.796 Y115.535 E5.31826
G1 X101.789 Y115.005 E5.32884
G1 X101.85 Y114.539 E5.33822
G1 X101.946 Y114.165 E5.34592
G1 X102.161 Y113.657 E5.35693
G1 X103.775 Y110.852 E5.42151
G1 X105.107 Y108.379 E5.47757
G1 X106.359 Y105.887 E5.53322
G1 X107.557 Y103.325 E5.58966
G1 X108.675 Y100.748 E5.64572
G1 X109.718 Y98.141 E5.70176
G1 X110.508 Y96.04 E5.74655
G1 F2700 E0.74655
;MESH:clicker.stl
G0 F6000 X111.57 Y97.018
G0 X118.246 Y107.377
;TYPE:WALL-OUTER
G1 F2700 E5.74655
G1 F900 X130.208 Y101.044 E6.01666
G1 X130.685 Y96.757 E6.10274
G1 X130.813 Y96.592 E6.1069
G1 X134.142 Y96.13 E6.17397
G1 X131.223 Y91.078 E6.29041
G1 X129.22 Y93.665 E6.3557
G1 X128.834 Y93.889 E6.36461
G1 X129.984 Y95.877 E6.41044
G1 X129.465 Y100.468 E6.50264
G1 X129.395 Y100.57 E6.50511
G1 X114.657 Y108.371 E6.83788
G1 X107.151 Y115.985 E7.05125
G1 X106.93 Y116.197 E7.05736
G1 X106.591 Y116.451 E7.06581
G1 X106.129 Y116.713 E7.07641
G1 X105.609 Y116.848 E7.08713
G1 X105.171 Y116.879 E7.0959
G1 X104.801 Y116.815 E7.10339
G1 X104.439 Y116.684 E7.11107
G1 X104.084 Y116.452 E7.11954
G1 X103.817 Y116.187 E7.12704
G1 X103.6 Y115.816 E7.13562
G1 X103.487 Y115.413 E7.14397
G1 X103.485 Y115.039 E7.15144
G1 X103.574 Y114.64 E7.1596
G1 X103.814 Y114.155 E7.17039
G1 X104.18 Y113.724 E7.18168
G1 X112.684 Y105.912 E7.41212
G1 X119.084 Y101.921 E7.56264
G1 X119.215 Y101.721 E7.56741
G1 X119.228 Y101.538 E7.57107
G1 X119.114 Y101.315 E7.57607
G1 X118.879 Y101.207 E7.58123
G1 X118.691 Y101.227 E7.585
G1 X113.118 Y104.698 E7.71603
G1 X112.921 Y104.707 E7.71996
G1 X112.818 Y104.58 E7.72322
G1 X112.249 Y98.142 E7.8522
G1 X112.324 Y97.966 E7.85602
G1 X112.477 Y97.925 E7.85918
G1 X117.345 Y99.508 E7.96133
G1 X117.614 Y99.456 E7.9668
G1 X117.743 Y99.335 E7.97033
G1 X117.806 Y99.183 E7.97362
G1 X117.778 Y98.939 E7.97852
G1 X117.581 Y98.743 E7.98406
G1 X111.322 Y96.704 E8.11543
G1 X112.081 Y105.341 E8.28845
G1 X112.012 Y105.444 E8.29093
G1 X103.729 Y113.054 E8.5154
G1 X103.489 Y113.295 E8.52218
G1 X103.261 Y113.573 E8.52936
G1 X103.083 Y113.833 E8.53565
G1 X102.938 Y114.102 E8.54174
G1 X102.788 Y114.469 E8.54966
G1 X102.711 Y114.809 E8.55661
G1 X102.68 Y115.091 E8.56227
G1 X102.68 Y115.437 E8.56918
G1 X102.739 Y115.757 E8.57567
G1 X102.813 Y116.003 E8.5808
G1 X102.978 Y116.383 E8.58907
G1 X103.189 Y116.679 E8.59632
G1 X103.374 Y116.885 E8.60185
G1 X103.601 Y117.095 E8.60802
G1 X103.873 Y117.281 E8.61459
G1 X104.103 Y117.407 E8.61983
G1 X104.337 Y117.503 E8.62487
G1 X104.607 Y117.59 E8.63054
G1 X104.879 Y117.645 E8.63607
G1 X105.205 Y117.679 E8.64261
G1 X105.642 Y117.656 E8.65135
G1 X106.081 Y117.567 E8.66029
G1 X106.518 Y117.408 E8.66957
G1 X106.9 Y117.203 E8.67822
G1 X107.178 Y117.018 E8.68488
G1 X107.525 Y116.739 E8.69377
G1 X115.138 Y109.022 E8.91009
G1 X118.246 Y107.377 E8.98027
G1 F2700 E3.98027
G0 F6000 X118.103 Y107.104
G0 X114.807 Y108.574
G0 X107.092 Y116.386
G0 X106.232 Y116.947
G0 X105.643 Y117.099
G0 X105.171 Y117.134
G0 X104.337 Y116.912
G0 X103.913 Y116.64
G0 X103.621 Y116.341
G0 X103.368 Y115.915
G0 X103.238 Y115.438
G0 X103.236 Y115.012
G0 X103.335 Y114.573
G0 X103.601 Y114.02
G0 X103.825 Y113.76
G0 X113.329 Y105.037
;TYPE:WALL-INNER
G1 F2700 E8.98027
G1 F902.3 X118.799 Y101.629 E9.10856
G0 F6000 X112.647 Y105.264
G0 X111.963 Y97.511
G0 X117.386 Y99.1
G1 F882.4 X112.533 Y97.524 E9.21242
G1 F918.4 X112.027 Y97.34 E9.22295
G1 F965.1 X111.758 Y97.252 E9.22822
G1 F932.6 X111.851 Y98.177 E9.24612
G1 X112.084 Y97.663 E9.25699
G1 F918.4 X112.533 Y97.524 E9.26618
G0 F6000 X111.851 Y98.177
G1 F891.1 X112.428 Y104.684 E9.39785
G1 F904.5 X112.467 Y105.247 E9.40906
G1 F916 X112.44 Y105.501 E9.41407
G1 F895.5 X112.375 Y105.63 E9.41696
G1 F893.3 X113.329 Y105.037 E9.43955
G1 F913.7 X112.746 Y105.059 E9.45101
G1 F904.5 X112.428 Y104.684 E9.46078
G0 F6000 X112.357 Y105.665
G1 F891.1 X103.844 Y113.495 E9.6939
G1 F906.8 X103.46 Y113.97 E9.706
G1 F893.3 X103.303 Y114.275 E9.7129
G1 F888.9 X103.172 Y114.59 E9.71979
G1 F902.3 X103.089 Y114.998 E9.72808
G1 F897.8 X103.082 Y115.401 E9.73614
G1 F878 X103.134 Y115.662 E9.74159
G1 F880.2 X103.265 Y116.04 E9.74975
G1 F893.3 X103.533 Y116.482 E9.76014
G1 F891.1 X103.852 Y116.78 E9.76894
G1 X104.201 Y117.014 E9.77741
G1 F893.3 X104.475 Y117.126 E9.78336
G1 F895.5 X104.802 Y117.232 E9.79026
G1 F900 X105.215 Y117.279 E9.79855
G1 F893.3 X105.591 Y117.256 E9.80613
G1 F875.9 X105.971 Y117.174 E9.8141
G1 X106.314 Y117.067 E9.82146
G1 F884.5 X106.678 Y116.866 E9.82991
G1 F882.4 X106.94 Y116.692 E9.83631
G1 F886.7 X107.256 Y116.44 E9.8445
G1 X114.901 Y108.698 E10.06489
G1 F882.4 X129.643 Y100.889 E10.40446
G1 F816.3 X129.8 Y100.767 E10.40884
G1 X129.854 Y100.581 E10.4131
G1 F893.3 X130.289 Y96.714 E10.49134
G1 F902.3 X130.684 Y96.201 E10.50423
G1 F900 X133.498 Y95.815 E10.56091
G1 X131.175 Y91.794 E10.65358
G1 X129.559 Y93.88 E10.70624
G1 X129.38 Y94.035 E10.71096
G1 X130.296 Y95.619 E10.74748
G1 X130.385 Y95.892 E10.75321
G1 F904.5 X130.289 Y96.714 E10.76964
G0 F6000 X130.631 Y95.974
G0 X130.763 Y95.787
G1 F900 X132.854 Y95.5 E10.81176
G1 X131.126 Y92.51 E10.88068
G1 X129.886 Y94.111 E10.92109
G1 X130.642 Y95.419 E10.95124
G1 X130.763 Y95.787 E10.95897
G0 F6000 X131.03 Y95.347
G1 F900 X132.21 Y95.184 E10.98274
G1 X131.078 Y93.226 E11.02787
G1 X130.367 Y94.143 E11.05103
G1 X130.988 Y95.219 E11.07582
G1 X131.03 Y95.347 E11.07851
G0 F6000 X131.244 Y94.964
;TYPE:SKIN
G1 F957.4 X131.645 Y94.908 E11.08611
G1 X131.033 Y93.849 E11.10905
G1 X130.786 Y94.171 E11.11666
G1 X131.244 Y94.964 E11.13384
G0 F6000 X130.775 Y95.235
G1 F2700 E6.13384
;MESH:NONMESH
G0 F300 X130.775 Y95.235 Z0.24
G0 F6000 X129.139 Y93.972
G0 X128.197 Y94.516
G0 X110.367 Y95.503
G0 X110.398 Y96.05
G0 X110.508 Y96.04
;TIME_ELAPSED:45.628046
;LAYER:1
M106 S42.5
;TYPE:SKIRT
G1 F2700 E11.13384
G1 F900 X110.724 Y95.841 E11.1397
G1 X110.983 Y95.74 E11.14525
G1 X113.997 Y95.172 E11.20646
G1 X116.753 Y94.568 E11.26276
G1 X119.468 Y93.893 E11.31859
G1 X122.164 Y93.139 E11.37446
G1 X124.866 Y92.302 E11.43091
G1 X127.505 Y91.401 E11.48656
G1 X130.155 Y90.412 E11.543
G1 X130.997 Y90.082 E11.56105
G1 X131.229 Y90.037 E11.56577
G1 X131.462 Y90.072 E11.57047
G1 X131.67 Y90.183 E11.57517
G1 X131.843 Y90.376 E11.58035
G1 X132.274 Y91.094 E11.59706
G1 X134.721 Y95.332 E11.69472
G1 X135.064 Y95.946 E11.70875
G1 X135.143 Y96.168 E11.71345
G1 X135.143 Y96.404 E11.71816
G1 X135.052 Y96.664 E11.72366
G1 X134.476 Y97.337 E11.74134
G1 X133.717 Y98.2 E11.76427
G1 X131.922 Y100.36 E11.82032
G1 X130.951 Y101.584 E11.8515
G1 X130.742 Y101.761 E11.85696
G1 X129.821 Y102.272 E11.87798
G1 X128.789 Y102.818 E11.90128
G1 X126.335 Y104.161 E11.95711
G1 X123.894 Y105.59 E12.01356
G1 X121.51 Y107.077 E12.06963
G1 X119.171 Y108.63 E12.12566
G1 X116.892 Y110.237 E12.18131
G1 X114.628 Y111.932 E12.23775
G1 X112.443 Y113.666 E12.29341
G1 X110.278 Y115.486 E12.34985
G1 X109.126 Y116.519 E12.38073
G1 X108.218 Y117.318 E12.40487
G1 X107.728 Y117.718 E12.41749
G1 X107.229 Y118.049 E12.42944
G1 X106.776 Y118.277 E12.43956
G1 X106.324 Y118.423 E12.44904
G1 X105.847 Y118.528 E12.45879
G1 X105.214 Y118.569 E12.47145
G1 X104.77 Y118.53 E12.48034
G1 X104.498 Y118.477 E12.48587
G1 X104.06 Y118.351 E12.49497
G1 X103.609 Y118.169 E12.50467
G1 X103.279 Y117.959 E12.51248
G1 X103.046 Y117.795 E12.51817
G1 X102.57 Y117.341 E12.53129
G1 X102.302 Y116.966 E12.54049
G1 X102.133 Y116.667 E12.54734
G1 X101.995 Y116.353 E12.55419
G1 X101.876 Y115.966 E12.56227
G1 X101.796 Y115.535 E12.57102
G1 X101.789 Y115.005 E12.58159
G1 X101.85 Y114.539 E12.59097
G1 X101.946 Y114.165 E12.59868
G1 X102.161 Y113.657 E12.60969
G1 X103.775 Y110.852 E12.67427
G1 X105.107 Y108.379 E12.73032
G1 X106.359 Y105.887 E12.78598
G1 X107.557 Y103.325 E12.84242
G1 X108.675 Y100.748 E12.89848
G1 X109.718 Y98.141 E12.95451
G1 X110.508 Y96.04 E12.99931
G1 F2700 E7.99931
;MESH:clicker.stl
G0 F7500 X111.57 Y97.018
G0 X118.246 Y107.377
;TYPE:WALL-OUTER
G1 F2700 E12.99931
G1 F1200 X130.208 Y101.044 E13.26941
G1 X130.685 Y96.757 E13.35549
G1 X130.813 Y96.592 E13.35966
G1 X134.142 Y96.13 E13.42673
G1 X131.223 Y91.078 E13.54317
G1 X129.22 Y93.665 E13.60846
G1 X128.834 Y93.889 E13.61736
G1 X129.984 Y95.877 E13.6632
G1 X129.465 Y100.468 E13.7554
G1 X129.395 Y100.57 E13.75787
G1 X114.657 Y108.371 E14.09064
G1 X106.921 Y116.205 E14.31035
G1 X106.58 Y116.458 E14.31883
G1 X106.118 Y116.719 E14.32942
G1 X105.614 Y116.849 E14.3398
G1 X105.175 Y116.879 E14.34858
G1 X104.79 Y116.812 E14.35638
G1 X104.433 Y116.678 E14.36399
G1 X104.079 Y116.452 E14.37237
G1 X103.724 Y116.092 E14.38246
G1 X103.52 Y115.582 E14.39342
G1 X103.468 Y115.129 E14.40252
G1 X103.567 Y114.664 E14.41201
G1 X103.765 Y114.255 E14.42108
G1 X103.996 Y113.928 E14.42907
G1 X104.184 Y113.724 E14.43461
G1 X112.68 Y105.916 E14.66488
G1 X119.096 Y101.914 E14.81578
G1 X119.235 Y101.65 E14.82174
G1 X119.208 Y101.449 E14.82578
G1 X119.037 Y101.257 E14.83091
G1 X118.892 Y101.21 E14.83396
G1 X118.631 Y101.262 E14.83927
G1 X113.118 Y104.698 E14.9689
G1 X112.921 Y104.707 E14.97284
G1 X112.818 Y104.58 E14.9761
G1 X112.249 Y98.142 E15.10508
G1 X112.323 Y97.967 E15.10887
G1 X112.477 Y97.925 E15.11206
G1 X117.345 Y99.508 E15.21421
G1 X117.552 Y99.484 E15.21837
G1 X117.743 Y99.339 E15.22315
G1 X117.806 Y99.18 E15.22657
G1 X117.801 Y99.013 E15.2299
G1 X117.728 Y98.862 E15.23325
G1 X117.576 Y98.744 E15.23709
G1 X111.323 Y96.705 E15.36834
G1 X112.081 Y105.34 E15.54132
G1 X112.012 Y105.444 E15.54382
G1 X103.729 Y113.054 E15.76828
G1 X103.489 Y113.295 E15.77507
G1 X103.26 Y113.573 E15.78226
G1 X103.08 Y113.836 E15.78862
G1 X102.933 Y114.111 E15.79484
G1 X102.821 Y114.375 E15.80056
