;FLAVOR:Marlin
;TIME:1190
;Filament used: 0.942555m
;Layer height: 0.2
;MINX:0
;MINY:0
;MINZ:0.24
;MAXX:138.266
;MAXY:153.297
;MAXZ:5.96
;TARGET_MACHINE.NAME:Creality Ender-3
;Generated with Cura_SteamEngine 5.11.0
; Ender 3 V2 - Optimized Start G-code (active)
; Purpose: Improve first-layer adhesion by applying a lower initial Z for priming/skirt
; Date: 2025-11-10
; Notes: Active start G-code used by repository

M140 S70 ; Set bed temp (non-blocking)
M104 S218 ; Set nozzle temp (non-blocking)
M190 S70 ; Wait for bed
M109 S218 ; Wait for nozzle

G92 E0 ; Reset extruder
G28 ; Home all axes
M82 ; Set extruder to absolute mode (required so absolute E moves in priming work)
G90 ; Ensure absolute positioning for XYZ moves
M501 ; Load settings from EEPROM (ensure saved probe offset and settings are active)
; Enable saved BLTouch mesh so skirt/prime use mesh compensation (saved mesh: MRISCOC)
M420 S1 ; Enable mesh from EEPROM
; If you prefer to re-probe each print, replace the above with G29 (takes longer)

G1 Z2.0 F3000 ; Lift Z a little
; --- Off-print purge + wipe to avoid dragging a blob onto the model ---
; Move to a corner/back edge for priming (keeps nozzle work away from the print area)
G1 X10 Y200 Z0.30 F5000.0 ; Move to purge corner (safe edge)
G92 E0 ; Reset extruder to 0 for absolute E moves
G1 Z0.30 F1200.0 ; Lower to purge height (slightly above final first-layer Z)
G1 X150 Y200 Z0.30 F1500.0 E6.000 ; Short purge line (moderate extrusion)
G1 E4.500 F1800.0 ; Retract 1.5mm to reduce ooze
G1 Z0.60 F1200.0 ; Lift slightly after retract
G1 X150 Y205 F5000.0 ; Small travel to wipe the nozzle off the purge line
G1 X10 Y205 Z0.60 F1500.0 E5.000 ; Slow micro-prime back across (0.5mm re-extrude)
G92 E0 ; Reset extruder again
G1 Z2.0 F3000 ; Move Z up a bit after priming
G1 X30 Y20 Z2.0 F5000.0 ; Move over to safe print start area

; Notes:
; - The purge happens off to the side (X10..X150 at Y200/205), away from the print area so any blob is not dragged across the model.
; - Extrusion quantities were reduced and a retract + micro-prime sequence added to minimize pickup.
; - If your printer still oozes, increase the retract in Cura (or add a short coast) and/or raise the purge Z slightly (0.35-0.40 mm).

; Ready to start print - printer should now align first layer closer to bed for better adhesion
M82 ;absolute extrusion mode
G92 E0
G92 E0
G1 F4800 E-10
;LAYER_COUNT:24
;LAYER:0
M107
G1 F300 Z0.44
G0 F6000 X0.00 Y0.000 Z0.44
G0 X95.586 Y71.222
;TYPE:SKIRT
G1 F300 Z0.24
G1 F4800 E0.08315
G1 F900 X96.193 Y70.464 E0.12191
G1 X96.867 Y69.759 E0.16084
G1 X97.6 Y69.119 E0.19967
G1 X98.387 Y68.544 E0.23858
G1 X99.223 Y68.042 E0.2775
G1 X100.066 Y67.631 E0.31493
G1 X101.008 Y67.269 E0.35521
G1 X101.945 Y67.005 E0.39406
G1 X102.916 Y66.822 E0.4335
G1 X104.198 Y66.715 E0.48484
G1 X105.423 Y66.692 E0.53374
G1 X109.433 Y66.693 E0.69379
G1 X110.141 Y66.704 E0.72205
G1 X111.131 Y66.764 E0.76164
G1 X112.093 Y66.911 E0.80048
G1 X113.04 Y67.142 E0.83938
G1 X113.896 Y67.43 E0.87543
G1 X114.852 Y67.849 E0.91709
G1 X115.705 Y68.32 E0.95598
G1 X116.511 Y68.865 E0.99481
G1 X117.268 Y69.479 E1.03372
G1 X117.967 Y70.157 E1.07258
G1 X118.603 Y70.895 E1.11147
G1 X119.17 Y71.685 E1.15028
G1 X119.667 Y72.523 E1.18916
G1 X120.076 Y73.377 E1.22696
G1 X120.539 Y74.674 E1.28192
G1 X120.861 Y75.805 E1.32886
G1 X128.169 Y103.355 E2.46646
G1 X128.865 Y105.835 E2.56927
G1 X129.625 Y108.275 E2.67127
G1 X130.423 Y110.605 E2.76957
G1 X131.318 Y112.994 E2.87139
G1 X132.256 Y115.3 E2.97075
G1 X133.282 Y117.63 E3.07236
G1 X134.346 Y119.871 E3.17138
G1 X135.505 Y122.143 E3.27317
G1 X136.625 Y124.21 E3.367
G1 X136.838 Y124.627 E3.38569
G1 X137.064 Y125.114 E3.40712
G1 X137.289 Y125.648 E3.43025
G1 X137.688 Y126.788 E3.47846
G1 X137.926 Y127.702 E3.51615
G1 X138.096 Y128.595 E3.55243
G1 X138.167 Y129.104 E3.57295
G1 X138.214 Y129.558 E3.59116
G1 X138.25 Y130.111 E3.61328
G1 X138.266 Y130.644 E3.63456
G1 X138.211 Y131.938 E3.68626
G1 X138.149 Y132.532 E3.71009
G1 X137.949 Y133.747 E3.75924
G1 X137.761 Y134.534 E3.79153
G1 X137.513 Y135.345 E3.82538
G1 X137.254 Y136.036 E3.85483
G1 X137.135 Y136.324 E3.86727
G1 X136.595 Y137.441 E3.91679
G1 X136.114 Y138.285 E3.95556
G1 X135.58 Y139.095 E3.99428
G1 X135.063 Y139.753 E4.02768
G1 X134.609 Y140.27 E4.05514
G1 X134.316 Y140.583 E4.07226
G1 X133.471 Y141.394 E4.119
G1 X132.834 Y141.923 E4.15205
G1 X132.389 Y142.262 E4.17438
G1 X131.939 Y142.572 E4.19619
G1 X128.861 Y144.497 E4.34108
G1 X126.738 Y145.914 E4.44296
G1 X124.701 Y147.357 E4.54259
G1 X122.682 Y148.879 E4.64351
G1 X119.99 Y151.029 E4.78101
G1 X119.135 Y151.61 E4.82227
G1 X118.284 Y152.084 E4.86115
G1 X117.46 Y152.454 E4.8972
G1 X116.769 Y152.705 E4.92654
G1 X116.069 Y152.912 E4.95568
G1 X115.094 Y153.128 E4.99553
G1 X114.127 Y153.257 E5.03447
G1 X113.156 Y153.297 E5.07326
G1 X112.253 Y153.258 E5.10933
G1 X111.116 Y153.101 E5.15514
G1 X110.362 Y152.934 E5.18597
G1 X109.401 Y152.65 E5.22596
G1 X108.497 Y152.292 E5.26477
G1 X107.657 Y151.873 E5.30223
G1 X106.785 Y151.333 E5.34317
G1 X105.701 Y150.491 E5.39795
G1 X105.129 Y149.955 E5.42924
G1 X104.288 Y149.037 E5.47893
G1 X103.209 Y147.708 E5.54726
G1 X101.586 Y145.781 E5.64781
G1 X99.941 Y143.939 E5.74638
G1 X98.185 Y142.079 E5.84847
G1 X96.415 Y140.308 E5.94841
G1 X94.564 Y138.558 E6.05007
G1 X92.694 Y136.887 E6.15017
G1 X90.776 Y135.269 E6.25032
G1 X88.806 Y133.701 E6.35081
G1 X86.756 Y132.157 E6.45324
G1 X85.764 Y131.324 E6.50494
G1 X85.515 Y131.088 E6.51864
G1 X84.827 Y130.374 E6.55821
G1 X84.259 Y129.672 E6.59425
G1 X83.805 Y129.016 E6.62609
G1 X83.363 Y128.289 E6.66005
G1 X82.898 Y127.406 E6.69988
G1 X82.535 Y126.537 E6.73747
G1 X82.193 Y125.435 E6.78352
G1 X81.949 Y124.403 E6.82585
G1 X81.8 Y123.453 E6.86423
G1 X81.748 Y122.814 E6.88981
G1 X81.733 Y122.344 E6.90858
G1 X81.751 Y121.463 E6.94375
G1 X81.827 Y120.563 E6.9798
G1 X82.059 Y119.32 E7.03027
G1 X82.35 Y118.139 E7.07881
G1 X93.644 Y75.572 E8.83654
G1 X93.886 Y74.707 E8.87239
G1 X94.181 Y73.816 E8.90985
G1 X94.581 Y72.89 E8.95011
G1 X95.046 Y72.034 E8.98899
G1 X95.586 Y71.222 E9.02791
G0 F6000 X95.898 Y71.472
G1 F900 X96.483 Y70.74 E9.06531
G1 X97.131 Y70.06 E9.1028
G1 X97.836 Y69.442 E9.14022
G1 X98.594 Y68.887 E9.17771
G1 X99.398 Y68.402 E9.21519
G1 X100.241 Y67.991 E9.25262
G1 X101.117 Y67.654 E9.29008
G1 X102.02 Y67.398 E9.32754
G1 X102.949 Y67.221 E9.36529
G1 X104.231 Y67.114 E9.41663
G1 X105.423 Y67.092 E9.46422
G1 X109.427 Y67.093 E9.62402
G1 X110.117 Y67.103 E9.65157
G1 X111.071 Y67.16 E9.68971
G1 X111.999 Y67.3 E9.72717
G1 X112.912 Y67.521 E9.76466
G1 X113.768 Y67.809 E9.80071
G1 X114.659 Y68.199 E9.83953
G1 X115.482 Y68.652 E9.87702
G1 X116.26 Y69.176 E9.91446
G1 X116.99 Y69.766 E9.95192
G1 X117.664 Y70.419 E9.98938
G1 X118.278 Y71.129 E10.02684
G1 X118.826 Y71.89 E10.06427
G1 X119.306 Y72.696 E10.10171
G1 X119.715 Y73.55 E10.1395
G1 X120.154 Y74.784 E10.19178
G1 X120.474 Y75.908 E10.23842
G1 X127.783 Y103.458 E11.37604
G1 X128.483 Y105.954 E11.47951
G1 X129.243 Y108.394 E11.58151
G1 X130.048 Y110.745 E11.68069
G1 X130.943 Y113.134 E11.78251
G1 X131.89 Y115.461 E11.88278
G1 X132.921 Y117.802 E11.98488
G1 X133.99 Y120.053 E12.08434
G1 X135.153 Y122.334 E12.18653
G1 X136.269 Y124.392 E12.27996
G1 X136.475 Y124.795 E12.29803
G1 X136.695 Y125.269 E12.31889
G1 X136.92 Y125.803 E12.34201
G1 X137.301 Y126.889 E12.38795
G1 X137.533 Y127.777 E12.42458
G1 X137.7 Y128.65 E12.46005
G1 X137.769 Y129.146 E12.48004
G1 X137.815 Y129.584 E12.49762
G1 X137.85 Y130.124 E12.51922
G1 X137.866 Y130.627 E12.5393
G1 X137.813 Y131.897 E12.59004
G1 X137.754 Y132.467 E12.61291
G1 X137.554 Y133.682 E12.66205
G1 X137.372 Y134.441 E12.6932
G1 X137.138 Y135.205 E12.7251
G1 X136.884 Y135.883 E12.75399
G1 X136.765 Y136.171 E12.76643
G1 X136.235 Y137.267 E12.81502
G1 X135.78 Y138.065 E12.85168
G1 X135.265 Y138.848 E12.88909
G1 X134.762 Y139.489 E12.92161
G1 X134.316 Y139.997 E12.94859
G1 X134.039 Y140.294 E12.9648
G1 X133.194 Y141.105 E13.01154
G1 X132.591 Y141.605 E13.04281
G1 X132.162 Y141.933 E13.06436
G1 X131.727 Y142.233 E13.08545
G1 X128.639 Y144.164 E13.23081
G1 X126.516 Y145.581 E13.33269
G1 X124.46 Y147.038 E13.43326
G1 X122.432 Y148.566 E13.53461
G1 X119.74 Y150.716 E13.67211
G1 X118.94 Y151.261 E13.71075
G1 X118.12 Y151.719 E13.74824
G1 X117.296 Y152.089 E13.78429
G1 X116.656 Y152.321 E13.81146
G1 X115.956 Y152.528 E13.84059
G1 X115.041 Y152.732 E13.87801
G1 X114.11 Y152.857 E13.9155
G1 X113.173 Y152.897 E13.95293
G1 X112.27 Y152.858 E13.98901
G1 X111.202 Y152.71 E14.03204
G1 X110.475 Y152.55 E14.06175
G1 X109.548 Y152.278 E14.10031
G1 X108.676 Y151.934 E14.13772
G1 X107.836 Y151.515 E14.17519
G1 X107.03 Y151.017 E14.213
G1 X105.975 Y150.199 E14.26628
G1 X105.403 Y149.663 E14.29757
G1 X104.599 Y148.785 E14.34509
G1 X103.52 Y147.456 E14.41341
G1 X101.892 Y145.523 E14.51428
G1 X100.232 Y143.664 E14.61375
G1 X98.476 Y141.804 E14.71584
G1 X96.698 Y140.025 E14.81623
G1 X94.839 Y138.267 E14.91835
G1 X92.961 Y136.589 E15.01887
G1 X91.034 Y134.963 E15.1195
G1 X89.047 Y133.381 E15.22087
G1 X86.997 Y131.837 E15.3233
G1 X86.039 Y131.033 E15.37322
G1 X85.803 Y130.81 E15.38618
G1 X85.138 Y130.122 E15.42437
G1 X84.57 Y129.42 E15.46041
G1 X84.147 Y128.808 E15.4901
G1 X83.717 Y128.102 E15.52309
G1 X83.267 Y127.251 E15.56152
G1 X82.917 Y126.418 E15.59758
G1 X82.575 Y125.316 E15.64363
G1 X82.344 Y124.341 E15.68362
G1 X82.199 Y123.42 E15.72083
G1 X82.148 Y122.801 E15.74562
G1 X82.133 Y122.352 E15.76355
G1 X82.15 Y121.497 E15.79769
G1 X82.226 Y120.597 E15.83373
G1 X82.447 Y119.416 E15.88169
G1 X82.737 Y118.242 E15.92995
G1 X94.029 Y75.68 E17.68746
G1 X94.266 Y74.833 E17.72257
G1 X94.561 Y73.942 E17.76003
G1 X94.933 Y73.08 E17.7975
G1 X95.379 Y72.255 E17.83493
G1 X95.898 Y71.472 E17.87242
G0 F6000 X96.211 Y71.721
G1 F900 X96.773 Y71.015 E17.90844
G1 X97.395 Y70.36 E17.94449
G1 X98.073 Y69.764 E17.98052
G1 X98.801 Y69.229 E18.01658
G1 X99.574 Y68.761 E18.05264
G1 X100.385 Y68.364 E18.08868
G1 X101.227 Y68.039 E18.12471
G1 X102.096 Y67.791 E18.16077
G1 X102.982 Y67.62 E18.19679
G1 X104.264 Y67.513 E18.24813
G1 X105.423 Y67.492 E18.2944
G1 X109.421 Y67.493 E18.45397
G1 X110.111 Y67.503 E18.48151
G1 X111.012 Y67.556 E18.51753
G1 X111.906 Y67.689 E18.55361
G1 X112.784 Y67.9 E18.58965
G1 X113.64 Y68.188 E18.6257
G1 X114.467 Y68.55 E18.66173
G1 X115.259 Y68.984 E18.69777
G1 X116.009 Y69.487 E18.73382
G1 X116.712 Y70.054 E18.76986
G1 X117.362 Y70.681 E18.80591
G1 X117.954 Y71.363 E18.84195
G1 X118.483 Y72.095 E18.878
G1 X118.946 Y72.87 E18.91403
G1 X119.338 Y73.684 E18.95009
G1 X119.769 Y74.893 E19.00132
G1 X120.087 Y76.011 E19.04771
G1 X127.397 Y103.561 E20.18534
G1 X128.101 Y106.073 E20.28946
G1 X128.861 Y108.513 E20.39146
G1 X129.673 Y110.885 E20.49153
G1 X130.568 Y113.274 E20.59335
G1 X131.524 Y115.622 E20.69453
G1 X132.56 Y117.974 E20.79711
G1 X133.634 Y120.235 E20.89701
G1 X134.801 Y122.525 E20.9996
G1 X135.913 Y124.574 E21.09264
G1 X136.112 Y124.964 E21.11012
G1 X136.326 Y125.424 E21.13037
G1 X136.551 Y125.958 E21.1535
G1 X136.914 Y126.99 E21.19716
G1 X137.14 Y127.853 E21.23276
G1 X137.304 Y128.705 E21.26739
G1 X137.371 Y129.188 E21.28686
G1 X137.416 Y129.61 E21.30379
G1 X137.45 Y130.138 E21.32491
G1 X137.466 Y130.611 E21.3438
G1 X137.415 Y131.856 E21.39353
G1 X137.359 Y132.402 E21.41544
G1 X137.159 Y133.617 E21.46459
G1 X136.989 Y134.324 E21.49361
G1 X136.763 Y135.065 E21.52453
G1 X136.514 Y135.73 E21.55287
G1 X136.395 Y136.018 E21.56531
G1 X135.875 Y137.093 E21.61297
G1 X135.445 Y137.846 E21.64758
G1 X134.95 Y138.601 E21.68361
G1 X134.447 Y139.242 E21.71613
G1 X134.023 Y139.724 E21.74175
G1 X133.746 Y140.021 E21.75796
G1 X132.938 Y140.797 E21.80267
G1 X132.348 Y141.287 E21.83328
G1 X131.934 Y141.604 E21.85409
G1 X131.515 Y141.894 E21.87443
G1 X128.417 Y143.831 E22.02026
G1 X126.294 Y145.248 E22.12213
G1 X124.22 Y146.719 E22.22362
G1 X122.191 Y148.246 E22.32497
G1 X119.49 Y150.403 E22.46293
G1 X118.744 Y150.912 E22.49898
G1 X117.956 Y151.354 E22.53504
G1 X117.132 Y151.724 E22.57109
G1 X116.542 Y151.938 E22.59614
G1 X115.868 Y152.138 E22.6242
G1 X114.987 Y152.336 E22.66024
G1 X114.092 Y152.457 E22.69628
G1 X113.19 Y152.497 E22.73232
G1 X112.287 Y152.458 E22.76839
G1 X111.288 Y152.319 E22.80865
G1 X110.561 Y152.159 E22.83836
G1 X109.694 Y151.906 E22.87441
G1 X108.854 Y151.576 E22.91043
G1 X108.045 Y151.174 E22.94648
G1 X107.275 Y150.701 E22.98255
G1 X106.248 Y149.907 E23.03436
G1 X105.698 Y149.393 E23.06441
G1 X104.91 Y148.533 E23.11096
G1 X103.831 Y147.204 E23.17929
G1 X102.198 Y145.265 E23.28047
G1 X100.523 Y143.389 E23.38084
G1 X98.767 Y141.529 E23.48294
G1 X96.981 Y139.742 E23.58378
G1 X95.114 Y137.976 E23.68635
G1 X93.228 Y136.291 E23.78729
G1 X91.292 Y134.657 E23.8884
G1 X89.288 Y133.061 E23.99065
G1 X87.238 Y131.517 E24.09308
G1 X86.314 Y130.742 E24.14121
G1 X86.078 Y130.519 E24.15417
G1 X85.449 Y129.87 E24.19025
G1 X84.881 Y129.168 E24.22629
G1 X84.489 Y128.6 E24.25383
G1 X84.059 Y127.894 E24.28682
G1 X83.636 Y127.096 E24.32287
G1 X83.286 Y126.263 E24.35893
G1 X82.964 Y125.223 E24.40239
G1 X82.739 Y124.279 E24.44112
G1 X82.598 Y123.387 E24.47716
G1 X82.548 Y122.787 E24.50119
G1 X82.533 Y122.36 E24.51825
G1 X82.549 Y121.531 E24.55134
G1 X82.625 Y120.631 E24.58739
G1 X82.835 Y119.512 E24.63283
G1 X83.124 Y118.345 E24.68082
G1 X94.414 Y75.788 E26.43811
G1 X94.646 Y74.958 E26.47251
G1 X94.928 Y74.1 E26.50856
G1 X95.285 Y73.27 E26.54462
G1 X95.713 Y72.475 E26.58065
G1 X96.211 Y71.721 E26.61672
G1 F4800 E16.61672
G1 F300 Z0.44
;MESH:CE3E3V2_01-chip_clip--print_in_place.stl
G0 F6000 X96.211 Y71.721 Z0.44
G0 X99.012 Y99.012
;TYPE:WALL-OUTER
G1 F300 Z0.24
G1 F4800 E26.69987
G1 F900 X92.932 Y121.933 E27.64633
G1 X92.925 Y122.219 E27.65775
G1 X93.02 Y122.635 E27.67478
G1 X93.238 Y122.994 E27.69155
G1 X93.379 Y123.132 E27.69942
G1 X93.747 Y123.351 E27.71651
G1 X94.151 Y123.441 E27.73303
G1 X94.565 Y123.393 E27.74967
G1 X94.984 Y123.201 E27.76806
G1 X95.119 Y123.22 E27.7735
G1 X95.364 Y123.339 E27.78437
G1 F897.8 X95.774 Y123.437 E27.80124
G1 X96.149 Y123.414 E27.81627
G1 F895.5 X96.643 Y123.266 E27.83696
G1 F891.1 X97.003 Y123.028 E27.85436
G1 F895.5 X97.216 Y122.844 E27.86565
G1 F902.3 X97.465 Y122.582 E27.88004
G1 F904.5 X97.682 Y122.305 E27.89401
G1 F895.5 X103.461 Y113.861 E28.30444
G1 F869.6 X103.624 Y113.524 E28.31991
G1 F873.8 X103.201 Y112.895 E28.35107
G1 F900 X103.054 Y112.564 E28.36552
G1 F902.3 X102.959 Y112.216 E28.37988
G1 F904.5 X102.926 Y111.82 E28.39566
G1 F906.8 X102.949 Y111.454 E28.41019
G1 F909.1 X103.021 Y111.05 E28.42641
G1 F904.5 X103.21 Y110.573 E28.44678
G1 F900 X103.4 Y110.235 E28.46226
G1 X103.615 Y109.942 E28.47676
G1 F909.1 X103.935 Y109.612 E28.49492
G1 F911.4 X104.278 Y109.373 E28.5114
G1 F909.1 X104.706 Y109.168 E28.53015
G1 F900 X105.179 Y109.118 E28.54914
G1 F895.5 X105.517 Y109.163 E28.56281
G1 F900 X105.899 Y109.267 E28.57862
G1 F902.3 X106.3 Y109.457 E28.59628
G1 F904.5 X106.561 Y109.625 E28.60861
G1 F900 X106.805 Y109.826 E28.62123
G1 X107.026 Y110.063 E28.63416
G1 F909.1 X107.253 Y110.398 E28.65015
G1 F911.4 X107.398 Y110.774 E28.66603
G1 F906.8 X107.476 Y111.168 E28.68194
G1 F909.1 X107.459 Y111.628 E28.70013
G1 X107.401 Y111.904 E28.71127
G1 F906.8 X107.307 Y112.2 E28.72358
G1 X107.181 Y112.488 E28.73603
G1 F904.5 X106.928 Y112.916 E28.75577
G1 X106.678 Y113.248 E28.77228
G1 F895.5 X106.417 Y113.546 E28.78817
G1 F855.1 X106.259 Y113.75 E28.79901
G1 F825.7 X106.262 Y113.894 E28.80527
G1 F861.2 X106.376 Y114.162 E28.81742
G1 F891.1 X110.195 Y121.712 E29.15849
G1 F770.9 X110.241 Y121.932 E29.16896
G1 F767.6 X110.069 Y122.003 E29.17767
G1 F882.4 X109.378 Y122.143 E29.20637
G1 F895.5 X108.89 Y122.321 E29.22721
G1 X108.484 Y122.539 E29.2457
G1 F891.1 X108.114 Y122.795 E29.26383
G1 F897.8 X107.779 Y123.095 E29.28183
G1 F900 X107.532 Y123.365 E29.29643
G1 X107.325 Y123.641 E29.3102
G1 F904.5 X107.141 Y123.95 E29.32448
G1 F900 X106.97 Y124.302 E29.3401
G1 F893.3 X106.824 Y124.707 E29.35741
G1 F895.5 X106.725 Y125.191 E29.37723
G1 F900 X106.689 Y125.531 E29.39088
G1 X106.688 Y125.93 E29.4068
G1 F893.3 X106.74 Y126.399 E29.42578
