;FLAVOR:Marlin
;TIME:8986
;Filament used: 6.16479m
;Layer height: 0.2
;MINX:67.259
;MINY:71.258
;MINZ:0.2
;MAXX:146.742
;MAXY:150.742
;MAXZ:19.6
;TARGET_MACHINE.NAME:Creality Ender-3
;Generated with Cura_SteamEngine 5.10.1
M140 S65
M105
M190 S65
M104 S195
M105
M109 S195
; Ender 3 Custom Start G-code
G92 E0 ; Reset Extruder
G28 ; Home all axes
G1 Z2.0 F3000 ; Move Z Axis up little to prevent scratching of Heat Bed
G1 X0.1 Y20 Z0.3 F5000.0 ; Move to start position
G1 X0.1 Y200.0 Z0.3 F1500.0 E15 ; Draw the first line
G1 X0.4 Y200.0 Z0.3 F5000.0 ; Move to side a little
G1 X0.4 Y20 Z0.3 F1500.0 E30 ; Draw the second line
G92 E0 ; Reset Extruder
G1 Z2.0 F3000 ; Move Z Axis up little to prevent scratching of Heat Bed
G1 X5 Y20 Z0.3 F5000.0 ; Move over to prevent blob squish
M82 ;absolute extrusion mode
G92 E0
G92 E0
G1 F2700 E-8
;LAYER_COUNT:97
;LAYER:0
M107
G1 F300 Z0.4
G0 F3000 X79.047 Y82.749 Z0.4
;TYPE:SKIRT
G1 F300 Z0.2
G1 F2700 E0
G1 F900 X79.757 Y82.068 E0.04197
G1 X80.485 Y81.396 E0.08423
G1 X81.333 Y80.66 E0.13212
G1 X81.991 Y80.113 E0.16862
G1 X82.753 Y79.516 E0.20991
G1 X83.492 Y78.956 E0.24947
G1 X84.294 Y78.386 E0.29144
G1 X85.125 Y77.82 E0.33432
G1 X85.952 Y77.293 E0.37615
G1 X86.752 Y76.802 E0.41619
G1 X87.56 Y76.34 E0.4559
G1 X88.541 Y75.805 E0.50356
G1 X89.485 Y75.326 E0.54872
G1 X90.248 Y74.96 E0.58481
G1 X91.148 Y74.558 E0.62686
G1 X91.952 Y74.216 E0.66413
G1 X92.916 Y73.84 E0.70827
G1 X93.842 Y73.5 E0.75034
G1 X94.759 Y73.193 E0.79159
G1 X95.662 Y72.908 E0.83198
G1 X96.629 Y72.638 E0.87481
G1 X97.541 Y72.399 E0.91503
G1 X98.552 Y72.169 E0.95925
G1 X99.419 Y71.987 E0.99704
G1 X100.456 Y71.803 E1.04197
G1 X101.384 Y71.658 E1.08203
G1 X102.427 Y71.526 E1.12688
G1 X103.318 Y71.429 E1.16511
G1 X104.336 Y71.349 E1.20867
G1 X105.271 Y71.295 E1.24862
G1 X106.391 Y71.264 E1.29641
G1 X107.005 Y71.258 E1.3226
G1 X108.281 Y71.28 E1.37704
G1 X109.154 Y71.315 E1.41431
G1 X110.16 Y71.386 E1.45733
G1 X111.154 Y71.475 E1.4999
G1 X112.12 Y71.593 E1.54141
G1 X113.058 Y71.723 E1.5818
G1 X114.067 Y71.894 E1.62546
G1 X114.948 Y72.06 E1.6637
G1 X115.925 Y72.276 E1.70638
G1 X116.895 Y72.508 E1.74892
G1 X117.831 Y72.766 E1.79034
G1 X118.681 Y73.014 E1.82811
G1 X119.673 Y73.337 E1.87261
G1 X120.645 Y73.673 E1.91648
G1 X122.21 Y74.286 E1.98817
G1 X123.344 Y74.777 E2.04089
G1 X124.186 Y75.167 E2.08047
G1 X125.111 Y75.626 E2.12452
G1 X125.91 Y76.045 E2.163
G1 X126.937 Y76.623 E2.21327
G1 X128.179 Y77.375 E2.2752
G1 X129.258 Y78.074 E2.33004
G1 X130.091 Y78.657 E2.37341
G1 X130.835 Y79.2 E2.4127
G1 X131.671 Y79.849 E2.45785
G1 X133.025 Y80.968 E2.53277
G1 X133.854 Y81.704 E2.58006
G1 X134.653 Y82.458 E2.62692
G1 X135.106 Y82.902 E2.65398
G1 X135.917 Y83.742 E2.70379
G1 X136.604 Y84.486 E2.74698
G1 X137.246 Y85.225 E2.78874
G1 X137.87 Y85.972 E2.83026
G1 X138.477 Y86.742 E2.87208
G1 X139.048 Y87.497 E2.91246
G1 X139.611 Y88.291 E2.95398
G1 X140.167 Y89.104 E2.99599
G1 X140.691 Y89.926 E3.03758
G1 X141.198 Y90.755 E3.07903
G1 X141.71 Y91.652 E3.12308
G1 X142.108 Y92.379 E3.15844
G1 X142.598 Y93.338 E3.20438
G1 X143.028 Y94.226 E3.24646
G1 X143.444 Y95.157 E3.28996
G1 X143.791 Y95.972 E3.32774
G1 X144.16 Y96.916 E3.37098
G1 X144.494 Y97.825 E3.41229
G1 X144.81 Y98.771 E3.45483
G1 X145.096 Y99.679 E3.49544
G1 X145.361 Y100.629 E3.53751
G1 X145.6 Y101.541 E3.57773
G1 X145.83 Y102.552 E3.62195
G1 X146.022 Y103.467 E3.66183
G1 X146.198 Y104.461 E3.70489
G1 X146.346 Y105.405 E3.74565
G1 X146.474 Y106.426 E3.78954
G1 X146.567 Y107.278 E3.8261
G1 X146.65 Y108.333 E3.87124
G1 X146.694 Y109.071 E3.90278
G1 X146.727 Y110.031 E3.94376
G1 X146.742 Y111.199 E3.99358
G1 X146.72 Y112.238 E4.03791
G1 X146.685 Y113.136 E4.07625
G1 X146.586 Y114.521 E4.13547
G1 X146.479 Y115.553 E4.17973
G1 X146.283 Y117.027 E4.24316
G1 X146.119 Y117.991 E4.28487
G1 X145.929 Y119 E4.32867
G1 X145.716 Y119.958 E4.37053
G1 X145.493 Y120.888 E4.41133
G1 X145.233 Y121.833 E4.45313
G1 X144.956 Y122.78 E4.49522
G1 X144.666 Y123.665 E4.53495
G1 X144.342 Y124.603 E4.57728
G1 X143.753 Y126.123 E4.64681
G1 X143.227 Y127.335 E4.70317
G1 X142.824 Y128.209 E4.74423
G1 X142.373 Y129.11 E4.7872
G1 X141.974 Y129.874 E4.82397
G1 X141.47 Y130.772 E4.8679
G1 X140.963 Y131.636 E4.91063
G1 X140.471 Y132.421 E4.95015
G1 X139.908 Y133.284 E4.9941
G1 X139.334 Y134.103 E5.03676
G1 X138.792 Y134.848 E5.07606
G1 X138.197 Y135.616 E5.1175
G1 X137.556 Y136.412 E5.1611
G1 X136.948 Y137.12 E5.2009
G1 X136.295 Y137.856 E5.24287
G1 X135.619 Y138.57 E5.28482
G1 X134.93 Y139.272 E5.32677
G1 X134.242 Y139.932 E5.36744
G1 X133.514 Y140.604 E5.4097
G1 X132.775 Y141.246 E5.45146
G1 X132.046 Y141.855 E5.49198
G1 X131.262 Y142.474 E5.53459
G1 X130.488 Y143.058 E5.57595
G1 X129.664 Y143.644 E5.61908
G1 X128.904 Y144.162 E5.65831
G1 X128.074 Y144.691 E5.70029
G1 X127.244 Y145.198 E5.74178
G1 X126.237 Y145.772 E5.79123
G1 X125.536 Y146.155 E5.8253
G1 X124.504 Y146.677 E5.87463
G1 X123.754 Y147.039 E5.91015
G1 X122.861 Y147.437 E5.95186
G1 X122.015 Y147.796 E5.99106
G1 X121.073 Y148.163 E6.03418
G1 X120.189 Y148.489 E6.07437
G1 X119.27 Y148.796 E6.11571
G1 X118.293 Y149.104 E6.1594
G1 X117.397 Y149.354 E6.19908
G1 X116.451 Y149.602 E6.2408
G1 X115.447 Y149.831 E6.28472
G1 X114.545 Y150.02 E6.32404
G1 X113.51 Y150.203 E6.36887
G1 X112.616 Y150.343 E6.40747
G1 X111.574 Y150.474 E6.45227
G1 X110.722 Y150.567 E6.48883
G1 X109.665 Y150.65 E6.53405
G1 X108.727 Y150.704 E6.57413
G1 X107.637 Y150.735 E6.62064
G1 X106.985 Y150.742 E6.64846
G1 X106.259 Y150.734 E6.67943
G1 X104.785 Y150.681 E6.74234
G1 X103.842 Y150.614 E6.78267
G1 X102.887 Y150.529 E6.82357
G1 X101.838 Y150.402 E6.86864
G1 X100.963 Y150.282 E6.90631
G1 X99.989 Y150.116 E6.94846
G1 X98.979 Y149.926 E6.9923
G1 X98.062 Y149.72 E7.03239
G1 X97.149 Y149.501 E7.07244
G1 X96.148 Y149.23 E7.11667
G1 X95.223 Y148.957 E7.15781
G1 X94.259 Y148.642 E7.20107
G1 X93.426 Y148.352 E7.2387
G1 X92.429 Y147.972 E7.28421
G1 X91.591 Y147.634 E7.32275
G1 X90.688 Y147.238 E7.36481
G1 X89.779 Y146.818 E7.40753
G1 X88.886 Y146.37 E7.45014
G1 X88.059 Y145.94 E7.4899
G1 X87.191 Y145.45 E7.53242
G1 X86.403 Y144.989 E7.57136
G1 X85.721 Y144.562 E7.60569
G1 X84.865 Y144.007 E7.6492
G1 X83.897 Y143.334 E7.69949
G1 X83.172 Y142.807 E7.73773
G1 X82.362 Y142.181 E7.78139
G1 X81.611 Y141.576 E7.82253
G1 X80.879 Y140.948 E7.86367
G1 X80.143 Y140.295 E7.90564
G1 X79.429 Y139.621 E7.94753
G1 X78.73 Y138.935 E7.9893
G1 X78.052 Y138.225 E8.03118
G1 X77.406 Y137.526 E8.07178
G1 X76.754 Y136.775 E8.1142
G1 X76.13 Y136.028 E8.15572
G1 X75.523 Y135.258 E8.19754
G1 X74.952 Y134.503 E8.23792
G1 X74.389 Y133.709 E8.27944
G1 X73.833 Y132.896 E8.32146
G1 X73.31 Y132.075 E8.36298
G1 X72.79 Y131.225 E8.40548
G1 X72.276 Y130.324 E8.44973
G1 X71.849 Y129.544 E8.48766
G1 X71.39 Y128.641 E8.53087
G1 X70.971 Y127.776 E8.57187
G1 X70.555 Y126.843 E8.61544
G1 X70.208 Y126.028 E8.65323
G1 X69.839 Y125.084 E8.69646
G1 X69.505 Y124.175 E8.73777
G1 X69.185 Y123.214 E8.78098
G1 X68.907 Y122.332 E8.82042
G1 X68.633 Y121.357 E8.86363
G1 X68.387 Y120.409 E8.9054
G1 X68.16 Y119.408 E8.94919
G1 X67.981 Y118.556 E8.98632
G1 X67.801 Y117.538 E9.03042
G1 X67.659 Y116.63 E9.06962
G1 X67.531 Y115.614 E9.1133
G1 X67.429 Y114.677 E9.15351
G1 X67.35 Y113.675 E9.19638
G1 X67.296 Y112.764 E9.23531
G1 X67.268 Y111.774 E9.27756
G1 X67.259 Y110.765 E9.3206
G1 X67.278 Y109.798 E9.36185
G1 X67.316 Y108.832 E9.40309
G1 X67.384 Y107.86 E9.44466
G1 X67.473 Y106.873 E9.48693
G1 X67.589 Y105.903 E9.5286
G1 X67.721 Y104.946 E9.56981
G1 X67.883 Y103.99 E9.61117
G1 X68.07 Y103.007 E9.65385
G1 X68.275 Y102.076 E9.69452
G1 X68.512 Y101.089 E9.73781
G1 X68.77 Y100.149 E9.77939
G1 X69.039 Y99.238 E9.81991
G1 X69.333 Y98.335 E9.86042
G1 X69.655 Y97.402 E9.90252
G1 X69.998 Y96.506 E9.94345
G1 X70.379 Y95.562 E9.98687
G1 X70.781 Y94.645 E10.02958
G1 X71.167 Y93.812 E10.06874
G1 X71.632 Y92.879 E10.11321
G1 X72.045 Y92.09 E10.1512
G1 X72.548 Y91.195 E10.19499
G1 X73.019 Y90.392 E10.2347
G1 X73.444 Y89.713 E10.26887
G1 X73.995 Y88.864 E10.31204
G1 X74.658 Y87.908 E10.36167
G1 X75.191 Y87.176 E10.40029
G1 X75.808 Y86.378 E10.44332
G1 X76.443 Y85.588 E10.48656
G1 X77.052 Y84.879 E10.52642
G1 X77.708 Y84.14 E10.56858
G1 X78.405 Y83.404 E10.61181
G1 X79.047 Y82.749 E10.65094
G0 F3000 X79.463 Y83.182
G1 F900 X80.164 Y82.509 E10.69239
G1 X80.878 Y81.849 E10.73386
G1 X81.717 Y81.121 E10.78125
G1 X82.361 Y80.585 E10.81699
G1 X83.116 Y79.994 E10.85789
G1 X83.84 Y79.445 E10.89664
G1 X84.632 Y78.882 E10.93809
G1 X85.447 Y78.326 E10.98018
G1 X86.266 Y77.804 E11.02161
G1 X87.05 Y77.323 E11.06084
G1 X87.847 Y76.867 E11.10001
G1 X88.813 Y76.34 E11.14695
G1 X89.745 Y75.867 E11.19153
G1 X90.493 Y75.508 E11.22692
G1 X91.383 Y75.11 E11.26851
G1 X92.17 Y74.775 E11.30499
G1 X93.123 Y74.403 E11.34863
G1 X94.032 Y74.069 E11.38994
G1 X94.94 Y73.765 E11.43079
G1 X95.824 Y73.486 E11.47033
G1 X96.781 Y73.218 E11.51272
G1 X97.674 Y72.984 E11.5521
G1 X98.675 Y72.756 E11.59589
G1 X99.524 Y72.578 E11.63289
G1 X100.549 Y72.396 E11.6773
G1 X101.459 Y72.253 E11.71659
G1 X102.492 Y72.122 E11.76101
G1 X103.365 Y72.027 E11.79847
G1 X104.371 Y71.948 E11.84151
G1 X105.288 Y71.895 E11.88069
G1 X106.397 Y71.864 E11.92802
G1 X106.995 Y71.858 E11.95353
G1 X108.257 Y71.88 E12.00737
G1 X109.112 Y71.914 E12.04387
G1 X110.107 Y71.984 E12.08641
G1 X111.082 Y72.071 E12.12817
G1 X112.038 Y72.187 E12.16925
G1 X112.957 Y72.314 E12.20882
G1 X113.956 Y72.484 E12.25205
G1 X114.818 Y72.646 E12.28946
G1 X115.786 Y72.86 E12.33175
G1 X116.735 Y73.086 E12.37336
G1 X117.663 Y73.342 E12.41442
G1 X118.495 Y73.584 E12.45139
G1 X119.477 Y73.904 E12.49544
G1 X120.426 Y74.232 E12.53827
G1 X121.972 Y74.837 E12.60909
G1 X123.092 Y75.321 E12.66113
G1 X123.919 Y75.704 E12.70001
G1 X124.833 Y76.158 E12.74354
G1 X125.616 Y76.568 E12.78124
G1 X126.626 Y77.136 E12.83067
G1 X127.853 Y77.879 E12.89186
G1 X128.932 Y78.578 E12.9467
G1 X129.737 Y79.142 E12.98863
G1 X130.481 Y79.685 E13.02792
G1 X131.289 Y80.311 E13.07152
G1 X132.627 Y81.417 E13.14556
G1 X133.442 Y82.14 E13.19204
G1 X134.233 Y82.886 E13.23842
G1 X134.674 Y83.319 E13.26478
G1 X135.485 Y84.159 E13.31458
G1 X136.151 Y84.879 E13.35642
G1 X136.786 Y85.61 E13.39773
G1 X137.399 Y86.343 E13.43848
G1 X137.998 Y87.104 E13.4798
G1 X138.569 Y87.859 E13.52017
G1 X139.116 Y88.63 E13.5605
G1 X139.661 Y89.426 E13.60165
G1 X140.179 Y90.239 E13.64277
G1 X140.677 Y91.052 E13.68344
G1 X141.184 Y91.94 E13.72706
G1 X141.574 Y92.652 E13.76168
G1 X142.058 Y93.6 E13.80709
G1 X142.48 Y94.471 E13.84837
G1 X142.892 Y95.392 E13.89141
G1 X143.232 Y96.191 E13.92845
G1 X143.597 Y97.123 E13.97115
G1 X143.925 Y98.015 E14.01169
G1 X144.238 Y98.951 E14.05378
G1 X144.518 Y99.841 E14.09358
G1 X144.781 Y100.781 E14.13522
G1 X145.015 Y101.674 E14.1746
G1 X145.243 Y102.675 E14.21839
G1 X145.431 Y103.571 E14.25744
G1 X145.605 Y104.555 E14.30007
G1 X145.751 Y105.48 E14.34001
G1 X145.878 Y106.491 E14.38348
G1 X145.969 Y107.325 E14.41926
G1 X146.051 Y108.369 E14.46393
G1 X146.094 Y109.092 E14.49483
G1 X146.127 Y110.039 E14.53525
G1 X146.142 Y111.186 E14.58418
G1 X146.12 Y112.215 E14.62808
G1 X146.085 Y113.113 E14.66642
G1 X145.989 Y114.459 E14.72398
G1 X145.884 Y115.474 E14.7675
G1 X145.688 Y116.948 E14.83093
G1 X145.529 Y117.88 E14.87126
G1 X145.343 Y118.87 E14.91423
G1 X145.132 Y119.818 E14.95566
G1 X144.914 Y120.729 E14.99562
G1 X144.657 Y121.665 E15.03702
G1 X144.386 Y122.593 E15.07826
G1 X144.099 Y123.469 E15.11758
G1 X143.782 Y124.386 E15.15897
G1 X143.202 Y125.884 E15.22749
G1 X142.682 Y127.084 E15.28327
G1 X142.288 Y127.94 E15.32347
G1 X141.841 Y128.832 E15.36603
G1 X141.442 Y129.596 E15.40279
G1 X140.953 Y130.468 E15.44544
G1 X140.454 Y131.318 E15.48748
G1 X139.969 Y132.093 E15.52648
G1 X139.416 Y132.94 E15.56963
G1 X138.849 Y133.75 E15.61181
G1 X138.317 Y134.481 E15.65037
G1 X137.73 Y135.24 E15.6913
G1 X137.101 Y136.021 E15.73408
G1 X136.499 Y136.722 E15.77349
G1 X135.859 Y137.444 E15.81465
G1 X135.191 Y138.15 E15.85611
G1 X134.515 Y138.839 E15.89728
G1 X133.835 Y139.491 E15.93746
G1 X133.121 Y140.151 E15.97894
G1 X132.39 Y140.786 E16.02024
G1 X131.675 Y141.384 E16.06
G1 X130.9 Y141.995 E16.1021
G1 X130.14 Y142.569 E16.14273
G1 X129.326 Y143.148 E16.18534
G1 X128.581 Y143.656 E16.2238
G1 X127.761 Y144.179 E16.26529
G1 X126.947 Y144.677 E16.30599
G1 X125.949 Y145.246 E16.35499
G1 X125.265 Y145.62 E16.38825
G1 X124.243 Y146.137 E16.4371
G1 X123.51 Y146.491 E16.47183
G1 X122.626 Y146.885 E16.51311
G1 X121.797 Y147.237 E16.55153
G1 X120.865 Y147.6 E16.59419
G1 X119.999 Y147.92 E16.63357
G1 X119.09 Y148.224 E16.67446
G1 X118.131 Y148.526 E16.71735
G1 X117.245 Y148.774 E16.75659
G1 X116.317 Y149.017 E16.79751
G1 X115.324 Y149.244 E16.84096
G1 X114.441 Y149.429 E16.87944
G1 X113.417 Y149.61 E16.9238
G1 X112.541 Y149.748 E16.96163
G1 X111.509 Y149.878 E17.006
G1 X110.675 Y149.969 E17.04178
G1 X109.63 Y150.051 E17.0865
G1 X108.71 Y150.104 E17.12581
G1 X107.63 Y150.135 E17.17189
G1 X106.992 Y150.142 E17.19911
G1 X106.28 Y150.134 E17.22948
G1 X104.827 Y150.082 E17.2915
G1 X103.895 Y150.016 E17.33136
G1 X102.959 Y149.933 E17.37144
G1 X101.92 Y149.808 E17.41608
G1 X101.064 Y149.69 E17.45294
G1 X100.1 Y149.526 E17.49465
G1 X99.11 Y149.34 E17.53762
G1 X98.202 Y149.137 E17.57731
G1 X97.306 Y148.922 E17.61661
G1 X96.317 Y148.654 E17.66032
G1 X95.41 Y148.387 E17.70065
G1 X94.456 Y148.075 E17.74346
G1 X93.639 Y147.791 E17.78036
G1 X92.653 Y147.416 E17.82536
G1 X91.832 Y147.085 E17.86312
G1 X90.939 Y146.693 E17.90472
G1 X90.048 Y146.282 E17.94657
G1 X89.163 Y145.838 E17.98881
G1 X88.354 Y145.417 E18.02771
G1 X87.494 Y144.932 E18.06983
G1 X86.721 Y144.48 E18.10802
G1 X86.047 Y144.058 E18.14194
G1 X85.207 Y143.514 E18.18463
G1 X84.25 Y142.849 E18.23434
G1 X83.539 Y142.332 E18.27184
G1 X82.738 Y141.713 E18.31502
G1 X82.002 Y141.121 E18.35531
G1 X81.277 Y140.499 E18.39606
G1 X80.555 Y139.859 E18.43722
G1 X79.849 Y139.192 E18.47865
G1 X79.164 Y138.521 E18.51955
G1 X78.492 Y137.817 E18.56106
G1 X77.859 Y137.133 E18.60082
G1 X77.214 Y136.39 E18.64279
G1 X76.601 Y135.657 E18.68355
G1 X76.002 Y134.896 E18.72486
G1 X75.431 Y134.141 E18.76524
G1 X74.884 Y133.37 E18.80556
G1 X74.339 Y132.574 E18.84671
G1 X73.822 Y131.762 E18.88777
G1 X73.311 Y130.928 E18.92949
G1 X72.802 Y130.036 E18.9733
G1 X72.384 Y129.272 E19.01045
G1 X71.93 Y128.379 E19.05318
G1 X71.519 Y127.531 E19.09338
G1 X71.107 Y126.608 E19.13649
G1 X70.767 Y125.809 E19.17353
G1 X70.402 Y124.877 E19.21623
G1 X70.074 Y123.985 E19.25677
G1 X69.757 Y123.034 E19.29953
G1 X69.485 Y122.17 E19.33817
G1 X69.214 Y121.206 E19.38088
G1 X68.972 Y120.276 E19.42187
G1 X68.747 Y119.285 E19.46522
G1 X68.572 Y118.451 E19.50157
G1 X68.394 Y117.445 E19.54515
G1 X68.254 Y116.555 E19.58358
G1 X68.127 Y115.549 E19.62683
G1 X68.027 Y114.63 E19.66627
G1 X67.949 Y113.639 E19.70867
G1 X67.896 Y112.747 E19.74679
G1 X67.868 Y111.769 E19.78852
G1 X67.859 Y110.777 E19.83084
G1 X67.878 Y109.821 E19.87162
G1 X67.915 Y108.874 E19.91205
G1 X67.982 Y107.914 E19.9531
G1 X68.069 Y106.944 E19.99464
G1 X68.183 Y105.985 E20.03584
G1 X68.312 Y105.047 E20.07623
G1 X68.473 Y104.102 E20.11712
G1 X68.656 Y103.136 E20.15906
G1 X68.859 Y102.216 E20.19924
G1 X69.091 Y101.247 E20.24174
G1 X69.345 Y100.319 E20.28279
G1 X69.609 Y99.424 E20.32259
G1 X69.9 Y98.531 E20.36265
G1 X70.216 Y97.616 E20.40394
G1 X70.554 Y96.731 E20.44436
G1 X70.929 Y95.803 E20.48705
G1 X71.326 Y94.897 E20.52924
G1 X71.704 Y94.08 E20.56764
G1 X72.164 Y93.157 E20.61163
G1 X72.568 Y92.384 E20.64884
G1 X73.065 Y91.499 E20.69213
G1 X73.528 Y90.71 E20.73116
G1 X73.947 Y90.04 E20.76487
G1 X74.488 Y89.206 E20.80727
G1 X75.143 Y88.261 E20.85632
G1 X75.665 Y87.543 E20.89418
G1 X76.276 Y86.754 E20.93675
G1 X76.898 Y85.979 E20.97914
G1 X77.501 Y85.277 E21.01861
G1 X78.144 Y84.552 E21.05995
G1 X78.833 Y83.824 E21.10271
G1 X79.463 Y83.182 E21.14107
G0 F3000 X79.878 Y83.615
G1 F900 X80.572 Y82.949 E21.1821
G1 X81.271 Y82.302 E21.22273
G1 X82.101 Y81.582 E21.2696
G1 X82.731 Y81.057 E21.30458
G1 X83.478 Y80.472 E21.34506
G1 X84.188 Y79.934 E21.38305
G1 X84.97 Y79.378 E21.42398
G1 X85.77 Y78.832 E21.4653
G1 X86.58 Y78.315 E21.50629
