;FLAVOR:Marlin
;TIME:5634
;Filament used: 3.08934m
;Layer height: 0.2
;MINX:72.406
;MINY:78.813
;MINZ:0.2
;MAXX:141.562
;MAXY:143.185
;MAXZ:54
;TARGET_MACHINE.NAME:Creality Ender-3
;Generated with Cura_SteamEngine 5.10.1
M140 S65
M105
M190 S65
M104 S195
M105
M109 S195
; Ender 3 Custom Start G-code
G92 E0 ; Reset Extruder
G28 ; Home all axes
G1 Z2.0 F3000 ; Move Z Axis up little to prevent scratching of Heat Bed
G1 X0.1 Y20 Z0.3 F5000.0 ; Move to start position
G1 X0.1 Y200.0 Z0.3 F1500.0 E15 ; Draw the first line
G1 X0.4 Y200.0 Z0.3 F5000.0 ; Move to side a little
G1 X0.4 Y20 Z0.3 F1500.0 E30 ; Draw the second line
G92 E0 ; Reset Extruder
G1 Z2.0 F3000 ; Move Z Axis up little to prevent scratching of Heat Bed
G1 X5 Y20 Z0.3 F5000.0 ; Move over to prevent blob squish
M82 ;absolute extrusion mode
G92 E0
G92 E0
G1 F2700 E-8
;LAYER_COUNT:270
;LAYER:0
M107
G1 F300 Z0.4
G0 F3000 X92.616 Y82.211 Z0.4
;TYPE:SKIRT
G1 F300 Z0.2
G1 F2700 E0
G1 F900 X92.864 Y81.945 E0.01551
G1 X93.17 Y81.645 E0.03379
G1 X93.532 Y81.316 E0.05466
G1 X94.267 Y80.719 E0.09505
G1 X94.501 Y80.543 E0.10754
G1 X94.955 Y80.245 E0.1307
G1 X95.515 Y79.912 E0.1585
G1 X96.083 Y79.633 E0.18549
G1 X96.647 Y79.387 E0.21174
G1 X97.245 Y79.177 E0.23877
G1 X97.803 Y79.009 E0.26363
G1 X98.237 Y78.923 E0.2825
G1 X98.958 Y78.824 E0.31355
G1 X99.771 Y78.813 E0.34823
G1 X100.765 Y78.971 E0.39116
G1 X102.582 Y79.477 E0.47162
G1 X105.277 Y80.168 E0.59029
G1 X107.937 Y80.767 E0.7066
G1 X110.691 Y81.308 E0.82632
G1 X113.446 Y81.768 E0.94546
G1 X116.154 Y82.143 E1.06208
G1 X117.84 Y82.329 E1.13443
G1 X122.513 Y82.933 E1.33542
G1 X122.62 Y82.954 E1.34008
G1 X123.591 Y83.069 E1.38178
G1 X124.403 Y83.189 E1.4168
G1 X125.378 Y83.407 E1.45941
G1 X126.146 Y83.661 E1.49392
G1 X126.906 Y84.019 E1.52975
G1 X127.466 Y84.404 E1.55874
G1 X128.052 Y84.908 E1.59171
G1 X128.496 Y85.379 E1.61932
G1 X129.176 Y86.156 E1.66337
G1 X129.924 Y87.034 E1.71257
G1 X131.805 Y89.12 E1.83238
G1 X133.688 Y91.095 E1.94878
G1 X135.263 Y92.667 E2.0437
G1 X135.734 Y93.356 E2.0793
G1 X139.336 Y98.746 E2.35583
G1 X139.756 Y99.408 E2.38928
G1 X139.96 Y99.847 E2.40993
G1 X140.125 Y100.607 E2.4431
G1 X141.403 Y107.033 E2.72258
G1 X141.549 Y107.841 E2.7576
G1 X141.562 Y108.205 E2.77314
G1 X141.407 Y109.076 E2.81087
G1 X139.661 Y117.878 E3.19365
G1 X139.199 Y120.61 E3.31184
G1 X138.815 Y123.334 E3.42918
G1 X138.504 Y126.111 E3.54838
G1 X138.228 Y129.554 E3.69572
G1 X138.125 Y130.354 E3.73012
G1 X138.071 Y130.654 E3.74313
G1 X137.982 Y130.998 E3.75828
G1 X137.782 Y131.607 E3.78563
G1 X137.436 Y132.327 E3.8197
G1 X136.867 Y133.081 E3.85999
G1 X136.531 Y133.375 E3.87904
G1 X136.123 Y133.697 E3.90121
G1 X135.489 Y134.032 E3.9318
G1 X134.691 Y134.332 E3.96816
G1 X131.675 Y135.21 E4.10215
G1 X129.074 Y136.049 E4.21873
G1 X126.465 Y136.974 E4.33681
G1 X123.856 Y137.984 E4.45615
G1 X120.261 Y139.497 E4.62252
G1 X119.344 Y139.86 E4.66459
G1 X118.438 Y140.189 E4.70571
G1 X117.569 Y140.479 E4.74478
G1 X116.75 Y140.723 E4.78124
G1 X115.697 Y140.995 E4.82763
G1 X114.562 Y141.245 E4.8772
G1 X113.803 Y141.372 E4.91003
G1 X113.039 Y141.462 E4.94284
G1 X109.609 Y141.689 E5.08948
G1 X106.876 Y141.956 E5.20661
G1 X104.141 Y142.299 E5.32419
G1 X101.372 Y142.727 E5.44371
G1 X100.281 Y142.928 E5.49103
G1 X99.312 Y143.092 E5.53295
G1 X98.349 Y143.184 E5.57421
G1 X97.993 Y143.185 E5.5894
G1 X97.256 Y143.16 E5.62085
G1 X95.803 Y143.065 E5.68297
G1 X95.171 Y143.008 E5.71003
G1 X94.206 Y142.894 E5.75148
G1 X93.686 Y142.815 E5.77392
G1 X93.041 Y142.688 E5.80196
G1 X92.658 Y142.592 E5.8188
G1 X91.881 Y142.367 E5.85331
G1 X91.248 Y142.14 E5.88199
G1 X90.603 Y141.867 E5.91187
G1 X89.824 Y141.479 E5.94899
G1 X89.126 Y141.078 E5.98333
G1 X88.704 Y140.812 E6.00461
G1 X87.934 Y140.281 E6.04451
G1 X86.779 Y139.382 E6.10694
G1 X85.945 Y138.681 E6.15341
G1 X85.341 Y138.139 E6.18803
G1 X84.723 Y137.535 E6.22489
G1 X84.258 Y137.05 E6.25355
G1 X83.786 Y136.527 E6.2836
G1 X83.087 Y135.681 E6.33041
G1 X82.808 Y135.319 E6.34991
G1 X82.325 Y134.653 E6.385
G1 X81.498 Y133.387 E6.44951
G1 X79.615 Y130.257 E6.60532
G1 X78.112 Y127.9 E6.72456
G1 X76.56 Y125.611 E6.84253
G1 X74.927 Y123.344 E6.96171
G1 X73.798 Y121.841 E7.04189
G1 X73.384 Y121.132 E7.07691
G1 X73.036 Y120.272 E7.11649
G1 X72.893 Y119.805 E7.13732
G1 X72.709 Y119.066 E7.1698
G1 X72.619 Y118.648 E7.18804
G1 X72.52 Y118.045 E7.21411
G1 X72.466 Y117.603 E7.2331
G1 X72.412 Y116.841 E7.26569
G1 X72.406 Y116.256 E7.29064
G1 X72.424 Y115.848 E7.30806
G1 X72.535 Y114.955 E7.34645
G1 X73.118 Y111.866 E7.48054
G1 X73.558 Y109.161 E7.59744
G1 X73.927 Y106.402 E7.71618
G1 X74.174 Y104.279 E7.80735
G1 X74.232 Y103.955 E7.82139
G1 X74.356 Y103.459 E7.8432
G1 X74.456 Y103.152 E7.85697
G1 X74.668 Y102.596 E7.88235
G1 X74.955 Y102.02 E7.9098
G1 X75.255 Y101.478 E7.93623
G1 X75.586 Y100.94 E7.96317
G1 X76.022 Y100.291 E7.99652
G1 X76.249 Y99.984 E8.01281
G1 X76.679 Y99.446 E8.04219
G1 X77.319 Y98.744 E8.08271
G1 X77.83 Y98.252 E8.11297
G1 X78.903 Y97.284 E8.17461
G1 X80.939 Y95.395 E8.29308
G1 X82.933 Y93.437 E8.41229
G1 X84.822 Y91.473 E8.52853
G1 X86.718 Y89.388 E8.64874
G1 X88.51 Y87.302 E8.76604
G1 X90.923 Y84.294 E8.93054
G1 X91.677 Y83.315 E8.98325
G1 X91.959 Y82.969 E9.00229
G1 X92.616 Y82.211 E9.04507
G0 F3000 X93.055 Y82.62
G1 F900 X93.285 Y82.373 E9.05947
G1 X93.574 Y82.089 E9.07675
G1 X93.936 Y81.76 E9.09762
G1 X94.628 Y81.199 E9.13562
G1 X94.862 Y81.023 E9.14811
G1 X95.263 Y80.76 E9.16857
G1 X95.78 Y80.451 E9.19426
G1 X96.348 Y80.172 E9.22125
G1 X96.846 Y79.953 E9.24446
G1 X97.421 Y79.751 E9.27045
G1 X97.92 Y79.598 E9.29272
G1 X98.354 Y79.512 E9.31159
G1 X98.966 Y79.424 E9.33796
G1 X99.728 Y79.414 E9.37047
G1 X100.604 Y79.549 E9.40828
G1 X102.421 Y80.055 E9.48873
G1 X105.133 Y80.75 E9.60816
G1 X107.821 Y81.356 E9.72569
G1 X110.58 Y81.898 E9.84563
G1 X113.347 Y82.36 E9.9653
G1 X116.08 Y82.738 E10.08298
G1 X117.763 Y82.924 E10.15521
G1 X122.436 Y83.528 E10.3562
G1 X122.523 Y83.547 E10.36
G1 X123.505 Y83.663 E10.40218
G1 X124.274 Y83.775 E10.43533
G1 X125.193 Y83.978 E10.47547
G1 X125.89 Y84.204 E10.50673
G1 X126.605 Y84.541 E10.54045
G1 X127.126 Y84.899 E10.56741
G1 X127.615 Y85.32 E10.59494
G1 X128.059 Y85.791 E10.62255
G1 X128.719 Y86.545 E10.66529
G1 X129.478 Y87.436 E10.71522
G1 X131.359 Y89.522 E10.83503
G1 X133.264 Y91.52 E10.95279
G1 X134.801 Y93.054 E11.04542
G1 X135.235 Y93.689 E11.07823
G1 X138.832 Y99.071 E11.35435
G1 X139.212 Y99.661 E11.38429
G1 X139.388 Y100.04 E11.40211
G1 X139.537 Y100.724 E11.43198
G1 X140.813 Y107.14 E11.71102
G1 X140.959 Y107.948 E11.74604
G1 X140.96 Y108.16 E11.75508
G1 X140.818 Y108.959 E11.7897
G1 X139.072 Y117.761 E12.17248
G1 X138.607 Y120.51 E12.2914
G1 X138.221 Y123.25 E12.40943
G1 X137.908 Y126.044 E12.52936
G1 X137.633 Y129.478 E12.67631
G1 X137.534 Y130.251 E12.70955
G1 X137.49 Y130.504 E12.72051
G1 X137.401 Y130.848 E12.73567
G1 X137.241 Y131.348 E12.75806
G1 X136.923 Y132.011 E12.78942
G1 X136.424 Y132.671 E12.82472
G1 X136.159 Y132.904 E12.83977
G1 X135.795 Y133.192 E12.85957
G1 X135.209 Y133.501 E12.88783
G1 X134.523 Y133.756 E12.91905
G1 X131.502 Y134.635 E13.05325
G1 X128.874 Y135.483 E13.17105
G1 X126.248 Y136.414 E13.28989
G1 X123.639 Y137.424 E13.40923
G1 X120.028 Y138.944 E13.57635
G1 X119.139 Y139.296 E13.61714
G1 X118.248 Y139.62 E13.65758
G1 X117.398 Y139.904 E13.69581
G1 X116.6 Y140.142 E13.73133
G1 X115.568 Y140.409 E13.7768
G1 X114.462 Y140.653 E13.82511
G1 X113.732 Y140.776 E13.85669
G1 X112.999 Y140.863 E13.88818
G1 X109.569 Y141.09 E14.03481
G1 X106.813 Y141.359 E14.15292
G1 X104.049 Y141.706 E14.27175
G1 X101.275 Y142.135 E14.39149
G1 X100.18 Y142.337 E14.43898
G1 X99.253 Y142.495 E14.4791
G1 X98.347 Y142.584 E14.51793
G1 X98.013 Y142.585 E14.53218
G1 X97.295 Y142.561 E14.56282
G1 X95.856 Y142.467 E14.62433
G1 X95.241 Y142.412 E14.65067
G1 X94.296 Y142.301 E14.69126
G1 X93.802 Y142.226 E14.71257
G1 X93.157 Y142.099 E14.74061
G1 X92.824 Y142.016 E14.75525
G1 X92.083 Y141.802 E14.78815
G1 X91.482 Y141.587 E14.81538
G1 X90.837 Y141.314 E14.84526
G1 X90.123 Y140.959 E14.87927
G1 X89.445 Y140.57 E14.91261
G1 X89.044 Y140.318 E14.93281
G1 X88.302 Y139.807 E14.97124
G1 X87.165 Y138.923 E15.03268
G1 X86.345 Y138.234 E15.07836
G1 X85.76 Y137.71 E15.11187
G1 X85.156 Y137.12 E15.14788
G1 X84.703 Y136.648 E15.17579
G1 X84.248 Y136.144 E15.20475
G1 X83.562 Y135.315 E15.25065
G1 X83.294 Y134.967 E15.26939
G1 X82.811 Y134.301 E15.30448
G1 X82.012 Y133.078 E15.3668
G1 X80.121 Y129.934 E15.52329
G1 X78.618 Y127.577 E15.64254
G1 X77.057 Y125.274 E15.76121
G1 X75.414 Y122.993 E15.88113
G1 X74.314 Y121.534 E15.95907
G1 X73.94 Y120.905 E15.99028
G1 X73.61 Y120.096 E16.02755
G1 X73.467 Y119.629 E16.04839
G1 X73.295 Y118.939 E16.07872
G1 X73.211 Y118.551 E16.09565
G1 X73.116 Y117.972 E16.12068
G1 X73.062 Y117.53 E16.13968
G1 X73.012 Y116.835 E16.1694
G1 X73.006 Y116.279 E16.19312
G1 X73.02 Y115.921 E16.2084
G1 X73.125 Y115.066 E16.24514
G1 X73.708 Y111.977 E16.37923
G1 X74.153 Y109.241 E16.49748
G1 X74.522 Y106.482 E16.61621
G1 X74.765 Y104.385 E16.70626
G1 X74.823 Y104.061 E16.7203
G1 X74.927 Y103.644 E16.73863
G1 X75.017 Y103.366 E16.7511
G1 X75.229 Y102.81 E16.77648
G1 X75.48 Y102.311 E16.80031
G1 X75.78 Y101.769 E16.82673
G1 X76.084 Y101.274 E16.85151
G1 X76.504 Y100.648 E16.88367
G1 X76.718 Y100.359 E16.89901
G1 X77.148 Y99.821 E16.92838
G1 X77.762 Y99.149 E16.96721
G1 X78.232 Y98.698 E16.995
G1 X79.305 Y97.73 E17.05664
G1 X81.347 Y95.835 E17.17547
G1 X83.353 Y93.865 E17.2954
G1 X85.266 Y91.877 E17.41309
G1 X87.162 Y89.792 E17.5333
G1 X88.965 Y87.693 E17.65133
G1 X91.391 Y84.669 E17.8167
G1 X92.143 Y83.693 E17.86926
G1 X92.412 Y83.362 E17.88745
G1 X93.055 Y82.62 E17.92934
G0 F3000 X93.494 Y83.029
G1 F900 X93.706 Y82.801 E17.94262
G1 X93.995 Y82.517 E17.9599
G1 X94.314 Y82.226 E17.97832
G1 X94.99 Y81.677 E18.01547
G1 X95.192 Y81.524 E18.02628
G1 X95.572 Y81.274 E18.04568
G1 X96.045 Y80.99 E18.06921
G1 X96.613 Y80.711 E18.09621
G1 X97.045 Y80.519 E18.11637
G1 X97.6 Y80.324 E18.14146
G1 X98.037 Y80.187 E18.161
G1 X98.471 Y80.101 E18.17987
G1 X98.974 Y80.024 E18.20158
G1 X99.689 Y80.015 E18.23208
G1 X100.443 Y80.127 E18.26459
G1 X102.26 Y80.633 E18.34505
G1 X104.989 Y81.332 E18.46522
G1 X107.705 Y81.945 E18.58399
G1 X110.469 Y82.488 E18.70414
G1 X113.248 Y82.952 E18.82432
G1 X116.006 Y83.333 E18.94309
G1 X117.686 Y83.519 E19.01519
G1 X122.359 Y84.123 E19.21618
G1 X122.405 Y84.137 E19.21823
G1 X123.42 Y84.257 E19.26182
G1 X124.146 Y84.361 E19.29311
G1 X125.012 Y84.55 E19.33092
G1 X125.634 Y84.747 E19.35875
G1 X126.304 Y85.063 E19.39035
G1 X126.786 Y85.394 E19.41529
G1 X127.178 Y85.732 E19.43737
G1 X127.622 Y86.203 E19.46498
G1 X128.262 Y86.934 E19.50642
G1 X129.032 Y87.838 E19.55708
G1 X130.913 Y89.924 E19.67689
G1 X132.84 Y91.945 E19.79601
G1 X134.339 Y93.441 E19.88634
G1 X134.736 Y94.022 E19.91636
G1 X138.328 Y99.396 E20.19208
G1 X138.708 Y99.986 E20.22202
G1 X138.816 Y100.233 E20.23352
G1 X138.949 Y100.841 E20.26007
G1 X140.223 Y107.247 E20.53867
G1 X140.369 Y108.055 E20.5737
G1 X140.229 Y108.842 E20.6078
G1 X138.483 Y117.644 E20.99057
G1 X138.015 Y120.41 E21.11023
G1 X137.627 Y123.166 E21.22895
G1 X137.312 Y125.977 E21.34961
G1 X137.038 Y129.402 E21.49617
G1 X136.943 Y130.148 E21.52825
G1 X136.899 Y130.401 E21.53921
G1 X136.828 Y130.672 E21.55116
G1 X136.7 Y131.088 E21.56972
G1 X136.408 Y131.696 E21.59849
G1 X135.979 Y132.264 E21.62886
G1 X135.787 Y132.433 E21.63977
G1 X135.463 Y132.689 E21.65738
G1 X134.998 Y132.939 E21.6799
G1 X134.355 Y133.18 E21.70919
G1 X131.329 Y134.06 E21.84362
G1 X128.674 Y134.917 E21.96262
G1 X126.031 Y135.854 E22.08224
G1 X123.422 Y136.864 E22.20158
G1 X119.795 Y138.391 E22.36944
G1 X118.933 Y138.732 E22.40898
G1 X118.058 Y139.051 E22.44871
G1 X117.226 Y139.329 E22.48613
G1 X116.449 Y139.561 E22.52072
G1 X115.439 Y139.823 E22.56523
G1 X114.362 Y140.061 E22.61228
G1 X113.661 Y140.18 E22.64261
G1 X112.928 Y140.267 E22.67409
G1 X112.33 Y140.3 E22.69964
G1 X109.528 Y140.491 E22.81944
G1 X106.75 Y140.762 E22.9385
G1 X103.957 Y141.113 E23.05858
G1 X101.178 Y141.543 E23.17853
G1 X100.079 Y141.746 E23.2262
G1 X99.192 Y141.898 E23.26459
G1 X98.345 Y141.984 E23.3009
G1 X98.033 Y141.985 E23.31421
G1 X97.334 Y141.962 E23.34405
G1 X95.909 Y141.869 E23.40496
G1 X95.311 Y141.816 E23.43057
G1 X94.386 Y141.708 E23.47029
G1 X93.918 Y141.637 E23.49049
G1 X93.273 Y141.51 E23.51853
G1 X92.989 Y141.439 E23.53101
G1 X92.285 Y141.237 E23.56226
G1 X91.716 Y141.034 E23.58803
G1 X91.071 Y140.761 E23.6179
G1 X90.422 Y140.439 E23.64881
G1 X89.763 Y140.061 E23.68121
G1 X89.384 Y139.824 E23.70028
G1 X88.67 Y139.333 E23.73724
G1 X87.551 Y138.464 E23.79768
G1 X86.745 Y137.787 E23.84258
G1 X86.179 Y137.28 E23.87499
G1 X85.589 Y136.705 E23.91013
G1 X85.148 Y136.245 E23.93731
G1 X84.71 Y135.761 E23.96516
G1 X84.037 Y134.949 E24.01015
G1 X83.779 Y134.614 E24.02818
G1 X83.313 Y133.973 E24.06199
G1 X82.526 Y132.769 E24.12334
G1 X80.635 Y129.625 E24.27984
G1 X79.115 Y127.24 E24.40048
G1 X77.554 Y124.937 E24.51916
G1 X75.901 Y122.642 E24.63981
G1 X74.793 Y121.173 E24.71829
G1 X74.496 Y120.678 E24.74292
G1 X74.166 Y119.869 E24.78019
G1 X74.049 Y119.483 E24.79739
G1 X73.881 Y118.811 E24.82694
G1 X73.803 Y118.453 E24.84257
G1 X73.711 Y117.898 E24.86656
G1 X73.66 Y117.486 E24.88427
G1 X73.612 Y116.828 E24.91242
G1 X73.606 Y116.302 E24.93485
G1 X73.62 Y115.944 E24.95014
G1 X73.715 Y115.178 E24.98306
G1 X74.027 Y113.531 E25.05457
G1 X74.028 Y113.492 E25.05623
G1 X74.297 Y112.09 E25.11712
G1 X74.748 Y109.321 E25.2368
G1 X75.117 Y106.562 E25.35553
G1 X75.356 Y104.491 E25.44446
G1 X75.414 Y104.167 E25.4585
G1 X75.498 Y103.828 E25.4734
G1 X75.578 Y103.58 E25.48451
G1 X75.79 Y103.024 E25.50989
G1 X76.005 Y102.601 E25.53014
G1 X76.292 Y102.082 E25.55543
G1 X76.582 Y101.608 E25.57914
G1 X76.986 Y101.005 E25.6101
G1 X77.187 Y100.734 E25.62449
G1 X77.617 Y100.196 E25.65387
G1 X78.178 Y99.582 E25.68934
G1 X78.634 Y99.144 E25.71632
G1 X79.707 Y98.176 E25.77796
G1 X81.755 Y96.275 E25.89715
G1 X83.773 Y94.293 E26.01781
G1 X85.71 Y92.281 E26.13694
G1 X87.606 Y90.196 E26.25715
G1 X89.42 Y88.084 E26.37591
G1 X91.859 Y85.044 E26.54216
G1 X92.609 Y84.071 E26.59456
G1 X92.865 Y83.755 E26.61191
G1 X93.494 Y83.029 E26.65289
G1 F2700 E18.65289
G1 F300 Z0.4
;MESH:52. Ice-Cream-Cone-Melted.stl
G0 F3000 X139.214 Y108.06 Z0.4
;TYPE:WALL-OUTER
G1 F300 Z0.2
G1 F2700 E26.65289
G1 F900 X137.721 Y100.554 E26.99652
G1 X133.471 Y94.193 E27.34002
G1 X128.729 Y91.018 E27.59626
G1 X128.645 Y90.886 E27.60328
G1 X128.56 Y90.486 E27.62165
G1 X128.332 Y89.716 E27.6577
G1 X127.991 Y88.886 E27.69799
G1 X127.617 Y88.15 E27.73506
G1 X127.236 Y87.513 E27.76839
G1 X126.873 Y87.004 E27.79646
G1 X126.493 Y86.579 E27.82206
G1 X126.111 Y86.249 E27.84473
G1 X125.716 Y85.991 E27.86591
G1 X125.278 Y85.783 E27.88768
G1 X124.819 Y85.625 E27.90948
G1 X124.322 Y85.502 E27.93247
G1 X123.751 Y85.405 E27.95847
G1 X123.136 Y85.326 E27.98632
G1 X120.912 Y85.082 E28.08678
G1 X120.033 Y84.965 E28.12659
G1 X118.144 Y84.667 E28.21246
G1 X117.362 Y84.604 E28.24769
G1 X116.657 Y84.597 E28.27934
G1 X116.016 Y84.639 E28.30819
G1 X115.469 Y84.72 E28.33301
G1 X114.946 Y84.828 E28.35699
G1 X114.455 Y84.961 E28.37983
G1 X113.49 Y85.25 E28.42507
G1 X112.909 Y85.405 E28.45207
G1 X112.324 Y85.525 E28.47888
G1 X111.671 Y85.62 E28.50851
G1 X110.956 Y85.673 E28.5407
G1 X110.14 Y85.672 E28.57734
G1 X109.243 Y85.614 E28.6177
G1 X108.184 Y85.484 E28.66561
G1 X107.12 Y85.266 E28.71438
G1 X106.2 Y84.973 E28.75773
G1 X105.374 Y84.607 E28.7983
G1 X104.608 Y84.178 E28.83772
G1 X103.948 Y83.735 E28.87341
G1 X103.345 Y83.276 E28.90743
G1 X102.272 Y82.39 E28.96992
G1 X101.755 Y81.988 E28.99932
G1 X101.265 Y81.658 E29.02585
G1 X100.758 Y81.388 E29.05164
G1 X100.232 Y81.2 E29.07672
G1 X99.653 Y81.105 E29.10307
G1 X99.014 Y81.112 E29.13176
G1 X98.299 Y81.244 E29.16441
G1 X97.448 Y81.528 E29.20469
G1 X96.615 Y81.917 E29.24597
G1 X95.837 Y82.399 E29.28706
G1 X95.136 Y82.948 E29.32704
G1 X94.467 Y83.579 E29.36833
G1 X93.858 Y84.254 E29.40916
G1 X93.265 Y85.012 E29.45237
G1 X92.708 Y85.798 E29.49562
G1 X92.149 Y86.643 E29.54112
