;FLAVOR:Marlin
;TIME:1392
;Filament used: 1.11659m
;Layer height: 0.2
;MINX:72.924
;MINY:58.96
;MINZ:0.28
;MAXX:147.083
;MAXY:161.002
;MAXZ:5.8
;TARGET_MACHINE.NAME:Creality Ender-3
;Generated with Cura_SteamEngine 5.11.0
; Ender 3 V2 Optimized Start G-code - v5.0
; Date: 2025-11-09
; Improvements: 
;   - v1.0: 2 parallel priming lines (same Y direction)
;   - v2.0: Enhanced blob clearance - move away from prime line before skirt
;   - v3.0: Nozzle wipe sequence to clean blob before print start
;   - v4.0: Parallel heating (bed + nozzle at same time)
;   - v5.0: Universal material profiles (PLA/PETG/TPU auto-detect)
; Status: Active optimization - Multi-material with Cura variable injection
; Material: AUTO (uses Cura material settings)

; Universal parallel heating - uses Cura-injected material temps
; These 0 are replaced by Cura based on material profile selected
M104 S220 ; Preheat nozzle (non-blocking)
M190 S70.0 ; Heat bed and wait
M109 S220 ; Wait for nozzle to reach temp

; Home and probe
G92 E0 ; Reset Extruder
G28 ; Home all axes
G29 ; BLTouch auto-level

G1 Z2.0 F3000 ; Move Z Axis up to prevent scratching
G1 X0.1 Y20 Z0.3 F5000.0 ; Move to start position

; Prime line 1: Y direction, extrude 15mm
G1 X0.1 Y200.0 Z0.3 F1500.0 E15
; Move to side (0.3mm spacing for clean nozzle)
G1 X0.4 Y200.0 Z0.3 F5000.0

; Prime line 2: Y direction (same direction as line 1), extrude 15mm
G1 X0.4 Y20 Z0.3 F1500.0 E15
G92 E0 ; Reset Extruder

; Wipe nozzle clean across bed to remove blob
; Move to Y5 (away from print start area)
G1 X0.4 Y5 Z0.3 F5000.0
; Retract slightly to prevent oozing during move
G1 E-0.5 F2400
; Move up to clear bed before traveling
G1 Z5.0 F3000
; Travel to safe position away from prime lines
G1 X30 Y20 Z5.0 F5000.0
; Move back to first layer height
G1 Z0.3 F3000

M82 ;absolute extrusion mode
G92 E0
G92 E0
G1 F3000 E-8
;LAYER_COUNT:24
;LAYER:0
M107
G0 F6000 X113.626 Y160.275 Z0.28
;TYPE:SKIRT
G1 F3000 E0
G1 F900 X113.612 Y160.533 E0.01203
G1 X113.547 Y160.699 E0.02033
G1 X113.417 Y160.82 E0.0286
G1 X113.22 Y160.881 E0.0382
G1 X111.919 Y160.647 E0.09976
G1 X110.794 Y160.353 E0.1539
G1 X109.751 Y159.998 E0.2052
G1 X108.683 Y159.544 E0.25924
G1 X107.68 Y159.031 E0.3117
G1 X106.991 Y158.624 E0.34896
G1 X106.049 Y157.996 E0.40168
G1 X105.179 Y157.319 E0.45301
G1 X104.143 Y156.372 E0.51837
G1 X102.047 Y154.243 E0.65748
G1 X100.298 Y152.57 E0.77018
G1 X98.558 Y150.997 E0.87941
G1 X96.714 Y149.422 E0.99233
G1 X94.863 Y147.93 E1.10303
G1 X92.992 Y146.508 E1.21246
G1 X91.019 Y145.095 E1.32546
G1 X89.055 Y143.769 E1.4358
G1 X87.02 Y142.478 E1.54802
G1 X84.983 Y141.265 E1.65842
G1 X82.877 Y140.091 E1.77069
G1 X81.308 Y139.233 E1.85396
G1 X80.337 Y138.608 E1.90773
G1 X79.722 Y138.158 E1.94321
G1 X78.993 Y137.575 E1.98668
G1 X78.167 Y136.845 E2.03801
G1 X77.374 Y136.038 E2.09069
G1 X76.82 Y135.397 E2.13014
G1 X76.244 Y134.657 E2.17381
G1 X75.591 Y133.702 E2.22768
G1 X75.024 Y132.727 E2.2802
G1 X74.629 Y131.936 E2.32137
G1 X74.407 Y131.457 E2.34595
G1 X73.98 Y130.441 E2.39727
G1 X73.618 Y129.369 E2.44995
G1 X73.326 Y128.238 E2.50434
G1 X73.064 Y126.651 E2.57924
G1 X73.011 Y126.173 E2.60164
G1 X72.928 Y125.074 E2.65296
G1 X72.924 Y123.914 E2.70697
G1 X73.005 Y122.779 E2.75996
G1 X73.265 Y121.16 E2.83631
G1 X73.376 Y120.644 E2.86089
G1 X73.648 Y119.575 E2.91225
G1 X74.005 Y118.497 E2.96513
G1 X74.231 Y117.908 E2.9945
G1 X94.071 Y69.793 E5.41793
G1 X94.309 Y69.241 E5.44592
G1 X94.795 Y68.218 E5.49866
G1 X95.343 Y67.249 E5.5505
G1 X95.557 Y66.902 E5.56948
G1 X96.168 Y65.984 E5.62083
G1 X96.882 Y65.066 E5.67498
G1 X97.795 Y64.068 E5.73797
G1 X98.47 Y63.422 E5.78147
G1 X98.71 Y63.206 E5.79651
G1 X99.579 Y62.481 E5.8492
G1 X100.498 Y61.821 E5.90189
G1 X101.461 Y61.228 E5.95455
G1 X102.477 Y60.68 E6.0083
G1 X103.483 Y60.229 E6.05964
G1 X104.435 Y59.877 E6.1069
G1 X104.791 Y59.758 E6.12438
G1 X105.876 Y59.441 E6.17701
G1 X106.954 Y59.208 E6.22837
G1 X108.104 Y59.045 E6.28245
G1 X109.24 Y58.969 E6.33547
G1 X110.316 Y58.96 E6.38557
G1 X111.447 Y59.002 E6.43827
G1 X112.543 Y59.122 E6.48961
G1 X114.094 Y59.428 E6.56323
G1 X114.989 Y59.676 E6.60647
G1 X115.49 Y59.835 E6.63095
G1 X116.522 Y60.221 E6.68225
G1 X117.574 Y60.705 E6.73617
G1 X118.395 Y61.15 E6.77966
G1 X119.199 Y61.631 E6.82328
G1 X120.141 Y62.258 E6.87597
G1 X121.035 Y62.951 E6.92864
G1 X121.876 Y63.707 E6.9813
G1 X122.662 Y64.524 E7.03409
G1 X123.459 Y65.491 E7.09244
G1 X124.033 Y66.267 E7.13739
G1 X124.664 Y67.231 E7.19104
G1 X125.147 Y68.089 E7.23688
G1 X125.581 Y68.987 E7.28333
G1 X125.877 Y69.668 E7.3179
G1 X145.591 Y117.488 E9.7264
G1 X145.922 Y118.323 E9.76822
G1 X146.281 Y119.325 E9.81778
G1 X146.592 Y120.441 E9.87173
G1 X146.791 Y121.406 E9.91761
G1 X147.011 Y122.983 E9.99175
G1 X147.083 Y124.116 E10.04462
G1 X147.057 Y125.532 E10.11056
G1 X146.972 Y126.485 E10.15511
G1 X146.948 Y126.559 E10.15874
G1 X146.852 Y127.354 E10.19602
G1 X146.729 Y128.086 E10.23059
G1 X146.359 Y130.506 E10.34458
G1 X146.06 Y132.923 E10.45798
G1 X145.839 Y135.233 E10.56604
G1 X145.626 Y138.676 E10.72667
G1 X145.543 Y140.424 E10.80815
G1 X145.495 Y140.987 E10.83446
G1 X145.372 Y141.933 E10.87888
G1 X145.224 Y142.8 E10.91984
G1 X145.037 Y143.647 E10.96023
G1 X144.715 Y144.76 E11.01418
G1 X144.292 Y145.894 E11.07054
G1 X143.849 Y146.887 E11.12117
G1 X143.152 Y148.185 E11.18977
G1 X142.892 Y148.617 E11.21325
G1 X142.275 Y149.566 E11.26596
G1 X141.586 Y150.47 E11.31888
G1 X140.542 Y151.621 E11.39124
G1 X139.701 Y152.402 E11.44468
G1 X138.885 Y153.073 E11.49388
G1 X138.446 Y153.402 E11.51942
G1 X137.679 Y153.93 E11.56278
G1 X137.326 Y154.153 E11.58222
G1 X136.752 Y154.493 E11.61329
G1 X135.757 Y155.02 E11.66572
G1 X135.097 Y155.321 E11.69949
G1 X134.565 Y155.536 E11.72621
G1 X133.586 Y155.88 E11.77453
G1 X132.855 Y156.094 E11.81
G1 X131.825 Y156.37 E11.85965
G1 X129.405 Y157.055 E11.97676
G1 X127.123 Y157.771 E12.08813
G1 X124.91 Y158.536 E12.19716
G1 X120.615 Y160.179 E12.41129
G1 X119.561 Y160.501 E12.46261
G1 X118.416 Y160.76 E12.51727
G1 X117.274 Y160.934 E12.57106
G1 X116.524 Y161.002 E12.60613
G1 X116.348 Y160.979 E12.61439
G1 X116.199 Y160.881 E12.62269
G1 X116.094 Y160.706 E12.6322
G1 X116.072 Y160.369 E12.64792
G0 F6000 X116.47 Y160.347
G1 F900 X116.488 Y160.604 E12.65992
G1 X117.238 Y160.536 E12.69499
G1 X118.328 Y160.37 E12.74633
G1 X119.444 Y160.118 E12.7996
G1 X120.498 Y159.796 E12.85092
G1 X124.767 Y158.162 E13.06376
G1 X127.003 Y157.389 E13.17393
G1 X129.285 Y156.673 E13.28529
G1 X131.716 Y155.985 E13.40294
G1 X132.752 Y155.708 E13.45287
G1 X133.473 Y155.496 E13.48787
G1 X134.432 Y155.159 E13.5352
G1 X134.947 Y154.95 E13.56108
G1 X135.591 Y154.656 E13.59404
G1 X136.565 Y154.14 E13.64537
G1 X137.122 Y153.809 E13.67554
G1 X137.465 Y153.592 E13.69444
G1 X138.219 Y153.073 E13.73706
G1 X138.645 Y152.753 E13.76187
G1 X139.447 Y152.093 E13.81023
G1 X140.27 Y151.328 E13.86256
G1 X141.289 Y150.202 E13.93327
G1 X141.956 Y149.324 E13.98461
G1 X142.557 Y148.399 E14.03598
G1 X142.809 Y147.979 E14.05878
G1 X143.496 Y146.698 E14.12647
G1 X143.917 Y145.754 E14.1746
G1 X144.34 Y144.62 E14.23096
G1 X144.646 Y143.561 E14.28229
G1 X144.833 Y142.714 E14.32268
G1 X144.978 Y141.866 E14.36274
G1 X145.098 Y140.936 E14.4064
G1 X145.144 Y140.39 E14.43191
G1 X145.226 Y138.657 E14.5127
G1 X145.441 Y135.195 E14.67422
G1 X145.663 Y132.874 E14.78278
G1 X145.962 Y130.457 E14.89619
G1 X146.335 Y128.02 E15.01099
G1 X146.458 Y127.288 E15.04555
G1 X146.559 Y126.447 E15.08499
G1 X146.574 Y126.449 E15.0857
G1 X146.657 Y125.525 E15.12889
G1 X146.683 Y124.109 E15.19484
G1 X146.612 Y123.009 E15.24617
G1 X146.399 Y121.487 E15.31773
G1 X146.2 Y120.522 E15.36361
G1 X145.904 Y119.46 E15.41494
G1 X145.545 Y118.458 E15.46451
G1 X145.219 Y117.635 E15.50572
G1 X125.507 Y69.82 E17.91397
G1 X125.214 Y69.147 E17.94815
G1 X124.787 Y68.263 E17.99386
G1 X124.316 Y67.427 E18.03854
G1 X123.711 Y66.505 E18.08989
G1 X123.137 Y65.729 E18.13484
G1 X122.353 Y64.779 E18.19219
G1 X121.588 Y63.985 E18.24353
G1 X120.768 Y63.249 E18.29484
G1 X119.896 Y62.574 E18.34619
G1 X118.978 Y61.964 E18.39751
G1 X118.19 Y61.493 E18.44026
G1 X117.384 Y61.057 E18.48293
G1 X116.382 Y60.596 E18.53429
G1 X115.35 Y60.21 E18.58559
G1 X114.868 Y60.057 E18.60914
G1 X113.988 Y59.814 E18.65165
G1 X112.499 Y59.52 E18.72232
G1 X111.403 Y59.4 E18.77366
G1 X110.301 Y59.36 E18.82501
G1 X109.243 Y59.369 E18.87428
G1 X108.131 Y59.444 E18.92617
G1 X107.039 Y59.599 E18.97753
G1 X105.961 Y59.832 E19.02889
G1 X104.903 Y60.142 E19.08022
G1 X104.561 Y60.256 E19.09701
G1 X103.647 Y60.594 E19.14238
G1 X102.641 Y61.045 E19.19372
G1 X101.671 Y61.569 E19.24506
G1 X100.708 Y62.162 E19.29772
G1 X99.813 Y62.806 E19.34906
G1 X98.967 Y63.513 E19.4004
G1 X98.738 Y63.719 E19.41474
G1 X98.09 Y64.338 E19.45647
G1 X97.177 Y65.336 E19.51945
G1 X96.501 Y66.206 E19.57075
G1 X95.89 Y67.124 E19.6221
G1 X95.684 Y67.459 E19.64042
G1 X95.143 Y68.415 E19.69156
G1 X94.67 Y69.412 E19.74295
G1 X94.438 Y69.951 E19.77027
G1 X74.601 Y118.06 E22.19339
G1 X74.379 Y118.64 E22.22231
G1 X74.036 Y119.674 E22.27304
G1 X73.764 Y120.743 E22.3244
G1 X73.656 Y121.244 E22.34827
G1 X73.4 Y122.842 E22.42362
G1 X73.323 Y123.942 E22.47497
G1 X73.327 Y125.044 E22.52628
G1 X73.41 Y126.143 E22.5776
G1 X73.462 Y126.606 E22.5993
G1 X73.721 Y128.173 E22.67326
G1 X73.997 Y129.241 E22.72462
G1 X74.349 Y130.286 E22.77597
G1 X74.776 Y131.302 E22.82728
G1 X74.992 Y131.768 E22.8512
G1 X75.382 Y132.548 E22.89181
G1 X75.937 Y133.501 E22.94316
G1 X76.56 Y134.411 E22.99451
G1 X77.136 Y135.151 E23.03818
G1 X77.66 Y135.758 E23.07552
G1 X78.432 Y136.545 E23.12685
G1 X79.258 Y137.275 E23.17818
G1 X79.972 Y137.845 E23.22072
G1 X80.573 Y138.285 E23.25541
G1 X81.5 Y138.882 E23.30675
G1 X83.069 Y139.74 E23.39002
G1 X85.188 Y140.921 E23.50298
G1 X87.225 Y142.134 E23.61337
G1 X89.279 Y143.437 E23.72664
G1 X91.243 Y144.763 E23.83698
G1 X93.225 Y146.183 E23.95051
G1 X95.114 Y147.619 E24.061
G1 X96.974 Y149.118 E24.17224
G1 X98.826 Y150.7 E24.28565
G1 X100.575 Y152.281 E24.39543
G1 X102.332 Y153.962 E24.50866
G1 X104.428 Y156.091 E24.64778
G1 X105.425 Y157.003 E24.7107
G1 X106.295 Y157.68 E24.76203
G1 X107.213 Y158.291 E24.81337
G1 X107.883 Y158.686 E24.84959
G1 X108.865 Y159.188 E24.90095
G1 X109.88 Y159.619 E24.95229
G1 X110.923 Y159.974 E25.00359
G1 X111.99 Y160.253 E25.05495
G1 X113.216 Y160.474 E25.11296
G1 X113.253 Y160.227 E25.12459
G1 F3000 E17.12459
;MESH:CE3E3V2_01-chip_clip--print_in_place.stl
G0 F6000 X130.124 Y140.895
G0 X130.55 Y140.07
G0 X130.66 Y138.926
G0 X129.048 Y126.449
G0 X129.605 Y125.509
G0 X129.933 Y124.599
;TYPE:WALL-INNER
G1 F3000 E25.12459
G1 F1022.7 X130.055 Y124.605 E25.12959
G1 X130.118 Y124.503 E25.1345
G1 X129.958 Y124.115 E25.1517
G1 F761.1 X129.628 Y123.633 E25.18387
G1 X129.618 Y124.244 E25.21751
G1 F1022.7 X129.933 Y124.599 E25.23696
G0 F6000 X129.628 Y123.633
G1 F604 X124.632 Y111.52 E26.14605
G1 F598 X119.636 Y99.407 E27.06428
G1 F584.4 X119.527 Y99.17 E27.08299
G1 F561.6 X119.462 Y99.053 E27.09298
G1 F576 X119.328 Y98.648 E27.12401
G1 F604 X117.621 Y94.512 E27.43445
G1 F579.7 X117.451 Y94.165 E27.46238
G1 F580.6 X117.324 Y93.789 E27.49103
G1 F605 X111.797 Y80.383 E28.4954
G1 F3000 E20.4954
G0 F6000 X129.688 Y124.891
G1 F3000 E28.4954
G1 F900 X129.972 Y125.003 E28.50962
G1 X130.267 Y124.922 E28.52386
G1 X130.408 Y124.791 E28.53283
G1 X130.489 Y124.564 E28.54405
G1 X130.456 Y124.335 E28.55482
G1 F904.5 X111.654 Y78.728 E30.84038
G1 F927.8 X111.373 Y78.023 E30.87466
G1 F952.4 X111.312 Y78.094 E30.87878
G1 X111.063 Y78.229 E30.89124
G1 F927.8 X111.299 Y78.912 E30.92388
G1 F902.3 X111.3 Y80.481 E30.99676
G1 F900 X116.865 Y93.978 E31.67656
G1 X116.933 Y94.231 E31.68876
G1 X116.935 Y94.376 E31.69551
G1 X117.112 Y94.583 E31.70819
G1 X118.868 Y98.838 E31.92253
G1 X118.939 Y99.11 E31.93562
G1 X118.939 Y99.262 E31.9427
G1 X119.044 Y99.372 E31.94978
G1 X119.173 Y99.598 E31.9619
G1 X129.169 Y123.822 E33.18213
G1 X129.244 Y124.189 E33.19957
G1 X129.227 Y124.445 E33.21152
G1 X129.414 Y124.578 E33.2222
G1 X129.688 Y124.891 E33.24157
G0 F6000 X129.672 Y125.346
G1 F900 X129.95 Y125.408 E33.25484
G1 X130.234 Y125.377 E33.26814
G1 X130.493 Y125.259 E33.28139
G1 X130.752 Y125.017 E33.2979
G1 X130.899 Y124.605 E33.31827
G1 X130.844 Y124.228 E33.33601
G1 X111.475 Y77.246 E35.7023
G1 X111.401 Y77.44 E35.71197
G1 X111.127 Y77.752 E35.73131
G1 X110.59 Y78.043 E35.75975
G1 X110.9 Y78.972 E35.80535
G1 X110.9 Y80.561 E35.87934
G1 X116.495 Y94.131 E36.56282
G1 X116.538 Y94.415 E36.57619
G1 X116.423 Y94.585 E36.58575
G1 X116.625 Y94.626 E36.59535
G1 X116.791 Y94.854 E36.60848
G1 X118.499 Y98.99 E36.81685
G1 X118.541 Y99.283 E36.83063
G1 X118.428 Y99.466 E36.84064
G1 X118.637 Y99.522 E36.85072
G1 X118.803 Y99.751 E36.86389
G1 X128.799 Y123.975 E38.08412
G1 X128.844 Y124.195 E38.09458
G1 X128.822 Y124.488 E38.10826
G1 X128.756 Y124.724 E38.11967
G1 X128.814 Y124.707 E38.12249
G1 X129.125 Y124.849 E38.1384
G1 X129.427 Y125.202 E38.16004
G1 X129.672 Y125.346 E38.17327
G1 F3000 E30.17327
G0 F6000 X129.787 Y125.058
G0 X128.722 Y124.638
G0 X128.46 Y124.972
G0 X91.779 Y123.011
G0 X90.403 Y123.631
G1 F3000 E38.17327
G1 F566 X90.793 Y122.588 E38.25571
G1 F601 X100.35 Y99.413 E40.00372
G1 F573.2 X100.54 Y99.032 E40.03484
G1 F562.5 X100.585 Y98.87 E40.04737
G1 F591.1 X100.675 Y98.624 E40.06594
G1 F603 X102.366 Y94.524 E40.37416
G1 F576.9 X102.543 Y94.166 E40.40317
G1 F565.1 X102.58 Y94.034 E40.41334
G1 F589.2 X102.67 Y93.788 E40.43197
G1 F602 X108.201 Y80.375 E41.44196
G0 F6000 X108.444 Y78.07
G0 X108.515 Y77.458
G1 F658.1 X108.636 Y77.145 E41.46333
G1 F704.5 X108.951 Y76.836 E41.48958
G1 F746.9 X109.445 Y76.568 E41.52111
G1 X109.167 Y75.78 E41.568
G1 X108.792 Y76.693 E41.62338
G1 F704.5 X108.636 Y77.145 E41.65183
G1 F3000 E33.65183
G0 F6000 X109.072 Y76.544
G0 X90.043 Y124.609
G1 F3000 E41.65183
G1 F975.6 X90.374 Y124.297 E41.67136
G1 F1000 X90.431 Y124.056 E41.68174
G1 F704.5 X90.403 Y123.631 E41.70708
G1 X90.102 Y123.94 E41.73274
G1 F1016.9 X89.89 Y124.482 E41.75672
G1 F989 X89.916 Y124.576 E41.76086
G1 F975.6 X90.043 Y124.609 E41.76649
G0 F6000 X90.285 Y124.911
G1 F900 X90.557 Y124.652 E41.78398
G1 X90.753 Y124.529 E41.79476
G1 X90.771 Y124.236 E41.80842
G1 X91.255 Y122.778 E41.87996
G1 X100.811 Y99.603 E43.04722
G1 X100.953 Y99.361 E43.06029
G1 X101.065 Y99.248 E43.0677
G1 X101.065 Y99.088 E43.07515
G1 X101.135 Y98.814 E43.08832
G1 X102.827 Y94.714 E43.29485
G1 X102.959 Y94.486 E43.30711
G1 X103.061 Y94.379 E43.314
G1 X103.063 Y94.232 E43.32084
G1 X103.131 Y93.978 E43.33309
G1 X108.7 Y80.473 E44.0133
G1 X108.7 Y79.321 E44.06695
G1 X108.428 Y78.516 E44.10651
G1 X89.566 Y124.252 E46.41017
G1 X89.511 Y124.488 E46.42146
G1 X89.525 Y124.639 E46.42852
G1 X89.603 Y124.817 E46.43757
G1 X89.789 Y124.965 E46.44864
G1 X89.978 Y125.003 E46.45761
G1 X90.285 Y124.911 E46.47254
G0 F6000 X91.193 Y124.853
G1 F900 X91.136 Y124.4 E46.4938
G1 X91.61 Y122.969 E46.56399
G1 X101.181 Y99.755 E47.7332
G1 X101.358 Y99.517 E47.74701
G1 X101.582 Y99.46 E47.75777
G1 X101.463 Y99.263 E47.76849
G1 X101.505 Y98.966 E47.78246
G1 X103.197 Y94.867 E47.98894
G1 X103.369 Y94.633 E48.00247
G1 X103.579 Y94.593 E48.01242
G1 X103.458 Y94.418 E48.02233
G1 X103.501 Y94.131 E48.03584
G1 X109.1 Y80.553 E48.71974
G1 X109.1 Y79.255 E48.78018
G1 X108.607 Y77.796 E48.85189
G1 F753.1 X108.515 Y77.458 E48.87138
G1 X108.297 Y77.786 E48.89329
G1 F900 X89.185 Y124.129 E51.22752
G1 X89.107 Y124.459 E51.24331
G1 X89.133 Y124.74 E51.25645
G1 X89.275 Y125.066 E51.27301
G1 X89.617 Y125.34 E51.29341
G1 X89.966 Y125.408 E51.30997
G1 X90.251 Y125.369 E51.32337
G1 X90.517 Y125.244 E51.33705
G1 X90.809 Y124.962 E51.35595
G1 X90.951 Y124.876 E51.36368
G1 X91.193 Y124.853 E51.375
G1 F3000 E43.375
G0 F6000 X90.838 Y124.494
G0 X91.461 Y125.105
G0 X111.759 Y131.835
;TYPE:WALL-OUTER
G1 F3000 E51.375
G1 F900 X111.449 Y131.841 E51.38944
G1 F895.5 X111.078 Y131.808 E51.40687
G1 F900 X110.778 Y131.761 E51.42101
G1 X110.393 Y131.661 E51.43953
G1 F897.8 X110.139 Y131.571 E51.45211
G1 F900 X109.793 Y131.415 E51.46978
G1 X109.54 Y131.272 E51.48332
G1 F902.3 X109.299 Y131.116 E51.49665
