;FLAVOR:Marlin
;TIME:1207
;Filament used: 0.853434m
;Layer height: 0.2
;MINX:0
;MINY:0
;MINZ:0.24
;MAXX:166.113
;MAXY:156.632
;MAXZ:7.16
;TARGET_MACHINE.NAME:Creality Ender-3
;Generated with Cura_SteamEngine 5.11.0
; Ender 3 V2 - Optimized Start G-code (v6)
; Purpose: Improve first-layer adhesion by applying a lower initial Z for priming/skirt
; Date: 2025-11-10
; Notes:
; - This file preserves the baseline priming strategy but reduces the Z used for the
;   prime/skirt moves to improve squish/adhesion.
; - If you have a probe (BLTouch) or mesh bed leveling enabled, consider running
;;  G28
;  G29
;  or enable saved mesh with M420 S1 after homing. Only use G29 if your firmware supports it.
; - If you use a probe and have a known probe offset, persist it with M851 Z<offset> and M500
;   (example: M851 Z-1.85 ; M500). Do not commit offsets into the repo — keep them local.

M140 S70 ; Set bed temp (non-blocking)
M104 S220.0 ; Set nozzle temp (non-blocking)
M190 S70 ; Wait for bed
M109 S220.0 ; Wait for nozzle

G92 E0 ; Reset extruder
G28 ; Home all axes
; Enable saved BLTouch mesh so skirt/prime use mesh compensation (saved mesh: MRISCOC)
M420 S1 ; Enable mesh from EEPROM
; If you prefer to re-probe each print, replace the above with G29 (takes longer)

; Move Z up slightly to avoid scratching, then go to prime start position
G1 Z2.0 F3000 ; Lift Z a little
; Use a slightly lower Z for priming/skirt to improve squish/adhesion
G1 X0.1 Y20 Z0.15 F5000.0 ; Move to start position - lowered Z (0.15 mm)
G1 X0.1 Y200.0 Z0.15 F1500.0 E15 ; Draw the first prime line (prime)
G1 X0.4 Y200.0 Z0.15 F5000.0 ; Move to side a little
G1 X0.4 Y20 Z0.15 F1500.0 E30 ; Draw the second prime line
G92 E0 ; Reset Extruder
G1 Z2.0 F3000 ; Move Z up a bit after priming
G1 X30 Y20 Z2.0 F5000.0 ; Move over to safe print start area

; Ready to start print - printer should now align first layer closer to bed for better adhesion

; Troubleshooting notes:
; - If first layer is still too high: reduce Z in the three G1 lines above by -0.05 mm increments (try 0.10 mm)
; - If nozzle drags into the bed: increase Z by +0.05 mm steps until safe
; - For persistent offset differences: measure and set probe offset with M851 and save with M500

M82 ;absolute extrusion mode
G92 E0
G92 E0
G1 F4800 E-8
;LAYER_COUNT:29
;LAYER:0
M107
G1 F300 Z0.44
G0 F6000 X0.00 Y0.000 Z0.44
G0 X66.351 Y84.729
;TYPE:SKIRT
G1 F300 Z0.24
G1 F4800 E0.08315
G1 F900 X67.392 Y83.968 E0.12947
G1 X68.229 Y83.4 E0.16581
G1 X68.991 Y82.911 E0.19833
G1 X69.696 Y82.488 E0.22786
G1 X70.776 Y81.879 E0.2724
G1 X71.521 Y81.489 E0.3026
G1 X72.31 Y81.096 E0.33427
G1 X73.212 Y80.667 E0.37015
G1 X105.402 Y65.726 E1.64492
G1 X106.392 Y65.28 E1.68393
G1 X107.8 Y64.691 E1.73875
G1 X109.308 Y64.147 E1.79634
G1 X111.343 Y63.547 E1.87255
G1 X113.165 Y63.127 E1.93971
G1 X115.356 Y62.756 E2.01954
G1 X115.634 Y62.721 E2.0296
G1 X117.221 Y62.564 E2.08689
G1 X118.811 Y62.491 E2.14406
G1 X120.19 Y62.492 E2.19359
G1 X121.91 Y62.573 E2.25545
G1 X123.533 Y62.727 E2.31401
G1 X124.94 Y62.93 E2.36507
G1 X125.935 Y63.112 E2.40141
G1 X127.268 Y63.394 E2.45035
G1 X128.049 Y63.57 E2.47911
G1 X130.007 Y63.961 E2.55083
G1 X131.911 Y64.286 E2.62021
G1 X134.517 Y64.667 E2.71482
G1 X135.501 Y64.832 E2.75066
G1 X137.121 Y65.145 E2.80993
G1 X138.353 Y65.426 E2.85532
G1 X139.496 Y65.722 E2.89773
G1 X140.345 Y65.961 E2.92941
G1 X141.464 Y66.298 E2.97139
G1 X143.246 Y66.887 E3.03881
G1 X144.414 Y67.306 E3.08338
G1 X145.612 Y67.755 E3.12934
G1 X146.536 Y68.124 E3.16508
G1 X147.073 Y68.349 E3.18599
G1 X148.509 Y68.997 E3.24258
G1 X149.944 Y69.738 E3.30059
G1 X151.324 Y70.542 E3.35797
G1 X152.659 Y71.416 E3.41528
G1 X153.946 Y72.356 E3.47253
G1 X155.185 Y73.363 E3.52988
G1 X156.37 Y74.431 E3.58719
G1 X157.498 Y75.559 E3.64449
G1 X158.566 Y76.743 E3.70176
G1 X159.574 Y77.982 E3.75914
G1 X160.516 Y79.27 E3.81646
G1 X161.392 Y80.61 E3.87397
G1 X162.42 Y82.403 E3.94821
G1 X163.056 Y83.667 E3.99903
G1 X163.615 Y84.897 E4.04757
G1 X164.204 Y86.378 E4.10482
G1 X164.717 Y87.89 E4.16217
G1 X165.151 Y89.425 E4.21947
G1 X165.505 Y90.98 E4.27676
G1 X165.779 Y92.552 E4.33408
G1 X165.972 Y94.136 E4.3914
G1 X166.083 Y95.724 E4.44858
G1 X166.113 Y97.11 E4.49838
G1 X166.071 Y98.706 E4.55573
G1 X165.947 Y100.295 E4.61298
G1 X165.74 Y101.889 E4.67072
G1 X165.292 Y104.178 E4.7545
G1 X164.793 Y106.041 E4.82378
G1 X164.445 Y107.144 E4.86532
G1 X163.902 Y108.644 E4.92263
G1 X163.29 Y110.094 E4.97916
G1 X162.762 Y111.202 E5.02325
G1 X161.664 Y113.299 E5.10828
G1 X160.813 Y114.985 E5.17612
G1 X159.639 Y117.503 E5.27592
G1 X159.032 Y118.834 E5.32846
G1 X158.422 Y120.082 E5.37836
G1 X157.59 Y121.579 E5.43988
G1 X156.053 Y124.307 E5.55236
G1 X155.161 Y126.013 E5.62151
G1 X154.301 Y127.776 E5.69197
G1 X153.498 Y129.553 E5.76202
G1 X152.744 Y131.348 E5.83195
G1 X152.021 Y133.216 E5.9039
G1 X151.19 Y135.53 E5.99222
G1 X150.578 Y137.049 E6.05105
G1 X149.917 Y138.499 E6.10829
G1 X149.181 Y139.915 E6.16562
G1 X148.373 Y141.292 E6.22296
G1 X147.497 Y142.623 E6.2802
G1 X146.686 Y143.736 E6.32967
G1 X146.424 Y144.078 E6.34514
G1 X145.422 Y145.321 E6.4025
G1 X144.358 Y146.509 E6.45978
G1 X143.234 Y147.641 E6.51709
G1 X142.053 Y148.715 E6.57443
G1 X140.703 Y149.816 E6.637
G1 X139.309 Y150.837 E6.69907
G1 X138.453 Y151.417 E6.73621
G1 X137.096 Y152.257 E6.79354
G1 X135.734 Y153.005 E6.84936
G1 X133.686 Y153.97 E6.93068
G1 X133.209 Y154.169 E6.94925
G1 X132.224 Y154.556 E6.98726
G1 X131.468 Y154.829 E7.01613
G1 X129.95 Y155.322 E7.07347
G1 X128.405 Y155.737 E7.13093
G1 X126.529 Y156.13 E7.19978
G1 X124.941 Y156.371 E7.25748
G1 X124.392 Y156.437 E7.27734
G1 X122.836 Y156.571 E7.33344
G1 X121.785 Y156.617 E7.37123
G1 X120.8 Y156.632 E7.40661
G1 X119.082 Y156.584 E7.46835
G1 X117.236 Y156.428 E7.5349
G1 X115.349 Y156.166 E7.60333
G1 X113.502 Y155.797 E7.67099
G1 X111.963 Y155.4 E7.72808
G1 X110.907 Y155.078 E7.76774
G1 X109.581 Y154.624 E7.81808
G1 X75.909 Y142.424 E9.10456
G1 X74.933 Y142.058 E9.142
G1 X74.031 Y141.701 E9.17684
G1 X72.792 Y141.169 E9.22528
G1 X71.352 Y140.481 E9.28261
G1 X69.97 Y139.731 E9.33909
G1 X68.866 Y139.064 E9.38542
G1 X67.929 Y138.453 E9.4256
G1 X67.122 Y137.897 E9.4608
G1 X66.527 Y137.461 E9.4873
G1 X65.282 Y136.475 E9.54435
G1 X64.616 Y135.903 E9.57589
G1 X64.003 Y135.353 E9.60547
G1 X62.858 Y134.248 E9.66263
G1 X61.996 Y133.336 E9.7077
G1 X61.388 Y132.647 E9.74071
G1 X60.823 Y131.97 E9.77239
G1 X60.021 Y130.945 E9.81914
G1 X59.423 Y130.126 E9.85556
G1 X58.521 Y128.794 E9.91335
G1 X57.691 Y127.423 E9.97092
G1 X56.639 Y125.413 E10.05241
G1 X56.073 Y124.181 E10.10111
G1 X55.472 Y122.707 E10.15829
G1 X55.051 Y121.516 E10.20367
G1 X54.457 Y119.473 E10.28009
G1 X54.171 Y118.327 E10.32252
G1 X53.944 Y117.24 E10.36241
G1 X53.688 Y115.707 E10.41824
G1 X53.504 Y114.081 E10.47702
G1 X53.404 Y112.501 E10.53389
G1 X53.379 Y111.556 E10.56785
G1 X53.369 Y110.629 E10.60115
G1 X53.411 Y109.033 E10.6585
G1 X53.535 Y107.444 E10.71575
G1 X53.74 Y105.86 E10.77312
G1 X54.019 Y104.331 E10.82895
G1 X54.458 Y102.551 E10.89481
G1 X54.467 Y102.474 E10.89759
G1 X54.751 Y101.491 E10.93435
G1 X55.078 Y100.476 E10.97265
G1 X55.527 Y99.222 E11.0205
G1 X55.679 Y98.829 E11.03563
G1 X56.351 Y97.244 E11.09747
G1 X56.855 Y96.19 E11.13944
G1 X57.859 Y94.342 E11.21498
G1 X58.367 Y93.508 E11.25006
G1 X59.404 Y91.936 E11.31771
G1 X60.395 Y90.602 E11.3774
G1 X60.925 Y89.945 E11.40773
G1 X61.686 Y89.063 E11.44957
G1 X62.495 Y88.183 E11.49251
G1 X63.151 Y87.518 E11.52606
G1 X63.672 Y87.01 E11.5522
G1 X63.744 Y86.953 E11.5555
G1 X64.318 Y86.41 E11.58388
G1 X65.525 Y85.379 E11.6409
G1 X66.351 Y84.729 E11.67866
G0 F6000 X66.587 Y85.052
G1 F900 X67.617 Y84.299 E11.72449
G1 X68.445 Y83.737 E11.76044
G1 X69.197 Y83.254 E11.79254
G1 X69.893 Y82.836 E11.82171
G1 X70.962 Y82.233 E11.86579
G1 X71.699 Y81.847 E11.89568
G1 X72.482 Y81.457 E11.9271
G1 X73.38 Y81.03 E11.96282
G1 X105.566 Y66.091 E13.23744
G1 X106.546 Y65.649 E13.27605
G1 X107.936 Y65.067 E13.33018
G1 X109.421 Y64.531 E13.38689
G1 X111.433 Y63.937 E13.46225
G1 X113.255 Y63.517 E13.52942
G1 X115.407 Y63.153 E13.60782
G1 X115.673 Y63.119 E13.61745
G1 X117.24 Y62.964 E13.67401
G1 X118.811 Y62.891 E13.7305
G1 X120.171 Y62.892 E13.77936
G1 X121.891 Y62.973 E13.84121
G1 X123.476 Y63.123 E13.8984
G1 X124.868 Y63.323 E13.94891
G1 X125.852 Y63.503 E13.98485
G1 X127.18 Y63.784 E14.03361
G1 X127.961 Y63.96 E14.06236
G1 X129.933 Y64.354 E14.1346
G1 X131.853 Y64.682 E14.20457
G1 X134.451 Y65.062 E14.29888
G1 X135.425 Y65.225 E14.33436
G1 X137.032 Y65.535 E14.39314
G1 X138.253 Y65.813 E14.43813
G1 X139.388 Y66.107 E14.48024
G1 X140.23 Y66.344 E14.51166
G1 X141.339 Y66.678 E14.55327
G1 X143.111 Y67.263 E14.6203
G1 X144.274 Y67.681 E14.66469
G1 X145.464 Y68.127 E14.71034
G1 X146.381 Y68.493 E14.74581
G1 X146.908 Y68.714 E14.76633
G1 X148.344 Y69.362 E14.82292
G1 X149.743 Y70.084 E14.87948
G1 X151.105 Y70.877 E14.93609
G1 X152.423 Y71.739 E14.99266
G1 X153.694 Y72.667 E15.04919
G1 X154.917 Y73.66 E15.10578
G1 X156.087 Y74.714 E15.16234
G1 X157.201 Y75.827 E15.21891
G1 X158.256 Y76.996 E15.27547
G1 X159.251 Y78.218 E15.33208
G1 X160.181 Y79.489 E15.38865
G1 X161.045 Y80.809 E15.44532
G1 X162.063 Y82.583 E15.51879
G1 X162.692 Y83.832 E15.56902
G1 X163.243 Y85.045 E15.61688
G1 X163.825 Y86.507 E15.67341
G1 X164.332 Y87.999 E15.73001
G1 X164.761 Y89.514 E15.78657
G1 X165.111 Y91.049 E15.84312
G1 X165.382 Y92.6 E15.89968
G1 X165.573 Y94.164 E15.95628
G1 X165.683 Y95.733 E16.01278
G1 X165.713 Y97.1 E16.06189
G1 X165.672 Y98.675 E16.11849
G1 X165.55 Y100.244 E16.17502
G1 X165.347 Y101.812 E16.23181
G1 X164.899 Y104.101 E16.3156
G1 X164.412 Y105.921 E16.38327
G1 X164.069 Y107.008 E16.42422
G1 X163.533 Y108.488 E16.48076
G1 X162.921 Y109.938 E16.53729
G1 X162.408 Y111.016 E16.58018
G1 X161.31 Y113.113 E16.6652
G1 X160.45 Y114.816 E16.73373
G1 X159.276 Y117.334 E16.83353
G1 X158.673 Y118.658 E16.88579
G1 X158.072 Y119.888 E16.93497
G1 X157.241 Y121.383 E16.99641
G1 X155.705 Y124.111 E17.10886
G1 X154.807 Y125.828 E17.17847
G1 X153.942 Y127.601 E17.24933
G1 X153.129 Y129.398 E17.32018
G1 X152.375 Y131.193 E17.39011
G1 X151.648 Y133.072 E17.46248
G1 X150.819 Y135.381 E17.55061
G1 X150.214 Y136.883 E17.60878
G1 X149.562 Y138.315 E17.6653
G1 X148.836 Y139.713 E17.72188
G1 X148.039 Y141.072 E17.77847
G1 X147.174 Y142.387 E17.83501
G1 X146.368 Y143.493 E17.88417
G1 X146.113 Y143.827 E17.89927
G1 X145.124 Y145.054 E17.95588
G1 X144.074 Y146.227 E18.01243
G1 X142.965 Y147.345 E18.06899
G1 X141.8 Y148.405 E18.12557
G1 X140.467 Y149.493 E18.18738
G1 X139.085 Y150.506 E18.24893
G1 X138.242 Y151.077 E18.2855
G1 X136.903 Y151.906 E18.34207
G1 X135.541 Y152.654 E18.39789
G1 X133.531 Y153.601 E18.4777
G1 X133.063 Y153.797 E18.49593
G1 X132.088 Y154.18 E18.53356
G1 X131.344 Y154.449 E18.56197
G1 X129.846 Y154.936 E18.61856
G1 X128.323 Y155.346 E18.67521
G1 X126.469 Y155.735 E18.74326
G1 X124.893 Y155.974 E18.80052
G1 X124.358 Y156.038 E18.81987
G1 X122.818 Y156.171 E18.8754
G1 X121.774 Y156.218 E18.91294
G1 X120.811 Y156.232 E18.94753
G1 X119.116 Y156.185 E19.00844
G1 X117.27 Y156.029 E19.07499
G1 X115.427 Y155.774 E19.14182
G1 X113.602 Y155.41 E19.20867
G1 X112.08 Y155.017 E19.26513
G1 X111.024 Y154.695 E19.30479
G1 X109.717 Y154.248 E19.35441
G1 X76.049 Y142.049 E20.64073
G1 X75.08 Y141.686 E20.6779
G1 X74.189 Y141.333 E20.71233
G1 X72.964 Y140.808 E20.7602
G1 X71.543 Y140.129 E20.81677
G1 X70.161 Y139.379 E20.87326
G1 X69.084 Y138.729 E20.91844
G1 X68.156 Y138.124 E20.95824
G1 X67.358 Y137.574 E20.99305
G1 X66.775 Y137.147 E21.01901
G1 X65.543 Y136.172 E21.07544
G1 X64.883 Y135.605 E21.1067
G1 X64.281 Y135.065 E21.13575
G1 X63.149 Y133.973 E21.19225
G1 X62.296 Y133.071 E21.23684
G1 X61.695 Y132.39 E21.26947
G1 X61.138 Y131.724 E21.30065
G1 X60.344 Y130.709 E21.34695
G1 X59.754 Y129.902 E21.38285
G1 X58.863 Y128.587 E21.43991
G1 X58.045 Y127.237 E21.49661
G1 X57.002 Y125.246 E21.57735
G1 X56.443 Y124.03 E21.62542
G1 X55.849 Y122.573 E21.68194
G1 X55.435 Y121.404 E21.72649
G1 X54.845 Y119.376 E21.80236
G1 X54.563 Y118.245 E21.84423
G1 X54.339 Y117.174 E21.88353
G1 X54.083 Y115.641 E21.93936
G1 X53.903 Y114.056 E21.99666
G1 X53.804 Y112.49 E22.05303
G1 X53.779 Y111.552 E22.08673
G1 X53.769 Y110.639 E22.11953
G1 X53.81 Y109.064 E22.17613
G1 X53.932 Y107.495 E22.23266
G1 X54.134 Y105.932 E22.28927
G1 X54.413 Y104.403 E22.3451
G1 X54.853 Y102.62 E22.41107
G1 X54.851 Y102.585 E22.41233
G1 X55.132 Y101.614 E22.44864
G1 X55.455 Y100.611 E22.48649
G1 X55.9 Y99.366 E22.53398
G1 X56.047 Y98.985 E22.54865
G1 X56.712 Y97.417 E22.60983
G1 X57.216 Y96.363 E22.65179
G1 X58.201 Y94.55 E22.72591
G1 X58.701 Y93.728 E22.76047
G1 X59.725 Y92.174 E22.82732
G1 X60.706 Y90.853 E22.88643
G1 X61.228 Y90.206 E22.91629
G1 X61.98 Y89.334 E22.95765
G1 X62.78 Y88.464 E23.00011
G1 X63.43 Y87.804 E23.03338
G1 X63.951 Y87.296 E23.05952
G1 X63.988 Y87.273 E23.06108
G1 X64.578 Y86.714 E23.09028
G1 X65.772 Y85.693 E23.14671
G1 X66.587 Y85.052 E23.18396
G0 F6000 X66.823 Y85.375
G1 F900 X67.842 Y84.63 E23.2293
G1 X68.661 Y84.074 E23.26486
G1 X69.404 Y83.597 E23.29657
G1 X70.089 Y83.184 E23.32531
G1 X71.148 Y82.587 E23.36897
G1 X71.877 Y82.205 E23.39854
G1 X72.654 Y81.818 E23.42972
G1 X73.548 Y81.393 E23.46528
G1 X105.731 Y66.456 E24.73977
G1 X106.701 Y66.018 E24.778
G1 X108.072 Y65.443 E24.8314
G1 X109.534 Y64.915 E24.88724
G1 X111.523 Y64.327 E24.96174
G1 X113.345 Y63.907 E25.0289
G1 X115.459 Y63.55 E25.10592
G1 X115.712 Y63.517 E25.11508
G1 X117.259 Y63.364 E25.17092
G1 X118.811 Y63.291 E25.22673
G1 X120.152 Y63.292 E25.2749
G1 X121.872 Y63.373 E25.33676
G1 X123.419 Y63.519 E25.39257
G1 X124.796 Y63.716 E25.44254
G1 X125.769 Y63.894 E25.47807
G1 X127.092 Y64.174 E25.52665
G1 X127.873 Y64.35 E25.5554
G1 X129.859 Y64.747 E25.62815
G1 X131.795 Y65.078 E25.69871
G1 X134.385 Y65.457 E25.79273
G1 X135.349 Y65.618 E25.82784
G1 X136.943 Y65.925 E25.88615
G1 X138.153 Y66.2 E25.93072
G1 X139.28 Y66.492 E25.97254
G1 X140.115 Y66.727 E26.0037
G1 X141.214 Y67.058 E26.04493
G1 X142.976 Y67.64 E26.11159
G1 X144.133 Y68.055 E26.15574
G1 X145.316 Y68.499 E26.20113
G1 X146.226 Y68.862 E26.23632
G1 X146.744 Y69.079 E26.2565
G1 X148.161 Y69.718 E26.31233
G1 X149.542 Y70.43 E26.36814
G1 X150.886 Y71.212 E26.424
G1 X152.187 Y72.062 E26.47982
G1 X153.442 Y72.978 E26.53563
G1 X154.649 Y73.957 E26.59146
G1 X155.804 Y74.997 E26.64729
G1 X156.904 Y76.095 E26.70312
G1 X157.946 Y77.249 E26.75897
G1 X158.928 Y78.454 E26.81481
G1 X159.846 Y79.708 E26.87063
G1 X160.698 Y81.008 E26.92646
G1 X161.706 Y82.763 E26.99916
G1 X162.328 Y83.997 E27.0488
G1 X162.871 Y85.193 E27.09598
G1 X163.446 Y86.636 E27.15178
G1 X163.947 Y88.108 E27.20764
G1 X164.371 Y89.603 E27.26346
G1 X164.717 Y91.118 E27.31928
G1 X164.985 Y92.649 E27.37511
G1 X165.174 Y94.192 E27.43095
G1 X165.283 Y95.742 E27.48676
G1 X165.313 Y97.09 E27.5352
G1 X165.273 Y98.644 E27.59104
G1 X165.153 Y100.193 E27.64684
G1 X164.954 Y101.735 E27.70269
G1 X164.506 Y104.024 E27.78648
G1 X164.03 Y105.801 E27.85256
G1 X163.693 Y106.872 E27.89289
G1 X163.164 Y108.333 E27.9487
G1 X162.56 Y109.766 E28.00456
G1 X162.054 Y110.83 E28.04689
G1 X160.956 Y112.927 E28.13191
G1 X160.087 Y114.647 E28.20114
G1 X158.913 Y117.165 E28.30093
G1 X158.314 Y118.482 E28.3529
G1 X157.722 Y119.694 E28.40136
G1 X155.356 Y123.915 E28.57517
G1 X154.453 Y125.643 E28.64521
G1 X153.583 Y127.426 E28.71647
G1 X152.76 Y129.243 E28.78812
G1 X152.006 Y131.038 E28.85806
G1 X151.275 Y132.928 E28.93085
G1 X150.448 Y135.232 E29.01878
G1 X149.85 Y136.717 E29.07629
G1 X149.207 Y138.131 E29.13209
G1 X148.491 Y139.511 E29.18793
G1 X147.705 Y140.852 E29.24377
G1 X146.851 Y142.151 E29.29961
G1 X146.05 Y143.25 E29.34846
G1 X145.801 Y143.576 E29.36319
G1 X144.826 Y144.787 E29.41904
G1 X143.79 Y145.945 E29.47485
G1 X142.696 Y147.049 E29.53068
G1 X141.547 Y148.095 E29.5865
G1 X140.23 Y149.17 E29.64757
G1 X138.86 Y150.175 E29.7086
G1 X138.032 Y150.737 E29.74454
G1 X136.71 Y151.555 E29.80039
G1 X135.348 Y152.303 E29.8562
G1 X133.376 Y153.232 E29.93451
G1 X132.917 Y153.425 E29.95239
G1 X131.952 Y153.804 E29.98964
