;FLAVOR:Marlin
;TIME:1187
;Filament used: 0.886582m
;Layer height: 0.2
;MINX:71.041
;MINY:57.251
;MINZ:0.28
;MAXX:148.96
;MAXY:162.738
;MAXZ:5.8
;TARGET_MACHINE.NAME:Creality Ender-3
;Generated with Cura_SteamEngine 5.11.0
; Ender 3 V2 Optimized Start G-code - v5.0
; Date: 2025-11-09
; Improvements: 
;   - v1.0: 2 parallel priming lines (same Y direction)
;   - v2.0: Enhanced blob clearance - move away from prime line before skirt
;   - v3.0: Nozzle wipe sequence to clean blob before print start
;   - v4.0: Parallel heating (bed + nozzle at same time)
;   - v5.0: Universal material profiles (PLA/PETG/TPU auto-detect)
; Status: Active optimization - Multi-material with Cura variable injection
; Material: AUTO (uses Cura material settings)

; Universal parallel heating - uses Cura-injected material temps
; These 0 are replaced by Cura based on material profile selected
M104 S220 ; Preheat nozzle (non-blocking)
M190 S70 ; Heat bed and wait
M109 S220 ; Wait for nozzle to reach temp

; Home and probe
G92 E0 ; Reset Extruder
G28 ; Home all axes
G29 ; BLTouch auto-level

G1 Z2.0 F3000 ; Move Z Axis up to prevent scratching
G1 X0.1 Y20 Z0.3 F5000.0 ; Move to start position

; Prime line 1: Y direction, extrude 15mm
G1 X0.1 Y200.0 Z0.3 F1500.0 E15
; Move to side (0.3mm spacing for clean nozzle)
G1 X0.4 Y200.0 Z0.3 F5000.0

; Prime line 2: Y direction (same direction as line 1), extrude 15mm
G1 X0.4 Y20 Z0.3 F1500.0 E15
G92 E0 ; Reset Extruder

; Wipe nozzle clean across bed to remove blob
; Move to Y5 (away from print start area)
G1 X0.4 Y5 Z0.3 F5000.0
; Retract slightly to prevent oozing during move
G1 E-0.5 F2400
; Move up to clear bed before traveling
G1 Z5.0 F3000
; Travel to safe position away from prime lines
G1 X30 Y20 Z5.0 F5000.0
; Move back to first layer height
G1 Z0.3 F3000

M82 ;absolute extrusion mode
G92 E0
G92 E0
G1 F3000 E-8
;LAYER_COUNT:24
;LAYER:0
M107
G0 F6000 X91.483 Y66.4 Z0.28
;TYPE:SKIRT
G1 F3000 E0
G1 F900 X91.955 Y65.8 E0.03555
G1 X92.371 Y65.302 E0.06576
G1 X93.222 Y64.357 E0.12498
G1 X94.028 Y63.56 E0.17776
G1 X94.773 Y62.889 E0.22445
G1 X96.237 Y61.721 E0.31165
G1 X96.698 Y61.396 E0.33792
G1 X97.794 Y60.683 E0.3988
G1 X99.333 Y59.816 E0.48105
G1 X100.504 Y59.259 E0.54143
G1 X102.139 Y58.605 E0.62343
G1 X103.331 Y58.219 E0.68177
G1 X104.469 Y57.912 E0.73666
G1 X105.222 Y57.745 E0.77257
G1 X106.718 Y57.481 E0.84331
G1 X108.033 Y57.326 E0.90496
G1 X109.787 Y57.251 E0.98671
G1 X110.1 Y57.252 E1.00129
G1 X111.078 Y57.282 E1.04685
G1 X111.76 Y57.325 E1.07867
G1 X113.048 Y57.455 E1.13895
G1 X114.128 Y57.628 E1.18988
G1 X114.621 Y57.72 E1.21323
G1 X115.863 Y57.993 E1.27244
G1 X116.929 Y58.292 E1.324
G1 X118.054 Y58.675 E1.37933
G1 X118.749 Y58.942 E1.414
G1 X119.821 Y59.407 E1.46841
G1 X120.496 Y59.737 E1.5034
G1 X121.18 Y60.096 E1.53937
G1 X121.972 Y60.545 E1.58176
G1 X123.045 Y61.227 E1.64096
G1 X123.876 Y61.823 E1.68858
G1 X124.553 Y62.351 E1.72856
G1 X125.04 Y62.752 E1.75793
G1 X126.276 Y63.888 E1.8361
G1 X126.753 Y64.38 E1.86801
G1 X127.501 Y65.202 E1.91976
G1 X128.328 Y66.203 E1.98022
G1 X129.193 Y67.406 E2.04922
G1 X129.474 Y67.833 E2.07302
G1 X130.328 Y69.275 E2.15106
G1 X130.586 Y69.756 E2.17647
G1 X131.397 Y71.442 E2.26359
G1 X131.765 Y72.352 E2.3093
G1 X132.087 Y73.226 E2.35267
G1 X132.376 Y74.067 E2.39408
G1 X147.769 Y120.613 E4.6769
G1 X147.988 Y121.306 E4.71074
G1 X148.338 Y122.553 E4.77105
G1 X148.61 Y123.821 E4.83144
G1 X148.798 Y125.078 E4.89062
G1 X148.904 Y126.246 E4.94523
G1 X148.96 Y127.516 E5.00442
G1 X148.934 Y128.838 E5.06599
G1 X148.826 Y130.13 E5.12636
G1 X148.638 Y131.409 E5.18656
G1 X148.436 Y132.395 E5.23342
G1 X148.173 Y133.446 E5.28387
G1 X147.801 Y134.682 E5.34398
G1 X147.549 Y135.393 E5.3791
G1 X147.055 Y136.591 E5.43944
G1 X146.499 Y137.734 E5.49863
G1 X145.849 Y138.879 E5.55993
G1 X145.407 Y139.571 E5.59817
G1 X145.339 Y139.639 E5.60265
G1 X144.91 Y140.286 E5.6388
G1 X143.245 Y142.627 E5.77256
G1 X141.167 Y145.783 E5.94851
G1 X140.757 Y146.375 E5.98204
G1 X140.443 Y146.803 E6.00676
G1 X139.404 Y148.077 E6.08331
G1 X138.742 Y148.804 E6.1291
G1 X137.823 Y149.717 E6.18942
G1 X136.868 Y150.555 E6.24858
G1 X135.821 Y151.363 E6.31016
G1 X134.747 Y152.087 E6.37047
G1 X133.653 Y152.73 E6.42956
G1 X133.179 Y152.989 E6.45471
G1 X131.623 Y153.755 E6.53547
G1 X130.156 Y154.4 E6.61009
G1 X128.091 Y155.361 E6.71615
G1 X126.1 Y156.356 E6.81979
G1 X124.12 Y157.417 E6.92439
G1 X122.032 Y158.613 E7.03643
G1 X120.349 Y159.608 E7.12747
G1 X119.7 Y159.981 E7.16233
G1 X118.67 Y160.533 E7.21674
G1 X117.471 Y161.086 E7.27823
G1 X116.262 Y161.553 E7.33858
G1 X115.025 Y161.943 E7.39897
G1 X114.139 Y162.173 E7.44159
G1 X113.782 Y162.252 E7.45862
G1 X113.48 Y162.307 E7.47291
G1 X113.376 Y162.339 E7.47798
G1 X112.087 Y162.555 E7.53884
G1 X110.798 Y162.687 E7.59917
G1 X109.503 Y162.738 E7.65952
G1 X108.232 Y162.709 E7.71872
G1 X106.647 Y162.563 E7.79284
G1 X106.012 Y162.463 E7.82277
G1 X105.913 Y162.458 E7.82738
G1 X105.142 Y162.32 E7.86386
G1 X105.102 Y162.303 E7.86588
G1 X104.634 Y162.213 E7.88807
G1 X103.355 Y161.882 E7.94959
G1 X102.123 Y161.479 E8.00995
G1 X100.919 Y160.999 E8.0703
G1 X99.77 Y160.455 E8.1295
G1 X98.635 Y159.828 E8.18988
G1 X97.378 Y159.02 E8.25946
G1 X96.538 Y158.411 E8.30777
G1 X95.886 Y157.894 E8.34651
G1 X94.854 Y156.983 E8.41061
G1 X94.26 Y156.421 E8.44869
G1 X93.18 Y155.371 E8.51883
G1 X91.497 Y153.826 E8.62521
G1 X89.835 Y152.383 E8.7277
G1 X88.09 Y150.953 E8.83275
G1 X86.312 Y149.578 E8.93741
G1 X84.545 Y148.291 E9.0392
G1 X81.688 Y146.354 E9.19993
G1 X80.94 Y145.87 E9.24141
G1 X79.896 Y145.145 E9.3006
G1 X78.964 Y144.417 E9.35567
G1 X78.362 Y143.904 E9.3925
G1 X77.428 Y143.043 E9.45165
G1 X76.514 Y142.088 E9.5132
G1 X75.695 Y141.116 E9.57239
G1 X74.909 Y140.054 E9.63391
G1 X74.207 Y138.966 E9.6942
G1 X73.622 Y137.929 E9.74964
G1 X73.202 Y137.105 E9.79271
G1 X72.667 Y135.924 E9.85308
G1 X72.216 Y134.736 E9.91225
G1 X71.826 Y133.472 E9.97384
G1 X71.501 Y132.11 E10.03904
G1 X71.447 Y131.841 E10.05182
G1 X71.23 Y130.563 E10.11218
G1 X71.095 Y129.274 E10.17253
G1 X71.041 Y128.004 E10.23172
G1 X71.068 Y126.685 E10.29315
G1 X71.148 Y125.662 E10.34093
G1 X71.24 Y124.875 E10.37783
G1 X71.366 Y124.021 E10.41802
G1 X71.623 Y122.73 E10.47932
G1 X71.949 Y121.501 E10.53852
G1 X72.357 Y120.211 E10.60152
G1 X86.94 Y76.127 E12.76366
G1 X87.671 Y73.817 E12.87648
G1 X87.953 Y72.972 E12.91796
G1 X88.263 Y72.138 E12.95939
G1 X88.469 Y71.647 E12.98418
G1 X88.497 Y71.559 E12.98848
G1 X88.976 Y70.497 E13.04273
G1 X89.338 Y69.777 E13.08026
G1 X90.228 Y68.225 E13.16357
G1 X90.824 Y67.315 E13.21422
G1 X91.483 Y66.4 E13.26672
G0 F6000 X91.798 Y66.647
G1 F900 X92.262 Y66.056 E13.30171
G1 X92.668 Y65.57 E13.3312
G1 X93.519 Y64.625 E13.39042
G1 X94.296 Y63.857 E13.44129
G1 X95.023 Y63.202 E13.48685
G1 X96.468 Y62.048 E13.57296
G1 X96.916 Y61.731 E13.59852
G1 X97.99 Y61.032 E13.65818
G1 X99.529 Y60.165 E13.74044
G1 X100.653 Y59.63 E13.7984
G1 X102.262 Y58.986 E13.8791
G1 X103.454 Y58.6 E13.93744
G1 X104.556 Y58.303 E13.99059
G1 X105.309 Y58.136 E14.0265
G1 X106.788 Y57.875 E14.09644
G1 X108.05 Y57.726 E14.15561
G1 X109.786 Y57.651 E14.23652
G1 X110.088 Y57.652 E14.25058
G1 X111.053 Y57.681 E14.29554
G1 X111.72 Y57.723 E14.32666
G1 X112.985 Y57.85 E14.38585
G1 X114.054 Y58.021 E14.43626
G1 X114.535 Y58.111 E14.45905
G1 X115.777 Y58.384 E14.51826
G1 X116.8 Y58.671 E14.56774
G1 X117.911 Y59.049 E14.62238
G1 X118.59 Y59.309 E14.65624
G1 X119.645 Y59.766 E14.70978
G1 X120.31 Y60.091 E14.74424
G1 X120.983 Y60.444 E14.77963
G1 X121.757 Y60.883 E14.82106
G1 X122.83 Y61.565 E14.88026
G1 X123.63 Y62.139 E14.92611
G1 X124.299 Y62.66 E14.9656
G1 X124.769 Y63.047 E14.99394
G1 X126.005 Y64.183 E15.07211
G1 X126.457 Y64.649 E15.10234
G1 X127.193 Y65.457 E15.15324
G1 X128.003 Y66.437 E15.21244
G1 X128.859 Y67.627 E15.2807
G1 X129.13 Y68.037 E15.30358
G1 X129.976 Y69.465 E15.38087
G1 X130.226 Y69.929 E15.40541
G1 X131.026 Y71.592 E15.49134
G1 X131.39 Y72.49 E15.53646
G1 X131.709 Y73.356 E15.57943
G1 X131.996 Y74.193 E15.62064
G1 X147.388 Y120.733 E17.90318
G1 X147.603 Y121.414 E17.93643
G1 X147.947 Y122.637 E17.99559
G1 X148.214 Y123.88 E18.05479
G1 X148.402 Y125.137 E18.11397
G1 X148.504 Y126.264 E18.16666
G1 X148.56 Y127.534 E18.22586
G1 X148.535 Y128.805 E18.28505
G1 X148.43 Y130.072 E18.34425
G1 X148.246 Y131.329 E18.4034
G1 X148.048 Y132.298 E18.44946
G1 X147.79 Y133.331 E18.49904
G1 X147.424 Y134.549 E18.55826
G1 X147.179 Y135.241 E18.59244
G1 X146.695 Y136.416 E18.65161
G1 X146.139 Y137.559 E18.7108
G1 X145.512 Y138.664 E18.76996
G1 X145.07 Y139.356 E18.80819
G1 X145.054 Y139.345 E18.80909
G1 X144.584 Y140.054 E18.8487
G1 X142.919 Y142.395 E18.98247
G1 X140.838 Y145.555 E19.15865
G1 X140.434 Y146.139 E19.19172
G1 X140.133 Y146.55 E19.21544
G1 X139.108 Y147.808 E19.291
G1 X138.46 Y148.52 E19.33583
G1 X137.559 Y149.416 E19.395
G1 X136.604 Y150.254 E19.45416
G1 X135.597 Y151.031 E19.51339
G1 X134.544 Y151.742 E19.57255
G1 X133.461 Y152.379 E19.63105
G1 X133.002 Y152.63 E19.65541
G1 X131.462 Y153.389 E19.73536
G1 X129.987 Y154.037 E19.81038
G1 X127.922 Y154.998 E19.91643
G1 X125.911 Y156.003 E20.02112
G1 X123.931 Y157.064 E20.12572
G1 X121.833 Y158.266 E20.23831
G1 X120.15 Y159.261 E20.32934
G1 X119.511 Y159.628 E20.36366
G1 X118.481 Y160.18 E20.41807
G1 X117.327 Y160.713 E20.47726
G1 X116.141 Y161.172 E20.53648
G1 X114.929 Y161.555 E20.59566
G1 X114.053 Y161.782 E20.6378
G1 X113.696 Y161.861 E20.65483
G1 X113.307 Y161.932 E20.67324
G1 X113.31 Y161.945 E20.67386
G1 X112.046 Y162.157 E20.73354
G1 X110.782 Y162.287 E20.79271
G1 X109.512 Y162.338 E20.85189
G1 X108.241 Y162.309 E20.91109
G1 X106.711 Y162.168 E20.98264
G1 X105.985 Y162.051 E21.01688
G1 X105.983 Y162.064 E21.01749
G1 X105.212 Y161.926 E21.05396
G1 X105.214 Y161.917 E21.05439
G1 X104.709 Y161.82 E21.07834
G1 X103.479 Y161.502 E21.13749
G1 X102.271 Y161.107 E21.19667
G1 X101.09 Y160.637 E21.25586
G1 X99.941 Y160.093 E21.31506
G1 X98.828 Y159.478 E21.37427
G1 X97.613 Y158.696 E21.44155
G1 X96.786 Y158.097 E21.4891
G1 X96.151 Y157.594 E21.52682
G1 X95.129 Y156.693 E21.59026
G1 X94.539 Y156.134 E21.62811
G1 X93.451 Y155.076 E21.69877
G1 X91.768 Y153.531 E21.80515
G1 X90.089 Y152.074 E21.90867
G1 X88.344 Y150.644 E22.01372
G1 X86.557 Y149.262 E22.11891
G1 X84.769 Y147.96 E22.2219
G1 X81.905 Y146.018 E22.38303
G1 X81.168 Y145.541 E22.42391
G1 X80.124 Y144.816 E22.48309
G1 X79.223 Y144.112 E22.53634
G1 X78.633 Y143.61 E22.57241
G1 X77.699 Y142.749 E22.63156
G1 X76.82 Y141.83 E22.69077
G1 X76.001 Y140.858 E22.74996
G1 X75.245 Y139.837 E22.80911
G1 X74.555 Y138.769 E22.86832
G1 X73.978 Y137.747 E22.92297
G1 X73.566 Y136.94 E22.96516
G1 X73.041 Y135.782 E23.02437
G1 X72.59 Y134.594 E23.08354
G1 X72.215 Y133.379 E23.14275
G1 X71.893 Y132.031 E23.20728
G1 X71.841 Y131.774 E23.21949
G1 X71.628 Y130.521 E23.27867
G1 X71.495 Y129.257 E23.33785
G1 X71.441 Y127.987 E23.39704
G1 X71.467 Y126.716 E23.45624
G1 X71.545 Y125.709 E23.50327
G1 X71.636 Y124.933 E23.53965
G1 X71.762 Y124.079 E23.57985
G1 X72.01 Y122.833 E23.639
G1 X72.336 Y121.604 E23.69821
G1 X72.432 Y121.318 E23.71226
G1 X72.426 Y121.316 E23.71255
G1 X72.737 Y120.337 E23.76038
G1 X87.319 Y76.253 E25.9225
G1 X88.051 Y73.943 E26.03534
G1 X88.328 Y73.111 E26.07617
G1 X88.631 Y72.294 E26.11675
G1 X88.871 Y71.727 E26.14542
G1 X88.862 Y71.723 E26.14587
G1 X89.334 Y70.676 E26.19935
G1 X89.685 Y69.976 E26.23581
G1 X90.563 Y68.444 E26.31804
G1 X91.149 Y67.549 E26.36785
G1 X91.798 Y66.647 E26.41959
G1 F3000 E18.41959
;MESH:chip-clip-print-in-place--8.stl
G0 F6000 X107.274 Y78.56
G0 X108.19 Y79.156
G0 X108.635 Y79.502
;TYPE:WALL-INNER
G1 F3000 E26.41959
G1 F888.9 X108.51 Y79.727 E26.43173
G1 F865.4 X108.357 Y80.051 E26.44908
G1 F886.7 X108.125 Y80.854 E26.48858
G1 F891.1 X102.343 Y98.334 E27.35447
G1 F717.1 X102.284 Y98.831 E27.38372
G1 F724.3 X101.991 Y99.399 E27.4207
G1 F893.3 X100.858 Y102.827 E27.59007
G1 F801.8 X100.808 Y103.12 E27.60561
G1 F809 X100.631 Y103.51 E27.62779
G1 F891.1 X93.1 Y126.285 E28.75594
G1 F810.8 X93.051 Y126.561 E28.77043
G1 F820 X92.883 Y126.935 E28.79138
G1 F904.5 X92.656 Y127.624 E28.82499
G0 F6000 X92.58 Y128.102
G1 F900 X92.788 Y128.076 E28.83475
G1 X92.99 Y127.88 E28.84786
G1 X93.262 Y127.06 E28.88808
G1 X93.381 Y126.851 E28.89928
G1 X93.565 Y126.732 E28.90949
G1 X93.527 Y126.693 E28.91202
G1 X93.495 Y126.36 E28.9276
G1 X101.01 Y103.635 E30.04213
G1 X101.136 Y103.419 E30.05377
G1 X101.26 Y103.315 E30.06131
G1 X101.342 Y103.298 E30.06521
G1 X101.287 Y103.235 E30.0691
G1 X101.255 Y102.901 E30.08473
G1 X102.37 Y99.524 E30.25032
G1 X102.581 Y99.23 E30.26717
G1 X102.793 Y99.129 E30.27811
G1 X103.043 Y99.105 E30.2898
G1 X102.814 Y98.827 E30.30657
G1 X102.761 Y98.689 E30.31346
G1 X102.74 Y98.405 E30.32672
G1 X108.696 Y80.395 E31.21001
G1 X108.769 Y80.138 E31.22245
G1 X109.022 Y79.61 E31.24971
G1 X109.112 Y78.622 E31.29591
G1 X108.75 Y78.828 E31.3153
G1 X108.524 Y79.02 E31.32911
G1 X108.317 Y79.269 E31.34419
G1 X108.15 Y79.528 E31.35854
G1 X108.01 Y79.826 E31.37387
G1 X107.903 Y80.116 E31.38826
G1 X107.82 Y80.41 E31.40249
G1 X107.763 Y80.671 E31.41493
G1 X92.265 Y127.537 E33.71343
G1 X92.235 Y127.781 E33.72488
G1 X92.32 Y127.959 E33.73406
G1 X92.435 Y128.056 E33.74107
G1 X92.58 Y128.102 E33.74815
G1 F3000 E25.74815
G0 F6000 X92.617 Y127.789
G0 X96.723 Y117.151
G0 X102.479 Y119.243
G0 X102.792 Y119.317
G1 F3000 E33.74815
G1 F654.5 X102.758 Y119.258 E33.75251
G1 X102.69 Y119.258 E33.75686
G1 X102.656 Y119.317 E33.76122
G1 X102.69 Y119.376 E33.76558
G1 X102.758 Y119.376 E33.76994
G1 X102.792 Y119.317 E33.7743
G1 F3000 E25.7743
G0 F6000 X102.796 Y119.162
G0 X109.348 Y129.771
G0 X109.949 Y129.875
G1 F3000 E33.7743
G1 F775.9 X109.92 Y129.825 E33.77742
G1 X109.862 Y129.825 E33.78055
G1 X109.833 Y129.875 E33.78367
G1 X109.862 Y129.925 E33.7868
G1 X109.92 Y129.925 E33.78993
G1 X109.949 Y129.875 E33.79305
G1 F3000 E25.79305
G0 F6000 X109.791 Y129.863
G0 X109.862 Y130.111
G0 X117.696 Y132.229
G0 X117.688 Y132.52
G1 F3000 E33.79305
G1 F564.3 X117.648 Y132.452 E33.79891
G1 X117.569 Y132.452 E33.80478
G1 X117.53 Y132.52 E33.8106
G1 X117.57 Y132.588 E33.81646
G1 X117.649 Y132.588 E33.82233
G1 X117.688 Y132.52 E33.82815
G1 F3000 E25.82815
G0 F6000 X117.839 Y132.489
G0 X118.566 Y132.261
G0 X118.584 Y131.18
G0 X126.134 Y128.827
G0 X126.885 Y128.012
G0 X127.364 Y127.69
G1 F3000 E33.82815
G1 F895.5 X127.256 Y127.399 E33.84267
G1 F737.7 X127.062 Y127.048 E33.86546
G1 F751.6 X126.96 Y126.482 E33.89753
G1 F895.5 X119.368 Y103.53 E35.02885
G1 F812.6 X119.245 Y103.279 E35.04326
G1 F816.3 X119.158 Y102.894 E35.06352
G1 F886.7 X118.024 Y99.464 E35.23426
G1 F705.9 X117.765 Y99.015 E35.26504
G1 F712.9 X117.661 Y98.366 E35.30368
G1 F909.1 X111.679 Y80.268 E36.18236
G1 F913.7 X111.53 Y79.896 E36.20074
G1 F957.4 X111.349 Y79.53 E36.21861
G1 F3000 E28.21861
G0 F6000 X127.423 Y127.776
G0 X127.629 Y128.009
G1 F3000 E36.21861
G1 F900 X127.721 Y127.887 E36.22573
G1 X127.762 Y127.635 E36.23762
G1 X112.047 Y80.123 E38.56785
G1 X111.892 Y79.732 E38.58744
G1 X111.752 Y79.457 E38.60181
G1 X111.575 Y79.183 E38.617
G1 X111.352 Y78.94 E38.63235
G1 X111.131 Y78.757 E38.64571
G1 X110.878 Y78.621 E38.65909
G1 X110.98 Y79.632 E38.7064
G1 X111.274 Y80.31 E38.74081
G1 X117.282 Y98.491 E39.63242
G1 X117.284 Y98.907 E39.6518
G1 X117.013 Y99.303 E39.67414
G1 X117.317 Y99.345 E39.68843
G1 X117.471 Y99.424 E39.69649
G1 X117.664 Y99.645 E39.71015
G1 X118.778 Y103.019 E39.8756
G1 X118.807 Y103.249 E39.8864
G1 X118.742 Y103.445 E39.89601
G1 X118.912 Y103.565 E39.9057
G1 X119.003 Y103.697 E39.91317
G1 X126.582 Y126.607 E41.03681
G1 X126.596 Y126.936 E41.05214
G1 X126.485 Y127.306 E41.07013
G1 X126.727 Y127.394 E41.08212
G1 X126.897 Y127.592 E41.09427
G1 X127.041 Y127.943 E41.11194
G1 X127.203 Y128.066 E41.12141
G1 X127.348 Y128.105 E41.1284
G1 X127.498 Y128.084 E41.13545
G1 X127.629 Y128.009 E41.14248
G1 F3000 E33.14248
G0 F6000 X127.422 Y127.773
G0 X126.885 Y128.012
G0 X126.134 Y128.827
G0 X124.854 Y134.305
G0 X124.488 Y134.874
G0 X123.998 Y135.311
G0 X109.705 Y142.745
G0 X109.373 Y142.823
G0 X108.886 Y142.757
G0 X108.461 Y142.446
