;FLAVOR:Marlin
;TIME:1392
;Filament used: 1.12422m
;Layer height: 0.2
;MINX:72.924
;MINY:58.96
;MINZ:0.28
;MAXX:147.083
;MAXY:161.002
;MAXZ:5.8
;TARGET_MACHINE.NAME:Creality Ender-3
;Generated with Cura_SteamEngine 5.11.0
; Ender 3 V2 Optimized Start G-code - v5.0
; Date: 2025-11-09
; Improvements: 
;   - v1.0: 2 parallel priming lines (same Y direction)
;   - v2.0: Enhanced blob clearance - move away from prime line before skirt
;   - v3.0: Nozzle wipe sequence to clean blob before print start
;   - v4.0: Parallel heating (bed + nozzle at same time)
;   - v5.0: Universal material profiles (PLA/PETG/TPU auto-detect)
; Status: Active optimization - Multi-material with Cura variable injection
; Material: AUTO (uses Cura material settings)

; Universal parallel heating - uses Cura-injected material temps
; These 0 are replaced by Cura based on material profile selected
M104 S216 ; Preheat nozzle (non-blocking)
M190 S70.0 ; Heat bed and wait
M109 S216 ; Wait for nozzle to reach temp
; Note: Cura will adjust nozzle temp after first layer per profile settings

; Home and probe
G92 E0 ; Reset Extruder
G28 ; Home all axes
G29 ; BLTouch auto-level

G1 Z2.0 F3000 ; Move Z Axis up to prevent scratching
G1 X0.1 Y20 Z0.3 F5000.0 ; Move to start position

; Prime line 1: Y direction, extrude 15mm
G1 X0.1 Y200.0 Z0.3 F1500.0 E15
; Move to side (0.3mm spacing for clean nozzle)
G1 X0.4 Y200.0 Z0.3 F5000.0

; Prime line 2: Y direction (same direction as line 1), extrude 15mm
G1 X0.4 Y20 Z0.3 F1500.0 E15
G92 E0 ; Reset Extruder

; Wipe nozzle clean on bed edge to remove blob
; Retract slightly to prevent oozing during wipe
G1 E-0.5 F2400
; Move up to clear bed before traveling
G1 Z5.0 F3000
; Travel and wipe across bed edge (X220 = far right edge)
; Nozzle at Z5 (safe height), wipes while traveling to edge
G1 X220 Y5 Z0.3 F5000.0
; Move back down to first layer height at safe position
G1 Z0.3 F3000

M82 ;absolute extrusion mode
G92 E0
G92 E0
G1 F3900 E-8
;LAYER_COUNT:24
;LAYER:0
M107
G0 F6000 X113.626 Y160.275 Z0.28
;TYPE:SKIRT
G1 F3900 E0.08315
G1 F900 X113.612 Y160.533 E0.09518
G1 X113.547 Y160.699 E0.10348
G1 X113.417 Y160.82 E0.11175
G1 X113.22 Y160.881 E0.12136
G1 X111.919 Y160.647 E0.18291
G1 X110.794 Y160.353 E0.23705
G1 X109.751 Y159.998 E0.28835
G1 X108.683 Y159.544 E0.34239
G1 X107.68 Y159.031 E0.39485
G1 X106.991 Y158.624 E0.43211
G1 X106.049 Y157.996 E0.48483
G1 X105.179 Y157.319 E0.53616
G1 X104.143 Y156.372 E0.60152
G1 X102.047 Y154.243 E0.74063
G1 X100.298 Y152.57 E0.85333
G1 X98.558 Y150.997 E0.96256
G1 X96.714 Y149.422 E1.07548
G1 X94.863 Y147.93 E1.18618
G1 X92.992 Y146.508 E1.29561
G1 X91.019 Y145.095 E1.40861
G1 X89.055 Y143.769 E1.51895
G1 X87.02 Y142.478 E1.63117
G1 X84.983 Y141.265 E1.74157
G1 X82.877 Y140.091 E1.85384
G1 X81.308 Y139.233 E1.93711
G1 X80.337 Y138.608 E1.99088
G1 X79.722 Y138.158 E2.02636
G1 X78.993 Y137.575 E2.06983
G1 X78.167 Y136.845 E2.12116
G1 X77.374 Y136.038 E2.17384
G1 X76.82 Y135.397 E2.21329
G1 X76.244 Y134.657 E2.25696
G1 X75.591 Y133.702 E2.31083
G1 X75.024 Y132.727 E2.36335
G1 X74.629 Y131.936 E2.40452
G1 X74.407 Y131.457 E2.4291
G1 X73.98 Y130.441 E2.48042
G1 X73.618 Y129.369 E2.5331
G1 X73.326 Y128.238 E2.58749
G1 X73.064 Y126.651 E2.66239
G1 X73.011 Y126.173 E2.68479
G1 X72.928 Y125.074 E2.73611
G1 X72.924 Y123.914 E2.79012
G1 X73.005 Y122.779 E2.84311
G1 X73.265 Y121.16 E2.91946
G1 X73.376 Y120.644 E2.94404
G1 X73.648 Y119.575 E2.9954
G1 X74.005 Y118.497 E3.04828
G1 X74.231 Y117.908 E3.07765
G1 X94.071 Y69.793 E5.50108
G1 X94.309 Y69.241 E5.52907
G1 X94.795 Y68.218 E5.58181
G1 X95.343 Y67.249 E5.63365
G1 X95.557 Y66.902 E5.65263
G1 X96.168 Y65.984 E5.70398
G1 X96.882 Y65.066 E5.75813
G1 X97.795 Y64.068 E5.82112
G1 X98.47 Y63.422 E5.86462
G1 X98.71 Y63.206 E5.87966
G1 X99.579 Y62.481 E5.93236
G1 X100.498 Y61.821 E5.98504
G1 X101.461 Y61.228 E6.0377
G1 X102.477 Y60.68 E6.09145
G1 X103.483 Y60.229 E6.14279
G1 X104.435 Y59.877 E6.19005
G1 X104.791 Y59.758 E6.20753
G1 X105.876 Y59.441 E6.26016
G1 X106.954 Y59.208 E6.31152
G1 X108.104 Y59.045 E6.3656
G1 X109.24 Y58.969 E6.41862
G1 X110.316 Y58.96 E6.46872
G1 X111.447 Y59.002 E6.52142
G1 X112.543 Y59.122 E6.57276
G1 X114.094 Y59.428 E6.64638
G1 X114.989 Y59.676 E6.68962
G1 X115.49 Y59.835 E6.7141
G1 X116.522 Y60.221 E6.7654
G1 X117.574 Y60.705 E6.81932
G1 X118.395 Y61.15 E6.86281
G1 X119.199 Y61.631 E6.90643
G1 X120.141 Y62.258 E6.95912
G1 X121.035 Y62.951 E7.0118
G1 X121.876 Y63.707 E7.06445
G1 X122.662 Y64.524 E7.11724
G1 X123.459 Y65.491 E7.17559
G1 X124.033 Y66.267 E7.22054
G1 X124.664 Y67.231 E7.27419
G1 X125.147 Y68.089 E7.32003
G1 X125.581 Y68.987 E7.36648
G1 X125.877 Y69.668 E7.40105
G1 X145.591 Y117.488 E9.80955
G1 X145.922 Y118.323 E9.85137
G1 X146.281 Y119.325 E9.90093
G1 X146.592 Y120.441 E9.95488
G1 X146.791 Y121.406 E10.00076
G1 X147.011 Y122.983 E10.0749
G1 X147.083 Y124.116 E10.12777
G1 X147.057 Y125.532 E10.19371
G1 X146.972 Y126.485 E10.23826
G1 X146.948 Y126.559 E10.24189
G1 X146.852 Y127.354 E10.27917
G1 X146.729 Y128.086 E10.31374
G1 X146.359 Y130.506 E10.42773
G1 X146.06 Y132.923 E10.54114
G1 X145.839 Y135.233 E10.64919
G1 X145.626 Y138.676 E10.80982
G1 X145.543 Y140.424 E10.8913
G1 X145.495 Y140.987 E10.91761
G1 X145.372 Y141.933 E10.96203
G1 X145.224 Y142.8 E11.00299
G1 X145.037 Y143.647 E11.04338
G1 X144.715 Y144.76 E11.09733
G1 X144.292 Y145.894 E11.15369
G1 X143.849 Y146.887 E11.20432
G1 X143.152 Y148.185 E11.27292
G1 X142.892 Y148.617 E11.2964
G1 X142.275 Y149.566 E11.34911
G1 X141.586 Y150.47 E11.40203
G1 X140.542 Y151.621 E11.47439
G1 X139.701 Y152.402 E11.52783
G1 X138.885 Y153.073 E11.57703
G1 X138.446 Y153.402 E11.60257
G1 X137.679 Y153.93 E11.64593
G1 X137.326 Y154.153 E11.66537
G1 X136.752 Y154.493 E11.69644
G1 X135.757 Y155.02 E11.74887
G1 X135.097 Y155.321 E11.78264
G1 X134.565 Y155.536 E11.80936
G1 X133.586 Y155.88 E11.85768
G1 X132.855 Y156.094 E11.89315
G1 X131.825 Y156.37 E11.9428
G1 X129.405 Y157.055 E12.05991
G1 X127.123 Y157.771 E12.17128
G1 X124.91 Y158.536 E12.28031
G1 X120.615 Y160.179 E12.49444
G1 X119.561 Y160.501 E12.54576
G1 X118.416 Y160.76 E12.60042
G1 X117.274 Y160.934 E12.65421
G1 X116.524 Y161.002 E12.68928
G1 X116.348 Y160.979 E12.69754
G1 X116.199 Y160.881 E12.70584
G1 X116.094 Y160.706 E12.71535
G1 X116.072 Y160.369 E12.73107
G0 F6000 X116.47 Y160.347
G1 F900 X116.488 Y160.604 E12.74307
G1 X117.238 Y160.536 E12.77814
G1 X118.328 Y160.37 E12.82948
G1 X119.444 Y160.118 E12.88275
G1 X120.498 Y159.796 E12.93407
G1 X124.767 Y158.162 E13.14691
G1 X127.003 Y157.389 E13.25708
G1 X129.285 Y156.673 E13.36845
G1 X131.716 Y155.985 E13.48609
G1 X132.752 Y155.708 E13.53602
G1 X133.473 Y155.496 E13.57102
G1 X134.432 Y155.159 E13.61835
G1 X134.947 Y154.95 E13.64423
G1 X135.591 Y154.656 E13.67719
G1 X136.565 Y154.14 E13.72852
G1 X137.122 Y153.809 E13.75869
G1 X137.465 Y153.592 E13.77759
G1 X138.219 Y153.073 E13.82021
G1 X138.645 Y152.753 E13.84502
G1 X139.447 Y152.093 E13.89339
G1 X140.27 Y151.328 E13.94571
G1 X141.289 Y150.202 E14.01642
G1 X141.956 Y149.324 E14.06776
G1 X142.557 Y148.399 E14.11913
G1 X142.809 Y147.979 E14.14193
G1 X143.496 Y146.698 E14.20962
G1 X143.917 Y145.754 E14.25775
G1 X144.34 Y144.62 E14.31411
G1 X144.646 Y143.561 E14.36544
G1 X144.833 Y142.714 E14.40583
G1 X144.978 Y141.866 E14.44589
G1 X145.098 Y140.936 E14.48955
G1 X145.144 Y140.39 E14.51506
G1 X145.226 Y138.657 E14.59585
G1 X145.441 Y135.195 E14.75737
G1 X145.663 Y132.874 E14.86593
G1 X145.962 Y130.457 E14.97934
G1 X146.335 Y128.02 E15.09414
G1 X146.458 Y127.288 E15.1287
G1 X146.559 Y126.447 E15.16814
G1 X146.574 Y126.449 E15.16885
G1 X146.657 Y125.525 E15.21204
G1 X146.683 Y124.109 E15.27799
G1 X146.612 Y123.009 E15.32932
G1 X146.399 Y121.487 E15.40088
G1 X146.2 Y120.522 E15.44676
G1 X145.904 Y119.46 E15.49809
G1 X145.545 Y118.458 E15.54766
G1 X145.219 Y117.635 E15.58888
G1 X125.507 Y69.82 E17.99712
G1 X125.214 Y69.147 E18.0313
G1 X124.787 Y68.263 E18.07701
G1 X124.316 Y67.427 E18.12169
G1 X123.711 Y66.505 E18.17304
G1 X123.137 Y65.729 E18.21799
G1 X122.353 Y64.779 E18.27534
G1 X121.588 Y63.985 E18.32668
G1 X120.768 Y63.249 E18.37799
G1 X119.896 Y62.574 E18.42934
G1 X118.978 Y61.964 E18.48066
G1 X118.19 Y61.493 E18.52341
G1 X117.384 Y61.057 E18.56608
G1 X116.382 Y60.596 E18.61744
G1 X115.35 Y60.21 E18.66874
G1 X114.868 Y60.057 E18.69229
G1 X113.988 Y59.814 E18.7348
G1 X112.499 Y59.52 E18.80547
G1 X111.403 Y59.4 E18.85681
G1 X110.301 Y59.36 E18.90816
G1 X109.243 Y59.369 E18.95743
G1 X108.131 Y59.444 E19.00932
G1 X107.039 Y59.599 E19.06068
G1 X105.961 Y59.832 E19.11204
G1 X104.903 Y60.142 E19.16337
G1 X104.561 Y60.256 E19.18016
G1 X103.647 Y60.594 E19.22553
G1 X102.641 Y61.045 E19.27687
G1 X101.671 Y61.569 E19.32821
G1 X100.708 Y62.162 E19.38087
G1 X99.813 Y62.806 E19.43221
G1 X98.967 Y63.513 E19.48355
G1 X98.738 Y63.719 E19.49789
G1 X98.09 Y64.338 E19.53962
G1 X97.177 Y65.336 E19.6026
G1 X96.501 Y66.206 E19.65391
G1 X95.89 Y67.124 E19.70525
G1 X95.684 Y67.459 E19.72357
G1 X95.143 Y68.415 E19.77471
G1 X94.67 Y69.412 E19.8261
G1 X94.438 Y69.951 E19.85342
G1 X74.601 Y118.06 E22.27654
G1 X74.379 Y118.64 E22.30546
G1 X74.036 Y119.674 E22.35619
G1 X73.764 Y120.743 E22.40755
G1 X73.656 Y121.244 E22.43142
G1 X73.4 Y122.842 E22.50677
G1 X73.323 Y123.942 E22.55812
G1 X73.327 Y125.044 E22.60943
G1 X73.41 Y126.143 E22.66075
G1 X73.462 Y126.606 E22.68245
G1 X73.721 Y128.173 E22.75641
G1 X73.997 Y129.241 E22.80777
G1 X74.349 Y130.286 E22.85912
G1 X74.776 Y131.302 E22.91043
G1 X74.992 Y131.768 E22.93435
G1 X75.382 Y132.548 E22.97496
G1 X75.937 Y133.501 E23.02631
G1 X76.56 Y134.411 E23.07766
G1 X77.136 Y135.151 E23.12133
G1 X77.66 Y135.758 E23.15867
G1 X78.432 Y136.545 E23.21
G1 X79.258 Y137.275 E23.26133
G1 X79.972 Y137.845 E23.30387
G1 X80.573 Y138.285 E23.33856
G1 X81.5 Y138.882 E23.3899
G1 X83.069 Y139.74 E23.47317
G1 X85.188 Y140.921 E23.58613
G1 X87.225 Y142.134 E23.69652
G1 X89.279 Y143.437 E23.80979
G1 X91.243 Y144.763 E23.92013
G1 X93.225 Y146.183 E24.03366
G1 X95.114 Y147.619 E24.14415
G1 X96.974 Y149.118 E24.25539
G1 X98.826 Y150.7 E24.3688
G1 X100.575 Y152.281 E24.47858
G1 X102.332 Y153.962 E24.59181
G1 X104.428 Y156.091 E24.73093
G1 X105.425 Y157.003 E24.79385
G1 X106.295 Y157.68 E24.84518
G1 X107.213 Y158.291 E24.89652
G1 X107.883 Y158.686 E24.93274
G1 X108.865 Y159.188 E24.9841
G1 X109.88 Y159.619 E25.03544
G1 X110.923 Y159.974 E25.08675
G1 X111.99 Y160.253 E25.1381
G1 X113.216 Y160.474 E25.19611
G1 X113.253 Y160.227 E25.20774
G1 F3900 E17.20774
;MESH:CE3E3V2_01-chip_clip--print_in_place.stl
G0 F6000 X130.124 Y140.895
G0 X130.55 Y140.07
G0 X130.66 Y138.926
G0 X129.048 Y126.449
G0 X129.605 Y125.509
G0 X129.933 Y124.599
;TYPE:WALL-INNER
G1 F3900 E25.29089
G1 F1022.7 X130.055 Y124.605 E25.29589
G1 X130.118 Y124.503 E25.30081
G1 X129.958 Y124.115 E25.318
G1 F761.1 X129.628 Y123.633 E25.35017
G1 X129.618 Y124.244 E25.38381
G1 F1022.7 X129.933 Y124.599 E25.40326
G0 F6000 X129.628 Y123.633
G1 F604 X124.632 Y111.52 E26.31235
G1 F598 X119.636 Y99.407 E27.23058
G1 F584.4 X119.527 Y99.17 E27.24929
G1 F561.6 X119.462 Y99.053 E27.25928
G1 F576 X119.328 Y98.648 E27.29031
G1 F604 X117.621 Y94.512 E27.60075
G1 F579.7 X117.451 Y94.165 E27.62868
G1 F580.6 X117.324 Y93.789 E27.65733
G1 F605 X112.015 Y80.911 E28.62214
G0 F810 X111.797 Y80.383
G1 F3900 E20.62214
G0 F6000 X129.688 Y124.891
G1 F3900 E28.70529
G1 F900 X129.972 Y125.003 E28.7195
G1 X130.267 Y124.922 E28.73375
G1 X130.408 Y124.791 E28.74271
G1 X130.489 Y124.564 E28.75393
G1 X130.456 Y124.335 E28.76471
G1 F904.5 X111.654 Y78.728 E31.05026
G1 F927.8 X111.373 Y78.023 E31.08454
G1 F952.4 X111.312 Y78.094 E31.08866
G1 X111.063 Y78.229 E31.10113
G1 F927.8 X111.299 Y78.912 E31.13376
G1 F902.3 X111.3 Y80.481 E31.20664
G1 F900 X116.865 Y93.978 E31.88644
G1 X116.933 Y94.231 E31.89864
G1 X116.935 Y94.376 E31.90539
G1 X117.112 Y94.583 E31.91808
G1 X118.868 Y98.838 E32.13242
G1 X118.939 Y99.11 E32.14551
G1 X118.939 Y99.262 E32.15258
G1 X119.044 Y99.372 E32.15966
G1 X119.173 Y99.598 E32.17178
G1 X129.169 Y123.822 E33.39201
G1 X129.244 Y124.189 E33.40946
G1 X129.227 Y124.445 E33.4214
G1 X129.287 Y124.488 E33.42484
G0 F810 X129.414 Y124.578
G0 X129.688 Y124.891
G0 F6000 X129.672 Y125.346
G1 F900 X129.95 Y125.408 E33.4381
G1 X130.234 Y125.377 E33.45141
G1 X130.493 Y125.259 E33.46466
G1 X130.752 Y125.017 E33.48116
G1 X130.899 Y124.605 E33.50153
G1 X130.844 Y124.228 E33.51927
G1 X111.475 Y77.246 E35.88557
G1 X111.401 Y77.44 E35.89524
G1 X111.127 Y77.752 E35.91458
G1 X110.59 Y78.043 E35.94302
G1 X110.9 Y78.972 E35.98862
G1 X110.9 Y80.561 E36.06261
G1 X116.495 Y94.131 E36.74609
G1 X116.538 Y94.415 E36.75946
G1 X116.423 Y94.585 E36.76902
G1 X116.625 Y94.626 E36.77862
G1 X116.791 Y94.854 E36.79175
G1 X118.499 Y98.99 E37.00011
G1 X118.541 Y99.283 E37.0139
G1 X118.428 Y99.466 E37.02391
G1 X118.637 Y99.522 E37.03399
G1 X118.803 Y99.751 E37.04716
G1 X128.799 Y123.975 E38.26739
G1 X128.844 Y124.195 E38.27785
G1 X128.822 Y124.488 E38.29153
G1 X128.756 Y124.724 E38.30294
G1 X128.814 Y124.707 E38.30575
G1 X129.125 Y124.849 E38.32167
G1 X129.24 Y124.984 E38.32993
G0 F810 X129.427 Y125.202
G0 X129.672 Y125.346
G1 F3900 E30.32993
G0 F6000 X129.787 Y125.058
G0 X128.722 Y124.638
G0 X128.46 Y124.972
G0 X91.779 Y123.011
G0 X90.403 Y123.631
G1 F3900 E38.41308
G1 F566 X90.793 Y122.588 E38.49552
G1 F601 X100.35 Y99.413 E40.24353
G1 F573.2 X100.54 Y99.032 E40.27465
G1 F562.5 X100.585 Y98.87 E40.28718
G1 F591.1 X100.675 Y98.624 E40.30575
G1 F603 X102.366 Y94.524 E40.61397
G1 F576.9 X102.543 Y94.166 E40.64298
G1 F565.1 X102.58 Y94.034 E40.65315
G1 F589.2 X102.67 Y93.788 E40.67178
G1 F602 X107.983 Y80.903 E41.64201
G0 F810 X108.201 Y80.375
G0 F6000 X108.444 Y78.07
G0 X108.515 Y77.458
G1 F658.1 X108.636 Y77.145 E41.66338
G1 F704.5 X108.951 Y76.836 E41.68963
G1 F746.9 X109.445 Y76.568 E41.72116
G1 X109.167 Y75.78 E41.76805
G1 X108.792 Y76.693 E41.82343
G1 F704.5 X108.636 Y77.145 E41.85187
G1 F3900 E33.85187
G0 F6000 X109.072 Y76.544
G0 X90.043 Y124.609
G1 F3900 E41.93502
G1 F975.6 X90.374 Y124.297 E41.95456
G1 F1000 X90.431 Y124.056 E41.96494
G1 F704.5 X90.403 Y123.631 E41.99027
G1 X90.102 Y123.94 E42.01593
G1 F1016.9 X89.89 Y124.482 E42.03992
G1 F989 X89.916 Y124.576 E42.04405
G1 F975.6 X90.043 Y124.609 E42.04969
G0 F6000 X90.285 Y124.911
G1 F900 X90.557 Y124.652 E42.06718
G1 X90.753 Y124.529 E42.07795
G1 X90.771 Y124.236 E42.09162
G1 X91.255 Y122.778 E42.16315
G1 X100.811 Y99.603 E43.33042
G1 X100.953 Y99.361 E43.34348
G1 X101.065 Y99.248 E43.35089
G1 X101.065 Y99.088 E43.35834
G1 X101.135 Y98.814 E43.37151
G1 X102.827 Y94.714 E43.57804
G1 X102.959 Y94.486 E43.59031
G1 X103.061 Y94.379 E43.59719
G1 X103.063 Y94.232 E43.60404
G1 X103.131 Y93.978 E43.61628
G1 X108.7 Y80.473 E44.2965
G1 X108.7 Y79.321 E44.35014
G1 X108.428 Y78.516 E44.38971
G1 X89.566 Y124.252 E46.69337
G1 X89.511 Y124.488 E46.70465
G1 X89.525 Y124.639 E46.71171
G1 X89.603 Y124.817 E46.72076
G1 X89.743 Y124.929 E46.72911
G0 F810 X89.789 Y124.965
G0 X89.978 Y125.003
G0 X90.285 Y124.911
G0 F6000 X91.193 Y124.853
G1 F900 X91.136 Y124.4 E46.75037
G1 X91.61 Y122.969 E46.82056
G1 X101.181 Y99.755 E47.98977
G1 X101.358 Y99.517 E48.00359
G1 X101.582 Y99.46 E48.01435
G1 X101.463 Y99.263 E48.02506
G1 X101.505 Y98.966 E48.03903
G1 X103.197 Y94.867 E48.24552
G1 X103.369 Y94.633 E48.25904
G1 X103.579 Y94.593 E48.269
G1 X103.458 Y94.418 E48.2789
G1 X103.501 Y94.131 E48.29242
G1 X109.1 Y80.553 E48.97631
G1 X109.1 Y79.255 E49.03675
G1 X108.607 Y77.796 E49.10846
G1 F753.1 X108.515 Y77.458 E49.12795
G1 X108.297 Y77.786 E49.14987
G1 F900 X89.185 Y124.129 E51.4841
G1 X89.107 Y124.459 E51.49989
G1 X89.133 Y124.74 E51.51303
G1 X89.275 Y125.066 E51.52958
G1 X89.617 Y125.34 E51.54999
G1 X89.966 Y125.408 E51.56655
G1 X90.251 Y125.369 E51.57994
G1 X90.517 Y125.244 E51.59363
G1 X90.692 Y125.075 E51.60495
G0 F810 X90.809 Y124.962
G0 X90.951 Y124.876
G0 X91.193 Y124.853
G1 F3900 E43.60495
G0 F6000 X90.838 Y124.494
G0 X91.461 Y125.105
G0 X111.759 Y131.835
;TYPE:WALL-OUTER
G1 F3900 E51.6881
G1 F900 X111.449 Y131.841 E51.70254
